/* XPM */
static char * logo_xpm[] = {
"400 150 10984 3",
"   	c None",
".  	c #0D0D0D",
"+  	c #3E3E3D",
"@  	c #262626",
"#  	c #040404",
"$  	c #030303",
"%  	c #373837",
"&  	c #EFF0F0",
"*  	c #979797",
"=  	c #0F0F0F",
"-  	c #3B3C3C",
";  	c #F2F2F2",
">  	c #959595",
",  	c #0E0E0E",
"'  	c #020303",
")  	c #424344",
"!  	c #F2F3F3",
"~  	c #949595",
"{  	c #0D0E0F",
"]  	c #444647",
"^  	c #F1F4F5",
"/  	c #919698",
"(  	c #0E0F11",
"_  	c #101010",
":  	c #3F3E3E",
"<  	c #3F3F40",
"[  	c #484949",
"}  	c #757A7E",
"|  	c #DBEFF6",
"1  	c #9CACB1",
"2  	c #464B4E",
"3  	c #454545",
"4  	c #3D3E3D",
"5  	c #141414",
"6  	c #030202",
"7  	c #5D5D5D",
"8  	c #EDEDED",
"9  	c #ECEEEE",
"0  	c #D6EBF1",
"a  	c #C1EAF5",
"b  	c #AEE8FB",
"c  	c #A5E2F8",
"d  	c #A1DBF2",
"e  	c #EBEFEF",
"f  	c #EDEFEF",
"g  	c #BABDBE",
"h  	c #101011",
"i  	c #020202",
"j  	c #1F1F1F",
"k  	c #7F7F7F",
"l  	c #D0D6D7",
"m  	c #8B989B",
"n  	c #767C7E",
"o  	c #5B7479",
"p  	c #587A83",
"q  	c #AAE6F7",
"r  	c #7CB3C6",
"s  	c #426E7F",
"t  	c #647276",
"u  	c #75898E",
"v  	c #A6C4CB",
"w  	c #A4ABAC",
"x  	c #404242",
"y  	c #272728",
"z  	c #A6A8A9",
"A  	c #A8B6BB",
"B  	c #7A969E",
"C  	c #070D0F",
"D  	c #040505",
"E  	c #121D22",
"F  	c #ACE4F4",
"G  	c #618995",
"H  	c #080E0F",
"I  	c #000102",
"J  	c #070E11",
"K  	c #293F45",
"L  	c #8FAFB9",
"M  	c #A4B3B7",
"N  	c #464949",
"O  	c #060505",
"P  	c #050403",
"Q  	c #68696A",
"R  	c #E2EDF0",
"S  	c #647A7F",
"T  	c #0A1113",
"U  	c #000000",
"V  	c #142024",
"W  	c #B2E6F4",
"X  	c #628994",
"Y  	c #090D0F",
"Z  	c #000001",
"`  	c #000202",
" . 	c #0D181C",
".. 	c #96C7D5",
"+. 	c #A9B5B8",
"@. 	c #1B1C1D",
"#. 	c #98999A",
"$. 	c #F6F8F8",
"%. 	c #42585F",
"&. 	c #05080A",
"*. 	c #030201",
"=. 	c #010000",
"-. 	c #0D171A",
";. 	c #A0DEF1",
">. 	c #588390",
",. 	c #070B0C",
"'. 	c #000002",
"). 	c #000003",
"!. 	c #010203",
"~. 	c #1A2930",
"{. 	c #98B1B9",
"]. 	c #D0D5D8",
"^. 	c #080809",
"/. 	c #010101",
"(. 	c #1E1E1E",
"_. 	c #989899",
":. 	c #C0BFBE",
"<. 	c #C2C1C1",
"[. 	c #C0BFBF",
"}. 	c #4B4B4B",
"|. 	c #070707",
"1. 	c #383839",
"2. 	c #9EA5A8",
"3. 	c #97B1BB",
"4. 	c #1E3037",
"5. 	c #0A1012",
"6. 	c #0E181C",
"7. 	c #0D171B",
"8. 	c #020302",
"9. 	c #0B1316",
"0. 	c #83AEBB",
"a. 	c #4D6B73",
"b. 	c #080C0C",
"c. 	c #000005",
"d. 	c #010409",
"e. 	c #071115",
"f. 	c #060E10",
"g. 	c #0B1518",
"h. 	c #517F8E",
"i. 	c #A9C4CD",
"j. 	c #424C4F",
"k. 	c #131516",
"l. 	c #252728",
"m. 	c #BDC5CB",
"n. 	c #DEE3E7",
"o. 	c #D2D4D6",
"p. 	c #D9DEE4",
"q. 	c #666B6F",
"r. 	c #191919",
"s. 	c #AEAEAF",
"t. 	c #9AA2A4",
"u. 	c #121E24",
"v. 	c #020405",
"w. 	c #305561",
"x. 	c #5EA0B3",
"y. 	c #5491A3",
"z. 	c #030707",
"A. 	c #040300",
"B. 	c #040504",
"C. 	c #202425",
"D. 	c #141717",
"E. 	c #0D1D23",
"F. 	c #3F8397",
"G. 	c #336977",
"H. 	c #020607",
"I. 	c #0B1B20",
"J. 	c #6A7C82",
"K. 	c #D4E0E3",
"L. 	c #3E4243",
"M. 	c #1C252B",
"N. 	c #84AFCD",
"O. 	c #6B889D",
"P. 	c #373B45",
"Q. 	c #5B799A",
"R. 	c #7F9CAD",
"S. 	c #010A0B",
"T. 	c #05181D",
"U. 	c #020C10",
"V. 	c #1B1B1B",
"W. 	c #BBBEBF",
"X. 	c #989C9B",
"Y. 	c #244A59",
"Z. 	c #6FCCE5",
"`. 	c #6CBED4",
" + 	c #04090B",
".+ 	c #050100",
"++ 	c #060000",
"@+ 	c #881F10",
"#+ 	c #5E170D",
"$+ 	c #0B0000",
"%+ 	c #142B31",
"&+ 	c #64B9D0",
"*+ 	c #4C98AD",
"=+ 	c #010506",
"-+ 	c #010202",
";+ 	c #696E70",
">+ 	c #ECEDF0",
",+ 	c #424444",
"'+ 	c #041114",
")+ 	c #041217",
"!+ 	c #000304",
"~+ 	c #19262E",
"{+ 	c #6DA5CA",
"]+ 	c #496A85",
"^+ 	c #0C121C",
"/+ 	c #2C5881",
"(+ 	c #90B6C9",
"_+ 	c #020304",
":+ 	c #020102",
"<+ 	c #000101",
"[+ 	c #115866",
"}+ 	c #46CDF4",
"|+ 	c #24768D",
"1+ 	c #01080B",
"2+ 	c #151B1C",
"3+ 	c #92B9C1",
"4+ 	c #78989E",
"5+ 	c #030D12",
"6+ 	c #00070B",
"7+ 	c #020000",
"8+ 	c #3F0702",
"9+ 	c #DC2809",
"0+ 	c #F5792C",
"a+ 	c #F05428",
"b+ 	c #E61B11",
"c+ 	c #020404",
"d+ 	c #020B10",
"e+ 	c #00090E",
"f+ 	c #4E646A",
"g+ 	c #B8E4F0",
"h+ 	c #394546",
"i+ 	c #010102",
"j+ 	c #000305",
"k+ 	c #001119",
"l+ 	c #39AFD2",
"m+ 	c #41B4D2",
"n+ 	c #0B2227",
"o+ 	c #000306",
"p+ 	c #3F556F",
"q+ 	c #DDEAF4",
"r+ 	c #9CD5EF",
"s+ 	c #55AED6",
"t+ 	c #1A2C37",
"u+ 	c #040000",
"v+ 	c #170805",
"w+ 	c #1B1210",
"x+ 	c #222222",
"y+ 	c #0F4B5B",
"z+ 	c #3BC4F3",
"A+ 	c #2188AB",
"B+ 	c #0B4154",
"C+ 	c #032633",
"D+ 	c #000609",
"E+ 	c #050505",
"F+ 	c #060606",
"G+ 	c #060808",
"H+ 	c #1B2426",
"I+ 	c #91BDC7",
"J+ 	c #7599A1",
"K+ 	c #050708",
"L+ 	c #040606",
"M+ 	c #280401",
"N+ 	c #9D220D",
"O+ 	c #F03A12",
"P+ 	c #F07627",
"Q+ 	c #EB4D1C",
"R+ 	c #EF1F11",
"S+ 	c #3F0202",
"T+ 	c #260001",
"U+ 	c #040506",
"V+ 	c #516C74",
"W+ 	c #B7E8F4",
"X+ 	c #3B4A4E",
"Y+ 	c #050606",
"Z+ 	c #020B0F",
"`+ 	c #0E4257",
" @ 	c #1789B9",
".@ 	c #3DC1F0",
"+@ 	c #3AACD0",
"@@ 	c #091E25",
"#@ 	c #1C374C",
"$@ 	c #6DBAEA",
"%@ 	c #569FC8",
"&@ 	c #162F3E",
"*@ 	c #550D13",
"=@ 	c #77070B",
"-@ 	c #79120B",
";@ 	c #821E0D",
">@ 	c #B67A61",
",@ 	c #C49B89",
"'@ 	c #D4C7C1",
")@ 	c #514B4A",
"!@ 	c #000103",
"~@ 	c #031620",
"{@ 	c #169CEF",
"]@ 	c #17A4E7",
"^@ 	c #1EAFE1",
"/@ 	c #1296C5",
"(@ 	c #021F2D",
"_@ 	c #191A1A",
":@ 	c #B8B8B8",
"<@ 	c #BCBCBC",
"[@ 	c #B5BEBE",
"}@ 	c #AEC2C7",
"|@ 	c #96D5ED",
"1@ 	c #80C7E4",
"2@ 	c #90B1BC",
"3@ 	c #B2BABB",
"4@ 	c #9FB7BC",
"5@ 	c #435D62",
"6@ 	c #0C0503",
"7@ 	c #832C13",
"8@ 	c #EF491F",
"9@ 	c #F32F13",
"0@ 	c #7F1C08",
"a@ 	c #7C1106",
"b@ 	c #D70D07",
"c@ 	c #D3150D",
"d@ 	c #840D08",
"e@ 	c #131416",
"f@ 	c #98AAAD",
"g@ 	c #B5B8B9",
"h@ 	c #ABB9BB",
"i@ 	c #87C1D8",
"j@ 	c #87D7F8",
"k@ 	c #92C0CF",
"l@ 	c #A0B8BD",
"m@ 	c #B4BCBD",
"n@ 	c #BABABA",
"o@ 	c #717171",
"p@ 	c #051218",
"q@ 	c #2C8FB2",
"r@ 	c #2DB1E0",
"s@ 	c #30C2F5",
"t@ 	c #1997EA",
"u@ 	c #126FB4",
"v@ 	c #02111D",
"w@ 	c #203540",
"x@ 	c #7FC6EA",
"y@ 	c #5496B6",
"z@ 	c #050509",
"A@ 	c #98070E",
"B@ 	c #E50E16",
"C@ 	c #F23D1D",
"D@ 	c #F95720",
"E@ 	c #F87844",
"F@ 	c #F66D44",
"G@ 	c #F35344",
"H@ 	c #5F1F1B",
"I@ 	c #050101",
"J@ 	c #000A13",
"K@ 	c #1194F1",
"L@ 	c #17AAF5",
"M@ 	c #21BFF9",
"N@ 	c #19AEE6",
"O@ 	c #032336",
"P@ 	c #050504",
"Q@ 	c #272828",
"R@ 	c #F5F5F5",
"S@ 	c #E9F7F9",
"T@ 	c #B4F0FB",
"U@ 	c #B1EEFB",
"V@ 	c #8DDCF9",
"W@ 	c #84D6FB",
"X@ 	c #ACE7FA",
"Y@ 	c #ECF6F9",
"Z@ 	c #DAF5FA",
"`@ 	c #5B7C83",
" # 	c #0E0604",
".# 	c #923417",
"+# 	c #F4481F",
"@# 	c #F62414",
"## 	c #690201",
"$# 	c #650001",
"%# 	c #D50908",
"&# 	c #F32417",
"*# 	c #99140C",
"=# 	c #191C1D",
"-# 	c #BDE4E8",
";# 	c #EEF6F7",
"># 	c #C4EFFA",
",# 	c #85D7FA",
"'# 	c #7CD3FA",
")# 	c #ACE6FA",
"!# 	c #CCF2FA",
"~# 	c #E9F8FB",
"{# 	c #F6F6F6",
"]# 	c #949495",
"^# 	c #080808",
"/# 	c #06181E",
"(# 	c #39C3EB",
"_# 	c #2EC5F7",
":# 	c #2BC2F7",
"<# 	c #0D87E8",
"[# 	c #085CA9",
"}# 	c #010D18",
"|# 	c #020100",
"1# 	c #273A41",
"2# 	c #9DD4EC",
"3# 	c #619CB9",
"4# 	c #05070A",
"5# 	c #9D080E",
"6# 	c #E50E15",
"7# 	c #F33F18",
"8# 	c #FA5A1B",
"9# 	c #F95C20",
"0# 	c #F65522",
"a# 	c #F42B1C",
"b# 	c #BB4F40",
"c# 	c #998876",
"d# 	c #6E5E50",
"e# 	c #040302",
"f# 	c #05293D",
"g# 	c #135F96",
"h# 	c #14619C",
"i# 	c #12619B",
"j# 	c #11619C",
"k# 	c #10619E",
"l# 	c #0B4E7E",
"m# 	c #00090F",
"n# 	c #042A44",
"o# 	c #0F5B95",
"p# 	c #0F5D9A",
"q# 	c #0F5E9A",
"r# 	c #0C5A93",
"s# 	c #000205",
"t# 	c #000203",
"u# 	c #021323",
"v# 	c #033C68",
"w# 	c #0578D0",
"x# 	c #057FDC",
"y# 	c #046EC3",
"z# 	c #036BB7",
"A# 	c #00182C",
"B# 	c #010100",
"C# 	c #2B2C2C",
"D# 	c #252A2A",
"E# 	c #17262A",
"F# 	c #213841",
"G# 	c #65A8C4",
"H# 	c #5FA1BC",
"I# 	c #1B343E",
"J# 	c #233338",
"K# 	c #222E32",
"L# 	c #0E1618",
"M# 	c #030000",
"N# 	c #3C0904",
"O# 	c #9A0D0A",
"P# 	c #D80B0C",
"Q# 	c #B90206",
"R# 	c #B80106",
"S# 	c #C80307",
"T# 	c #530804",
"U# 	c #340301",
"V# 	c #1D2A2C",
"W# 	c #252C2E",
"X# 	c #1F2B30",
"Y# 	c #4D7C93",
"Z# 	c #81D1F4",
"`# 	c #39616E",
" $ 	c #1B2F35",
".$ 	c #232C2D",
"+$ 	c #2A2C2C",
"@$ 	c #010305",
"#$ 	c #03497C",
"$$ 	c #0871BD",
"%$ 	c #1098ED",
"&$ 	c #0977D8",
"*$ 	c #056BCE",
"=$ 	c #011933",
"-$ 	c #010B17",
";$ 	c #010204",
">$ 	c #084C82",
",$ 	c #0C5999",
"'$ 	c #0C5A98",
")$ 	c #0E5A9A",
"!$ 	c #073A63",
"~$ 	c #000508",
"{$ 	c #00050A",
"]$ 	c #094D7F",
"^$ 	c #0F5A9A",
"/$ 	c #115C9A",
"($ 	c #15609E",
"_$ 	c #104B78",
":$ 	c #000204",
"<$ 	c #263F47",
"[$ 	c #8CD0ED",
"}$ 	c #5B9AB9",
"|$ 	c #07060A",
"1$ 	c #A2080E",
"2$ 	c #E91119",
"3$ 	c #F22716",
"4$ 	c #F73315",
"5$ 	c #F52F16",
"6$ 	c #F3221A",
"7$ 	c #F63622",
"8$ 	c #F99874",
"9$ 	c #F8C7B6",
"0$ 	c #AB5E46",
"a$ 	c #0A0402",
"b$ 	c #0A0000",
"c$ 	c #450504",
"d$ 	c #9D573E",
"e$ 	c #361A11",
"f$ 	c #093A5A",
"g$ 	c #1F8FE5",
"h$ 	c #2295F0",
"i$ 	c #2196EF",
"j$ 	c #1E96F0",
"k$ 	c #1C94F3",
"l$ 	c #1475C0",
"m$ 	c #010E18",
"n$ 	c #08426C",
"o$ 	c #1B8EEA",
"p$ 	c #1C92F0",
"q$ 	c #1D91EE",
"r$ 	c #1A8BE5",
"s$ 	c #000207",
"t$ 	c #00264E",
"u$ 	c #0365C8",
"v$ 	c #0377E1",
"w$ 	c #0385EF",
"x$ 	c #0389F2",
"y$ 	c #001F3D",
"z$ 	c #000100",
"A$ 	c #0C161A",
"B$ 	c #5C9FB8",
"C$ 	c #5693AB",
"D$ 	c #500104",
"E$ 	c #C70409",
"F$ 	c #D20309",
"G$ 	c #D00209",
"H$ 	c #C10107",
"I$ 	c #396477",
"J$ 	c #75CCEE",
"K$ 	c #203A41",
"L$ 	c #020101",
"M$ 	c #000407",
"N$ 	c #0266B3",
"O$ 	c #0A93F7",
"P$ 	c #0A8BEF",
"Q$ 	c #0466CE",
"R$ 	c #0255B9",
"S$ 	c #000914",
"T$ 	c #020C11",
"U$ 	c #082432",
"V$ 	c #05151E",
"W$ 	c #000105",
"X$ 	c #000104",
"Y$ 	c #0F76CC",
"Z$ 	c #188BED",
"`$ 	c #1689E9",
" % 	c #1586E7",
".% 	c #0C538E",
"+% 	c #01060A",
"@% 	c #000912",
"#% 	c #1177C7",
"$% 	c #198CED",
"%% 	c #1A8BEB",
"&% 	c #1C8CEA",
"*% 	c #2091EB",
"=% 	c #186FB2",
"-% 	c #26444E",
";% 	c #77CBEE",
">% 	c #5296B6",
",% 	c #040508",
"'% 	c #99070F",
")% 	c #E30D19",
"!% 	c #F12315",
"~% 	c #F83115",
"{% 	c #F82E18",
"]% 	c #F6201B",
"^% 	c #F4301F",
"/% 	c #F05537",
"(% 	c #F05034",
"_% 	c #AF2B14",
":% 	c #28120F",
"<% 	c #352012",
"[% 	c #3E301A",
"}% 	c #513627",
"|% 	c #8C3631",
"1% 	c #C61313",
"2% 	c #B13828",
"3% 	c #390F0A",
"4% 	c #01090C",
"5% 	c #031118",
"6% 	c #00070A",
"7% 	c #01080C",
"8% 	c #03121E",
"9% 	c #03121F",
"0% 	c #03121D",
"a% 	c #031320",
"b% 	c #03182B",
"c% 	c #021322",
"d% 	c #01080F",
"e% 	c #031424",
"f% 	c #041527",
"g% 	c #041526",
"h% 	c #051524",
"i% 	c #011E31",
"j% 	c #1070B1",
"k% 	c #0F6DAF",
"l% 	c #021E31",
"m% 	c #01070A",
"n% 	c #010F1C",
"o% 	c #00152C",
"p% 	c #00429E",
"q% 	c #0049B3",
"r% 	c #002D81",
"s% 	c #002067",
"t% 	c #000E2E",
"u% 	c #0D1517",
"v% 	c #699FB2",
"w% 	c #78B8D1",
"x% 	c #010810",
"y% 	c #082031",
"z% 	c #031521",
"A% 	c #090000",
"B% 	c #230001",
"C% 	c #BF0104",
"D% 	c #830002",
"E% 	c #2C0000",
"F% 	c #030B10",
"G% 	c #010507",
"H% 	c #7A9098",
"I% 	c #C2E2EE",
"J% 	c #2F3C3E",
"K% 	c #001534",
"L% 	c #004298",
"M% 	c #004FB5",
"N% 	c #024EBB",
"O% 	c #02429D",
"P% 	c #001838",
"Q% 	c #020D19",
"R% 	c #030304",
"S% 	c #030100",
"T% 	c #021E33",
"U% 	c #0D70B1",
"V% 	c #0E7FC5",
"W% 	c #1A9ADC",
"X% 	c #0E557C",
"Y% 	c #031120",
"Z% 	c #031323",
"`% 	c #02111F",
" & 	c #010911",
".& 	c #03101C",
"+& 	c #041322",
"@& 	c #031221",
"#& 	c #03111F",
"$& 	c #030F1A",
"%& 	c #00060C",
"&& 	c #193A48",
"*& 	c #51B8EA",
"=& 	c #3986AF",
"-& 	c #050406",
";& 	c #99060D",
">& 	c #E10913",
",& 	c #ED1415",
"'& 	c #F01716",
")& 	c #F41C18",
"!& 	c #F61D1A",
"~& 	c #F4201C",
"{& 	c #EE1E1B",
"]& 	c #E6141A",
"^& 	c #E2241E",
"/& 	c #E0623B",
"(& 	c #E78A44",
"_& 	c #E9B85E",
":& 	c #EB9957",
"<& 	c #F05B41",
"[& 	c #E22521",
"}& 	c #170100",
"|& 	c #070000",
"1& 	c #0D566E",
"2& 	c #28AEE3",
"3& 	c #104F68",
"4& 	c #012239",
"5& 	c #0D88DD",
"6& 	c #0F83D9",
"7& 	c #042E4F",
"8& 	c #010C18",
"9& 	c #010002",
"0& 	c #00050F",
"a& 	c #00348B",
"b& 	c #003EA9",
"c& 	c #003599",
"d& 	c #002E87",
"e& 	c #00143C",
"f& 	c #75A3B2",
"g& 	c #8ED1E9",
"h& 	c #030C16",
"i& 	c #020200",
"j& 	c #093347",
"k& 	c #1E8CC2",
"l& 	c #072C42",
"m& 	c #081D28",
"n& 	c #278ABE",
"o& 	c #124664",
"p& 	c #91A1A9",
"q& 	c #D0E7EF",
"r& 	c #333B3D",
"s& 	c #001A3F",
"t& 	c #004EB6",
"u& 	c #0044AB",
"v& 	c #00379F",
"w& 	c #002A7A",
"x& 	c #000818",
"y& 	c #020203",
"z& 	c #022E50",
"A& 	c #1099F5",
"B& 	c #0E8DE7",
"C& 	c #087DD3",
"D& 	c #043E6A",
"E& 	c #000F1A",
"F& 	c #003760",
"G& 	c #000B1B",
"H& 	c #16394A",
"I& 	c #4CB2EC",
"J& 	c #3683B0",
"K& 	c #070406",
"L& 	c #99040B",
"M& 	c #DB0611",
"N& 	c #E70C12",
"O& 	c #EA0C14",
"P& 	c #F11717",
"Q& 	c #F6211B",
"R& 	c #F5231B",
"S& 	c #EF1C1B",
"T& 	c #E5111F",
"U& 	c #E91B1D",
"V& 	c #F83A1C",
"W& 	c #F8371C",
"X& 	c #ED2518",
"Y& 	c #CD1C12",
"Z& 	c #7E0A09",
"`& 	c #940609",
" * 	c #091A1C",
".* 	c #0E282C",
"+* 	c #0F282D",
"@* 	c #10292E",
"#* 	c #122A2F",
"$* 	c #142D31",
"%* 	c #132C31",
"&* 	c #122C31",
"** 	c #122B30",
"=* 	c #132B30",
"-* 	c #132C30",
";* 	c #122C30",
">* 	c #102A2F",
",* 	c #112A2F",
"'* 	c #0C282F",
")* 	c #0B282F",
"!* 	c #0A272F",
"~* 	c #09262E",
"{* 	c #09272F",
"]* 	c #051829",
"^* 	c #051928",
"/* 	c #0A364C",
"(* 	c #186386",
"_* 	c #0D415F",
":* 	c #020E1E",
"<* 	c #031624",
"[* 	c #031929",
"}* 	c #041827",
"|* 	c #06202B",
"1* 	c #061A24",
"2* 	c #020709",
"3* 	c #0C2B34",
"4* 	c #071A20",
"5* 	c #010E1C",
"6* 	c #000A15",
"7* 	c #020A12",
"8* 	c #031A2D",
"9* 	c #011325",
"0* 	c #01101C",
"a* 	c #084479",
"b* 	c #0A4B86",
"c* 	c #0968BE",
"d* 	c #0B65B7",
"e* 	c #012B56",
"f* 	c #02264B",
"g* 	c #000B19",
"h* 	c #000308",
"i* 	c #001D4F",
"j* 	c #002463",
"k* 	c #002D88",
"l* 	c #002F90",
"m* 	c #00194D",
"n* 	c #0A1112",
"o* 	c #4D717C",
"p* 	c #6DA0B0",
"q* 	c #51585D",
"r* 	c #3E4041",
"s* 	c #072737",
"t* 	c #17678D",
"u* 	c #072638",
"v* 	c #010304",
"w* 	c #040607",
"x* 	c #364A50",
"y* 	c #223134",
"z* 	c #050607",
"A* 	c #06141C",
"B* 	c #1A5B7C",
"C* 	c #11394D",
"D* 	c #181A1B",
"E* 	c #545759",
"F* 	c #718E9A",
"G* 	c #739AA6",
"H* 	c #1A2426",
"I* 	c #000206",
"J* 	c #00225E",
"K* 	c #0043AB",
"L* 	c #003181",
"M* 	c #011F5A",
"N* 	c #001947",
"O* 	c #000510",
"P* 	c #041F3D",
"Q* 	c #03335F",
"R* 	c #0561A1",
"S* 	c #0362B0",
"T* 	c #097DDD",
"U* 	c #0655A0",
"V* 	c #032B51",
"W* 	c #021524",
"X* 	c #000108",
"Y* 	c #031626",
"Z* 	c #031C2E",
"`* 	c #062232",
" = 	c #0A2B37",
".= 	c #010608",
"+= 	c #000509",
"@= 	c #011321",
"#= 	c #021525",
"$= 	c #051929",
"%= 	c #081E2C",
"&= 	c #0C232D",
"*= 	c #081E2E",
"== 	c #0C232F",
"-= 	c #0F252C",
";= 	c #12292E",
">= 	c #142A2F",
",= 	c #152B2F",
"'= 	c #142B2F",
")= 	c #132A2F",
"!= 	c #122A2E",
"~= 	c #112A2E",
"{= 	c #11292E",
"]= 	c #0F2A2F",
"^= 	c #0F292F",
"/= 	c #0D282E",
"(= 	c #0B272E",
"_= 	c #0C2830",
":= 	c #0C272E",
"<= 	c #030D10",
"[= 	c #000408",
"}= 	c #000303",
"|= 	c #214046",
"1= 	c #153347",
"2= 	c #4BA5E8",
"3= 	c #3378AC",
"4= 	c #050307",
"5= 	c #8B030A",
"6= 	c #CC0611",
"7= 	c #D60913",
"8= 	c #D80A14",
"9= 	c #E11015",
"0= 	c #F21819",
"a= 	c #F11A18",
"b= 	c #EC1718",
"c= 	c #E5121E",
"d= 	c #E71A1B",
"e= 	c #F0301B",
"f= 	c #F0291B",
"g= 	c #DF1315",
"h= 	c #950B0B",
"i= 	c #32070A",
"j= 	c #2E1D25",
"k= 	c #041B23",
"l= 	c #105166",
"m= 	c #051C25",
"n= 	c #082E3B",
"o= 	c #0F4055",
"p= 	c #2B7482",
"q= 	c #49B1C9",
"r= 	c #4EB3CC",
"s= 	c #4EB2CD",
"t= 	c #4EB2CC",
"u= 	c #51B4CD",
"v= 	c #55B7CF",
"w= 	c #55B7D0",
"x= 	c #53B6CF",
"y= 	c #52B5CF",
"z= 	c #53B5CF",
"A= 	c #54B5CF",
"B= 	c #54B6CF",
"C= 	c #53B7CF",
"D= 	c #51B6CF",
"E= 	c #50B6CE",
"F= 	c #4FB6CF",
"G= 	c #4DB4CD",
"H= 	c #4DB2CD",
"I= 	c #4DB3CE",
"J= 	c #4BB2CD",
"K= 	c #47B0CD",
"L= 	c #3BAACE",
"M= 	c #3AA9CE",
"N= 	c #39A9CE",
"O= 	c #38A9CD",
"P= 	c #31A3CC",
"Q= 	c #2DA0CB",
"R= 	c #2DA1CB",
"S= 	c #2EA0CB",
"T= 	c #2071BB",
"U= 	c #1B72BB",
"V= 	c #0C4A7B",
"W= 	c #031E40",
"X= 	c #0D549E",
"Y= 	c #093D88",
"Z= 	c #0C67AC",
"`= 	c #1373BF",
" - 	c #1878C0",
".- 	c #208CC8",
"+- 	c #1775A9",
"@- 	c #00030A",
"#- 	c #041A24",
"$- 	c #289ECA",
"%- 	c #186786",
"&- 	c #012447",
"*- 	c #0454A2",
"=- 	c #034184",
"-- 	c #000719",
";- 	c #013772",
">- 	c #0266BA",
",- 	c #014D91",
"'- 	c #000307",
")- 	c #000004",
"!- 	c #000916",
"~- 	c #0257B2",
"{- 	c #0369D1",
"]- 	c #0167CD",
"^- 	c #015CBD",
"/- 	c #001C41",
"(- 	c #002374",
"_- 	c #003094",
":- 	c #001E5C",
"<- 	c #080F11",
"[- 	c #2E4B55",
"}- 	c #AFDAE3",
"|- 	c #96A2A5",
"1- 	c #070A0C",
"2- 	c #02090C",
"3- 	c #010405",
"4- 	c #080F10",
"5- 	c #8DCBDF",
"6- 	c #578390",
"7- 	c #0A0F11",
"8- 	c #010609",
"9- 	c #3F4447",
"0- 	c #D0E1E5",
"a- 	c #476A76",
"b- 	c #091418",
"c- 	c #030505",
"d- 	c #00020A",
"e- 	c #002B88",
"f- 	c #002E91",
"g- 	c #001A51",
"h- 	c #000208",
"i- 	c #024FA0",
"j- 	c #0267CB",
"k- 	c #0372D9",
"l- 	c #0266CB",
"m- 	c #012D6B",
"n- 	c #00213F",
"o- 	c #085A9F",
"p- 	c #073661",
"q- 	c #020408",
"r- 	c #00040E",
"s- 	c #00122E",
"t- 	c #033E73",
"u- 	c #1171BC",
"v- 	c #0D76C5",
"w- 	c #1283C8",
"x- 	c #1F9BCE",
"y- 	c #01121B",
"z- 	c #010201",
"A- 	c #001C31",
"B- 	c #02589E",
"C- 	c #0C63AB",
"D- 	c #176EBA",
"E- 	c #1E7EBF",
"F- 	c #2A8FC5",
"G- 	c #21689E",
"H- 	c #0B3A63",
"I- 	c #3898C3",
"J- 	c #45A7CA",
"K- 	c #51B2CC",
"L- 	c #59B5CD",
"M- 	c #5CB6CE",
"N- 	c #59B6CE",
"O- 	c #56B6CD",
"P- 	c #54B5CD",
"Q- 	c #53B4CD",
"R- 	c #52B4CD",
"S- 	c #51B3CD",
"T- 	c #50B3CD",
"U- 	c #52B5CD",
"V- 	c #54B5CE",
"W- 	c #50B3CE",
"X- 	c #4CB2CE",
"Y- 	c #4AB2CE",
"Z- 	c #45B0CE",
"`- 	c #3BABCD",
" ; 	c #32A6CC",
".; 	c #35A8CC",
"+; 	c #37A9CD",
"@; 	c #39A7CA",
"#; 	c #134051",
"$; 	c #010303",
"%; 	c #011B34",
"&; 	c #003161",
"*; 	c #00070E",
"=; 	c #030A0A",
"-; 	c #58A4B5",
";; 	c #010406",
">; 	c #0D2339",
",; 	c #2F80D9",
"'; 	c #1F599B",
"); 	c #030204",
"!; 	c #81010B",
"~; 	c #C20311",
"{; 	c #C30512",
"]; 	c #C20514",
"^; 	c #C60614",
"/; 	c #E90B19",
"(; 	c #E60A18",
"_; 	c #E50E18",
":; 	c #E6141D",
"<; 	c #E7141B",
"[; 	c #E81619",
"}; 	c #EE1A1B",
"|; 	c #F1151A",
"1; 	c #AE1620",
"2; 	c #56586B",
"3; 	c #407897",
"4; 	c #000405",
"5; 	c #0B4456",
"6; 	c #2BC2F3",
"7; 	c #000607",
"8; 	c #1E7798",
"9; 	c #36A7D7",
"0; 	c #072432",
"a; 	c #030F18",
"b; 	c #000107",
"c; 	c #287482",
"d; 	c #4AB4CB",
"e; 	c #55B9CF",
"f; 	c #57B8D0",
"g; 	c #55BBD5",
"h; 	c #53BDD6",
"i; 	c #53BCD5",
"j; 	c #57BCD5",
"k; 	c #56BCD4",
"l; 	c #56BBD4",
"m; 	c #5CC3DC",
"n; 	c #5BC3DC",
"o; 	c #5BC5DD",
"p; 	c #5AC5DD",
"q; 	c #58C3DB",
"r; 	c #57C3DB",
"s; 	c #58C3DC",
"t; 	c #57C2DB",
"u; 	c #54C0D9",
"v; 	c #55C0DA",
"w; 	c #53BFDA",
"x; 	c #4DBBD9",
"y; 	c #48B8D7",
"z; 	c #3DB3D8",
"A; 	c #3BB3D8",
"B; 	c #3BB2D7",
"C; 	c #3AB0D6",
"D; 	c #32A9D2",
"E; 	c #2DA4CF",
"F; 	c #2AA3CE",
"G; 	c #28A1CF",
"H; 	c #1D71B7",
"I; 	c #1B73B8",
"J; 	c #0B4C7E",
"K; 	c #021938",
"L; 	c #094585",
"M; 	c #063476",
"N; 	c #0866AB",
"O; 	c #1372BC",
"P; 	c #1976C0",
"Q; 	c #238BC9",
"R; 	c #1578AF",
"S; 	c #01050D",
"T; 	c #269FD3",
"U; 	c #156D8F",
"V; 	c #01203F",
"W; 	c #034C96",
"X; 	c #023C84",
"Y; 	c #000B2A",
"Z; 	c #004296",
"`; 	c #005BAF",
" > 	c #00438A",
".> 	c #00112B",
"+> 	c #000D22",
"@> 	c #000713",
"#> 	c #000712",
"$> 	c #00050D",
"%> 	c #013578",
"&> 	c #024494",
"*> 	c #0155B2",
"=> 	c #004394",
"-> 	c #00193D",
";> 	c #000613",
">> 	c #030408",
",> 	c #001D5E",
"'> 	c #00287A",
")> 	c #001B54",
"!> 	c #000512",
"~> 	c #060D11",
"{> 	c #3F7B95",
"]> 	c #94CAE0",
"^> 	c #697378",
"/> 	c #1D2528",
"(> 	c #030403",
"_> 	c #0C171A",
":> 	c #9FDFF5",
"<> 	c #6193A1",
"[> 	c #0B1213",
"}> 	c #0A0D0E",
"|> 	c #1C2324",
"1> 	c #799CAB",
"2> 	c #6EB5CC",
"3> 	c #173945",
"4> 	c #000513",
"5> 	c #00267C",
"6> 	c #002271",
"7> 	c #00133E",
"8> 	c #010103",
"9> 	c #000A1B",
"0> 	c #01489D",
"a> 	c #0258B7",
"b> 	c #0357B0",
"c> 	c #024592",
"d> 	c #000813",
"e> 	c #010E1E",
"f> 	c #011224",
"g> 	c #011328",
"h> 	c #02386A",
"i> 	c #0789ED",
"j> 	c #05559C",
"k> 	c #000814",
"l> 	c #020C25",
"m> 	c #00132C",
"n> 	c #0D5A97",
"o> 	c #1A7FCD",
"p> 	c #1379C7",
"q> 	c #107FC7",
"r> 	c #188FC1",
"s> 	c #000D14",
"t> 	c #021A30",
"u> 	c #025598",
"v> 	c #0B5FA6",
"w> 	c #1368B1",
"x> 	c #1975B3",
"y> 	c #2788BE",
"z> 	c #1E649C",
"A> 	c #0B3862",
"B> 	c #3B9ECC",
"C> 	c #4DB2D6",
"D> 	c #5AB9D3",
"E> 	c #5EBCD3",
"F> 	c #61BFD5",
"G> 	c #5EBDD3",
"H> 	c #5BBED4",
"I> 	c #59BED4",
"J> 	c #58BCD3",
"K> 	c #57BCD3",
"L> 	c #55BCD4",
"M> 	c #56BDD5",
"N> 	c #59BED5",
"O> 	c #5ABFD6",
"P> 	c #5BC0D8",
"Q> 	c #5AC0D8",
"R> 	c #58C0D8",
"S> 	c #58C0D9",
"T> 	c #54C1DC",
"U> 	c #50C1DD",
"V> 	c #4DBDDB",
"W> 	c #4ABAD9",
"X> 	c #40B4D6",
"Y> 	c #3AB0D5",
"Z> 	c #3FB2D6",
"`> 	c #40ADD1",
" , 	c #3BA6C9",
"., 	c #12404F",
"+, 	c #001324",
"@, 	c #002445",
"#, 	c #000F1C",
"$, 	c #020D17",
"%, 	c #0A1519",
"&, 	c #59A5BA",
"*, 	c #0A1A2E",
"=, 	c #2C6CC5",
"-, 	c #1E4F95",
";, 	c #050204",
">, 	c #760108",
",, 	c #AC000C",
"', 	c #460204",
"), 	c #140201",
"!, 	c #120000",
"~, 	c #7B020B",
"{, 	c #AB0410",
"], 	c #D40915",
"^, 	c #E4111B",
"/, 	c #E4101A",
"(, 	c #DF0E19",
"_, 	c #CC0C15",
":, 	c #8A040A",
"<, 	c #751F2A",
"[, 	c #627E9D",
"}, 	c #245877",
"|, 	c #021016",
"1, 	c #072F3D",
"2, 	c #021015",
"3, 	c #12608A",
"4, 	c #249DE1",
"5, 	c #1B9BE5",
"6, 	c #1988CD",
"7, 	c #001951",
"8, 	c #00113C",
"9, 	c #000410",
"0, 	c #00308A",
"a, 	c #00389A",
"b, 	c #0048AA",
"c, 	c #0052B2",
"d, 	c #0263C5",
"e, 	c #0360C1",
"f, 	c #004AA7",
"g, 	c #00459D",
"h, 	c #00143E",
"i, 	c #00051E",
"j, 	c #00123D",
"k, 	c #002B82",
"l, 	c #00153C",
"m, 	c #000515",
"n, 	c #000F3B",
"o, 	c #00071C",
"p, 	c #4A8296",
"q, 	c #B6DEEC",
"r, 	c #C3ECF5",
"s, 	c #1E2B33",
"t, 	c #111313",
"u, 	c #0C0F11",
"v, 	c #8DD6F4",
"w, 	c #548DA0",
"x, 	c #0A1314",
"y, 	c #090A0B",
"z, 	c #0D0F10",
"A, 	c #6B8287",
"B, 	c #D0F3F8",
"C, 	c #6BACC8",
"D, 	c #163A4A",
"E, 	c #020403",
"F, 	c #000419",
"G, 	c #00020D",
"H, 	c #002D78",
"I, 	c #003C9C",
"J, 	c #000B23",
"K, 	c #000B28",
"L, 	c #00184F",
"M, 	c #013D89",
"N, 	c #0366C9",
"O, 	c #0562C2",
"P, 	c #0463C6",
"Q, 	c #025BBB",
"R, 	c #0053AE",
"S, 	c #004EAD",
"T, 	c #002E7B",
"U, 	c #00205C",
"V, 	c #000106",
"W, 	c #000311",
"X, 	c #00051B",
"Y, 	c #075A97",
"Z, 	c #0F6FB3",
"`, 	c #265B69",
" ' 	c #3E9FBF",
".' 	c #0A162B",
"+' 	c #2E56B1",
"@' 	c #213E80",
"#' 	c #030200",
"$' 	c #3A0003",
"%' 	c #A4040C",
"&' 	c #CB0713",
"*' 	c #C80613",
"=' 	c #AE040F",
"-' 	c #5B0107",
";' 	c #051F2E",
">' 	c #0A344E",
",' 	c #093653",
"'' 	c #072F4A",
")' 	c #000A20",
"!' 	c #00081B",
"~' 	c #00102E",
"{' 	c #00112E",
"]' 	c #001635",
"^' 	c #001939",
"/' 	c #001E40",
"(' 	c #011F41",
"_' 	c #001634",
":' 	c #00132F",
"<' 	c #00010A",
"[' 	c #000718",
"}' 	c #001132",
"|' 	c #000819",
"1' 	c #000414",
"2' 	c #00020B",
"3' 	c #0E1C22",
"4' 	c #4C7482",
"5' 	c #75A7B4",
"6' 	c #9FB8C0",
"7' 	c #9CAAAF",
"8' 	c #859EA5",
"9' 	c #7197A2",
"0' 	c #8ED7F8",
"a' 	c #7DB9D1",
"b' 	c #678691",
"c' 	c #84949A",
"d' 	c #899BA3",
"e' 	c #709EAD",
"f' 	c #649BAA",
"g' 	c #1F3E4C",
"h' 	c #03090D",
"i' 	c #001231",
"j' 	c #00173E",
"k' 	c #00040C",
"l' 	c #000616",
"m' 	c #00132D",
"n' 	c #012246",
"o' 	c #022245",
"p' 	c #012144",
"q' 	c #001937",
"r' 	c #001127",
"s' 	c #00132E",
"t' 	c #000E27",
"u' 	c #000B21",
"v' 	c #000006",
"w' 	c #011B2F",
"x' 	c #032036",
"y' 	c #142F36",
"z' 	c #24647C",
"A' 	c #2C7DA0",
"B' 	c #0A142C",
"C' 	c #2E4FAA",
"D' 	c #213A7C",
"E' 	c #010107",
"F' 	c #000917",
"G' 	c #08263D",
"H' 	c #071C2A",
"I' 	c #130001",
"J' 	c #400105",
"K' 	c #5E0308",
"L' 	c #5C0208",
"M' 	c #3B0104",
"N' 	c #110001",
"O' 	c #060C0E",
"P' 	c #0F1B1E",
"Q' 	c #5E9DBB",
"R' 	c #7CCAF4",
"S' 	c #74CCF7",
"T' 	c #64CAF7",
"U' 	c #87D6FB",
"V' 	c #78CFFA",
"W' 	c #5BBFF7",
"X' 	c #93D4F5",
"Y' 	c #84D1F6",
"Z' 	c #2F6177",
"`' 	c #071216",
" ) 	c #09161A",
".) 	c #3B8A9F",
"+) 	c #153F57",
"@) 	c #072C65",
"#) 	c #081026",
"$) 	c #244093",
"%) 	c #1C306F",
"&) 	c #011E47",
"*) 	c #1478BC",
"=) 	c #135C85",
"-) 	c #030A0B",
";) 	c #050E12",
">) 	c #030302",
",) 	c #0E242F",
"') 	c #1A3A4B",
")) 	c #18394A",
"!) 	c #214559",
"~) 	c #82D1F5",
"{) 	c #589EBE",
"]) 	c #1C445A",
"^) 	c #29424F",
"/) 	c #254350",
"() 	c #0B1D24",
"_) 	c #0A191E",
":) 	c #398DA7",
"<) 	c #0D232B",
"[) 	c #01143B",
"}) 	c #001033",
"|) 	c #080E26",
"1) 	c #223886",
"2) 	c #1A2C68",
"3) 	c #021635",
"4) 	c #0F5387",
"5) 	c #186697",
"6) 	c #07151D",
"7) 	c #17323A",
"8) 	c #204047",
"9) 	c #234248",
"0) 	c #26444A",
"a) 	c #274349",
"b) 	c #254349",
"c) 	c #244248",
"d) 	c #244349",
"e) 	c #27444A",
"f) 	c #244148",
"g) 	c #254248",
"h) 	c #264249",
"i) 	c #274449",
"j) 	c #28454A",
"k) 	c #28444A",
"l) 	c #26434A",
"m) 	c #264449",
"n) 	c #25444A",
"o) 	c #254449",
"p) 	c #23434A",
"q) 	c #22434B",
"r) 	c #071418",
"s) 	c #155C77",
"t) 	c #2488B5",
"u) 	c #072332",
"v) 	c #0D1F25",
"w) 	c #1E3E47",
"x) 	c #1F3F47",
"y) 	c #234148",
"z) 	c #27434A",
"A) 	c #2A454B",
"B) 	c #2C494E",
"C) 	c #3D5A5D",
"D) 	c #445F61",
"E) 	c #2B464C",
"F) 	c #284449",
"G) 	c #244249",
"H) 	c #214148",
"I) 	c #1F4048",
"J) 	c #1B3941",
"K) 	c #061012",
"L) 	c #0D2127",
"M) 	c #1D3F48",
"N) 	c #214048",
"O) 	c #224148",
"P) 	c #254249",
"Q) 	c #264349",
"R) 	c #25434A",
"S) 	c #234149",
"T) 	c #224048",
"U) 	c #244149",
"V) 	c #234249",
"W) 	c #203F48",
"X) 	c #203F49",
"Y) 	c #1E404A",
"Z) 	c #1D3E48",
"`) 	c #214049",
" ! 	c #224149",
".! 	c #223F48",
"+! 	c #213F47",
"@! 	c #203E47",
"#! 	c #1F3E47",
"$! 	c #1F3D47",
"%! 	c #203D47",
"&! 	c #234048",
"*! 	c #234049",
"=! 	c #213F48",
"-! 	c #224047",
";! 	c #1E3D47",
">! 	c #1C3B46",
",! 	c #173846",
"'! 	c #143445",
")! 	c #173546",
"!! 	c #193546",
"~! 	c #1A3747",
"{! 	c #193747",
"]! 	c #143443",
"^! 	c #0A263A",
"/! 	c #0A2439",
"(! 	c #041019",
"_! 	c #000614",
":! 	c #000209",
"<! 	c #030404",
"[! 	c #0B151B",
"}! 	c #89D3F5",
"|! 	c #548EA5",
"1! 	c #091114",
"2! 	c #010D1B",
"3! 	c #03152B",
"4! 	c #031427",
"5! 	c #183644",
"6! 	c #203E48",
"7! 	c #233F48",
"8! 	c #243F49",
"9! 	c #213D48",
"0! 	c #1E3B47",
"a! 	c #1D3B47",
"b! 	c #203D48",
"c! 	c #213E48",
"d! 	c #213F49",
"e! 	c #1E3D48",
"f! 	c #1D3C47",
"g! 	c #1D3C46",
"h! 	c #1E3C46",
"i! 	c #1F3D46",
"j! 	c #1E3D46",
"k! 	c #1E3C45",
"l! 	c #1D3B45",
"m! 	c #1D3C45",
"n! 	c #172F36",
"o! 	c #050809",
"p! 	c #0B1519",
"q! 	c #213F45",
"r! 	c #25454B",
"s! 	c #2A454A",
"t! 	c #2A444A",
"u! 	c #294449",
"v! 	c #284349",
"w! 	c #29444A",
"x! 	c #2A464A",
"y! 	c #29454A",
"z! 	c #203D45",
"A! 	c #1E3B44",
"B! 	c #1D3A42",
"C! 	c #1C3A42",
"D! 	c #1A3A43",
"E! 	c #1B3B44",
"F! 	c #1D3D46",
"G! 	c #234147",
"H! 	c #234047",
"I! 	c #244047",
"J! 	c #244147",
"K! 	c #213F46",
"L! 	c #203E46",
"M! 	c #1F3E46",
"N! 	c #183139",
"O! 	c #03080A",
"P! 	c #15303A",
"Q! 	c #193945",
"R! 	c #1B3A45",
"S! 	c #213E47",
"T! 	c #223F47",
"U! 	c #223F46",
"V! 	c #1D4552",
"W! 	c #246682",
"X! 	c #06151A",
"Y! 	c #010205",
"Z! 	c #01040C",
"`! 	c #060E28",
" ~ 	c #152A70",
".~ 	c #172C72",
"+~ 	c #08133E",
"@~ 	c #02050F",
"#~ 	c #020206",
"$~ 	c #040B1B",
"%~ 	c #216793",
"&~ 	c #3994C1",
"*~ 	c #1C3E49",
"=~ 	c #203E49",
"-~ 	c #1A3A45",
";~ 	c #1B3B46",
">~ 	c #1C3C46",
",~ 	c #1D3D47",
"'~ 	c #193B46",
")~ 	c #203F47",
"!~ 	c #224049",
"~~ 	c #13262B",
"{~ 	c #0A212C",
"]~ 	c #1B404C",
"^~ 	c #254D58",
"/~ 	c #28505A",
"(~ 	c #2D5460",
"_~ 	c #2D5462",
":~ 	c #2B5260",
"<~ 	c #2A515E",
"[~ 	c #28505B",
"}~ 	c #274F5A",
"|~ 	c #2A525B",
"1~ 	c #2D545E",
"2~ 	c #2A525D",
"3~ 	c #2C535F",
"4~ 	c #2D545F",
"5~ 	c #2D535E",
"6~ 	c #2E555F",
"7~ 	c #2E545D",
"8~ 	c #2D545D",
"9~ 	c #2D555F",
"0~ 	c #2C545E",
"a~ 	c #2C5660",
"b~ 	c #2C5560",
"c~ 	c #2C5762",
"d~ 	c #2B5661",
"e~ 	c #2A555F",
"f~ 	c #2C5662",
"g~ 	c #2A5A6B",
"h~ 	c #295A6E",
"i~ 	c #153845",
"j~ 	c #16323A",
"k~ 	c #0A1B20",
"l~ 	c #082A3D",
"m~ 	c #0F476C",
"n~ 	c #03131F",
"o~ 	c #0B212C",
"p~ 	c #133440",
"q~ 	c #224D59",
"r~ 	c #244E5A",
"s~ 	c #28515F",
"t~ 	c #305863",
"u~ 	c #2F5660",
"v~ 	c #355C65",
"w~ 	c #3A606C",
"x~ 	c #335A66",
"y~ 	c #305663",
"z~ 	c #2C5460",
"A~ 	c #27505C",
"B~ 	c #26515E",
"C~ 	c #265260",
"D~ 	c #265467",
"E~ 	c #21576B",
"F~ 	c #0C2936",
"G~ 	c #18536A",
"H~ 	c #3488A5",
"I~ 	c #285566",
"J~ 	c #295567",
"K~ 	c #2A5567",
"L~ 	c #2B5666",
"M~ 	c #2B5564",
"N~ 	c #2C5665",
"O~ 	c #2D5866",
"P~ 	c #2B5562",
"Q~ 	c #2A5461",
"R~ 	c #2B5461",
"S~ 	c #2A5361",
"T~ 	c #27505E",
"U~ 	c #28515E",
"V~ 	c #2A515F",
"W~ 	c #2A5261",
"X~ 	c #295261",
"Y~ 	c #29525F",
"Z~ 	c #28505E",
"`~ 	c #29505E",
" { 	c #29515E",
".{ 	c #2A525F",
"+{ 	c #2A5463",
"@{ 	c #2A5465",
"#{ 	c #295466",
"${ 	c #275164",
"%{ 	c #254E61",
"&{ 	c #234F64",
"*{ 	c #23566E",
"={ 	c #24566C",
"-{ 	c #285264",
";{ 	c #2B5769",
">{ 	c #2B5566",
",{ 	c #285162",
"'{ 	c #275061",
"){ 	c #275060",
"!{ 	c #264F5F",
"~{ 	c #264E5F",
"{{ 	c #254C5D",
"]{ 	c #244A5C",
"^{ 	c #224A5A",
"/{ 	c #234A59",
"({ 	c #264D5C",
"_{ 	c #284F5F",
":{ 	c #274D5D",
"<{ 	c #274E5F",
"[{ 	c #275062",
"}{ 	c #295263",
"|{ 	c #295262",
"1{ 	c #285161",
"2{ 	c #285160",
"3{ 	c #254F5C",
"4{ 	c #274F5E",
"5{ 	c #274F5D",
"6{ 	c #254D5C",
"7{ 	c #234A5B",
"8{ 	c #1F485B",
"9{ 	c #1A445C",
"0{ 	c #173F5E",
"a{ 	c #183E5C",
"b{ 	c #1C405A",
"c{ 	c #1C425A",
"d{ 	c #1A4157",
"e{ 	c #153C52",
"f{ 	c #0B2B44",
"g{ 	c #0A2843",
"h{ 	c #041326",
"i{ 	c #001843",
"j{ 	c #000A1D",
"k{ 	c #09141A",
"l{ 	c #86D1F3",
"m{ 	c #5790A6",
"n{ 	c #0B1417",
"o{ 	c #021126",
"p{ 	c #041A3A",
"q{ 	c #041935",
"r{ 	c #1A3D56",
"s{ 	c #24495A",
"t{ 	c #274B59",
"u{ 	c #264A59",
"v{ 	c #234859",
"w{ 	c #214659",
"x{ 	c #20465B",
"y{ 	c #22485D",
"z{ 	c #22475E",
"A{ 	c #25495D",
"B{ 	c #264A5B",
"C{ 	c #244C5B",
"D{ 	c #21485A",
"E{ 	c #20485B",
"F{ 	c #21495B",
"G{ 	c #224A5B",
"H{ 	c #234C5B",
"I{ 	c #204657",
"J{ 	c #1F4554",
"K{ 	c #1F4553",
"L{ 	c #214657",
"M{ 	c #1D4353",
"N{ 	c #1E4957",
"O{ 	c #040E13",
"P{ 	c #081013",
"Q{ 	c #10242B",
"R{ 	c #2C5E6C",
"S{ 	c #2D6476",
"T{ 	c #336D7B",
"U{ 	c #2E5A65",
"V{ 	c #315760",
"W{ 	c #335760",
"X{ 	c #32575F",
"Y{ 	c #31565F",
"Z{ 	c #30555E",
"`{ 	c #31555E",
" ] 	c #315660",
".] 	c #315661",
"+] 	c #2F5661",
"@] 	c #2E5560",
"#] 	c #2A5460",
"$] 	c #2F6373",
"%] 	c #3F8498",
"&] 	c #51ACC7",
"*] 	c #57B5D0",
"=] 	c #57BDDB",
"-] 	c #4FBCDC",
";] 	c #308098",
">] 	c #2F7287",
",] 	c #28525E",
"'] 	c #294C57",
")] 	c #2B4E5A",
"!] 	c #2B4D5A",
"~] 	c #2A4D59",
"{] 	c #284D58",
"]] 	c #254A55",
"^] 	c #224853",
"/] 	c #244A55",
"(] 	c #244A56",
"_] 	c #244B57",
":] 	c #244A57",
"<] 	c #244A58",
"[] 	c #1C3C48",
"}] 	c #133543",
"|] 	c #0F3443",
"1] 	c #163847",
"2] 	c #1C4251",
"3] 	c #1E4252",
"4] 	c #234756",
"5] 	c #274958",
"6] 	c #274957",
"7] 	c #264857",
"8] 	c #264856",
"9] 	c #254753",
"0] 	c #214552",
"a] 	c #1A3F4F",
"b] 	c #091D2A",
"c] 	c #050F2E",
"d] 	c #0F1F58",
"e] 	c #12225E",
"f] 	c #0A1544",
"g] 	c #020510",
"h] 	c #01020B",
"i] 	c #0A263B",
"j] 	c #1B4A63",
"k] 	c #204758",
"l] 	c #244A5B",
"m] 	c #224858",
"n] 	c #1E4554",
"o] 	c #1D4453",
"p] 	c #1E4553",
"q] 	c #1F4755",
"r] 	c #25596C",
"s] 	c #236A88",
"t] 	c #285767",
"u] 	c #2A525E",
"v] 	c #2A535E",
"w] 	c #29515D",
"x] 	c #29525E",
"y] 	c #2A535D",
"z] 	c #2B555E",
"A] 	c #2B545E",
"B] 	c #2B535E",
"C] 	c #2B535D",
"D] 	c #29525D",
"E] 	c #28515C",
"F] 	c #274F5B",
"G] 	c #264F5A",
"H] 	c #27505B",
"I] 	c #28515D",
"J] 	c #295460",
"K] 	c #1F424E",
"L] 	c #132B33",
"M] 	c #122C33",
"N] 	c #152D35",
"O] 	c #162F35",
"P] 	c #152D34",
"Q] 	c #11272E",
"R] 	c #050C0E",
"S] 	c #071B26",
"T] 	c #2D8CB5",
"U] 	c #01060F",
"V] 	c #01040A",
"W] 	c #01040E",
"X] 	c #010511",
"Y] 	c #010410",
"Z] 	c #010510",
"`] 	c #010512",
" ^ 	c #010513",
".^ 	c #010613",
"+^ 	c #010614",
"@^ 	c #010715",
"#^ 	c #010615",
"$^ 	c #010716",
"%^ 	c #020715",
"&^ 	c #010714",
"*^ 	c #010713",
"=^ 	c #2E708E",
"-^ 	c #58C1EA",
";^ 	c #2D6E8B",
">^ 	c #02070A",
",^ 	c #03111A",
"'^ 	c #2695D0",
")^ 	c #104364",
"!^ 	c #000714",
"~^ 	c #010616",
"{^ 	c #020918",
"]^ 	c #020C21",
"^^ 	c #072444",
"/^ 	c #239BC7",
"(^ 	c #083655",
"_^ 	c #020C1A",
":^ 	c #010918",
"<^ 	c #01091B",
"[^ 	c #01091C",
"}^ 	c #010A1C",
"|^ 	c #01081A",
"1^ 	c #010718",
"2^ 	c #010717",
"3^ 	c #010617",
"4^ 	c #010817",
"5^ 	c #010818",
"6^ 	c #010819",
"7^ 	c #01091D",
"8^ 	c #010A1E",
"9^ 	c #010A1B",
"0^ 	c #01091A",
"a^ 	c #020919",
"b^ 	c #000617",
"c^ 	c #000516",
"d^ 	c #000514",
"e^ 	c #000413",
"f^ 	c #000715",
"g^ 	c #000615",
"h^ 	c #000411",
"i^ 	c #00030E",
"j^ 	c #000310",
"k^ 	c #030709",
"l^ 	c #416B7E",
"m^ 	c #2A4853",
"n^ 	c #040809",
"o^ 	c #000716",
"p^ 	c #000717",
"q^ 	c #000612",
"r^ 	c #02142A",
"s^ 	c #1E83BD",
"t^ 	c #082E4C",
"u^ 	c #000406",
"v^ 	c #296579",
"w^ 	c #5AC6E7",
"x^ 	c #205C7A",
"y^ 	c #113143",
"z^ 	c #060D14",
"A^ 	c #04060A",
"B^ 	c #030405",
"C^ 	c #020305",
"D^ 	c #030406",
"E^ 	c #030507",
"F^ 	c #030506",
"G^ 	c #020406",
"H^ 	c #030608",
"I^ 	c #04090D",
"J^ 	c #060E17",
"K^ 	c #06111C",
"L^ 	c #0D334F",
"M^ 	c #0D456C",
"N^ 	c #02090E",
"O^ 	c #020407",
"P^ 	c #020306",
"Q^ 	c #030407",
"R^ 	c #010306",
"S^ 	c #063453",
"T^ 	c #082640",
"U^ 	c #020307",
"V^ 	c #03091D",
"W^ 	c #050A1F",
"X^ 	c #050818",
"Y^ 	c #010208",
"Z^ 	c #010307",
"`^ 	c #010509",
" / 	c #25505E",
"./ 	c #58BFE0",
"+/ 	c #59C6EA",
"@/ 	c #5EC6EB",
"#/ 	c #5DC5E9",
"$/ 	c #54C2E7",
"%/ 	c #45B8E4",
"&/ 	c #2C8CBF",
"*/ 	c #12466C",
"=/ 	c #081A24",
"-/ 	c #338BB4",
";/ 	c #000412",
">/ 	c #02050E",
",/ 	c #25272C",
"'/ 	c #26272D",
")/ 	c #26282E",
"!/ 	c #262830",
"~/ 	c #262932",
"{/ 	c #272931",
"]/ 	c #252730",
"^/ 	c #25272F",
"// 	c #252830",
"(/ 	c #252831",
"_/ 	c #252932",
":/ 	c #262933",
"</ 	c #262A33",
"[/ 	c #272A32",
"}/ 	c #262A32",
"|/ 	c #272A34",
"1/ 	c #262A34",
"2/ 	c #262C37",
"3/ 	c #272D3B",
"4/ 	c #272C38",
"5/ 	c #222631",
"6/ 	c #0B0F1C",
"7/ 	c #000511",
"8/ 	c #010E23",
"9/ 	c #041C38",
"0/ 	c #0F3C5A",
"a/ 	c #204E64",
"b/ 	c #133442",
"c/ 	c #03131B",
"d/ 	c #041C30",
"e/ 	c #013979",
"f/ 	c #011D3E",
"g/ 	c #090E1B",
"h/ 	c #26282F",
"i/ 	c #26292F",
"j/ 	c #262930",
"k/ 	c #262931",
"l/ 	c #262A35",
"m/ 	c #262B39",
"n/ 	c #282C3A",
"o/ 	c #272B39",
"p/ 	c #191F2E",
"q/ 	c #00091D",
"r/ 	c #000D27",
"s/ 	c #022B5B",
"t/ 	c #021A3C",
"u/ 	c #000618",
"v/ 	c #0B101D",
"w/ 	c #242834",
"x/ 	c #262B38",
"y/ 	c #262B37",
"z/ 	c #262B36",
"A/ 	c #262C38",
"B/ 	c #262A36",
"C/ 	c #262935",
"D/ 	c #272B36",
"E/ 	c #272C37",
"F/ 	c #272B37",
"G/ 	c #252935",
"H/ 	c #252A36",
"I/ 	c #252A37",
"J/ 	c #1A202F",
"K/ 	c #01091E",
"L/ 	c #131826",
"M/ 	c #232730",
"N/ 	c #242832",
"O/ 	c #252A35",
"P/ 	c #252933",
"Q/ 	c #262832",
"R/ 	c #262934",
"S/ 	c #262831",
"T/ 	c #252A34",
"U/ 	c #252B38",
"V/ 	c #252B39",
"W/ 	c #060E23",
"X/ 	c #00091E",
"Y/ 	c #0C1325",
"Z/ 	c #1B1F2B",
"`/ 	c #171B25",
" ( 	c #161923",
".( 	c #151823",
"+( 	c #151926",
"@( 	c #161A27",
"#( 	c #161A26",
"$( 	c #161924",
"%( 	c #16171E",
"&( 	c #16171B",
"*( 	c #171922",
"=( 	c #191C27",
"-( 	c #101422",
";( 	c #181B26",
">( 	c #24262D",
",( 	c #23262C",
"'( 	c #24262E",
")( 	c #252832",
"!( 	c #272C39",
"~( 	c #171D2C",
"{( 	c #000D26",
"]( 	c #085190",
"^( 	c #092F4E",
"/( 	c #1A4655",
"(( 	c #216A8D",
"_( 	c #1B5676",
":( 	c #01050E",
"<( 	c #03050A",
"[( 	c #04050A",
"}( 	c #19191A",
"|( 	c #2B2B2A",
"1( 	c #292928",
"2( 	c #272727",
"3( 	c #282828",
"4( 	c #282928",
"5( 	c #2A2A2A",
"6( 	c #2A2A2B",
"7( 	c #292929",
"8( 	c #282826",
"9( 	c #292827",
"0( 	c #1F1E1F",
"a( 	c #040507",
"b( 	c #020409",
"c( 	c #01040D",
"d( 	c #00030C",
"e( 	c #03050B",
"f( 	c #0D0C0F",
"g( 	c #1B191A",
"h( 	c #141415",
"i( 	c #131314",
"j( 	c #131315",
"k( 	c #121315",
"l( 	c #121314",
"m( 	c #141619",
"n( 	c #1F2023",
"o( 	c #222324",
"p( 	c #050507",
"q( 	c #000A1C",
"r( 	c #020819",
"s( 	c #04060B",
"t( 	c #06070A",
"u( 	c #1C1C1E",
"v( 	c #161617",
"w( 	c #121213",
"x( 	c #121212",
"y( 	c #141416",
"z( 	c #151517",
"A( 	c #1F1E1E",
"B( 	c #040715",
"C( 	c #04081C",
"D( 	c #080A14",
"E( 	c #141418",
"F( 	c #100F10",
"G( 	c #0F1011",
"H( 	c #101112",
"I( 	c #111113",
"J( 	c #121214",
"K( 	c #0B0C10",
"L( 	c #010207",
"M( 	c #0D0C0D",
"N( 	c #151516",
"O( 	c #111212",
"P( 	c #111112",
"Q( 	c #121113",
"R( 	c #111213",
"S( 	c #111111",
"T( 	c #111110",
"U( 	c #121313",
"V( 	c #0B0B0C",
"W( 	c #03090F",
"X( 	c #06141F",
"Y( 	c #061724",
"Z( 	c #061C2E",
"`( 	c #051824",
" _ 	c #051721",
"._ 	c #09212F",
"+_ 	c #2676A5",
"@_ 	c #1B5981",
"#_ 	c #091B23",
"$_ 	c #091822",
"%_ 	c #3485AE",
"&_ 	c #00040F",
"*_ 	c #011030",
"=_ 	c #081123",
"-_ 	c #B2BBC0",
";_ 	c #C7C8C9",
">_ 	c #C9C9C9",
",_ 	c #C8C8C9",
"'_ 	c #C8C8C8",
")_ 	c #C7C7C8",
"!_ 	c #C7C7C7",
"~_ 	c #C7C8C8",
"{_ 	c #C9C8C8",
"]_ 	c #C9C9CA",
"^_ 	c #CACACB",
"/_ 	c #CBCCCD",
"(_ 	c #C9CACB",
"__ 	c #AEB0B2",
":_ 	c #3A3E46",
"<_ 	c #020714",
"[_ 	c #174058",
"}_ 	c #3B83A1",
"|_ 	c #2E87AD",
"1_ 	c #1A739D",
"2_ 	c #041924",
"3_ 	c #031723",
"4_ 	c #10587A",
"5_ 	c #30343D",
"6_ 	c #C3C4C6",
"7_ 	c #C9C8CA",
"8_ 	c #CAC9CA",
"9_ 	c #CACACA",
"0_ 	c #C8C8CA",
"a_ 	c #CACACC",
"b_ 	c #81838C",
"c_ 	c #09101E",
"d_ 	c #000D28",
"e_ 	c #000A21",
"f_ 	c #00071A",
"g_ 	c #020713",
"h_ 	c #3E4148",
"i_ 	c #C2C2C4",
"j_ 	c #C8C9CB",
"k_ 	c #C8C9CA",
"l_ 	c #CBCACC",
"m_ 	c #CBCBCC",
"n_ 	c #CACBCC",
"o_ 	c #C9C8C9",
"p_ 	c #C7C7C9",
"q_ 	c #C8C9C9",
"r_ 	c #C8C7C8",
"s_ 	c #8A8C93",
"t_ 	c #040A18",
"u_ 	c #6C707A",
"v_ 	c #C0C0C1",
"w_ 	c #C3C3C6",
"x_ 	c #C8C7C9",
"y_ 	c #1F2738",
"z_ 	c #030919",
"A_ 	c #4D505A",
"B_ 	c #AEADB1",
"C_ 	c #ACABAE",
"D_ 	c #A9AAAC",
"E_ 	c #A9A9AD",
"F_ 	c #A8A9AE",
"G_ 	c #A9ABB0",
"H_ 	c #AAAAAF",
"I_ 	c #AAAAAE",
"J_ 	c #AAAAAC",
"K_ 	c #ACACAF",
"L_ 	c #AEADB2",
"M_ 	c #686970",
"N_ 	c #020610",
"O_ 	c #060A14",
"P_ 	c #828388",
"Q_ 	c #C3C3C4",
"R_ 	c #C4C5C6",
"S_ 	c #C5C6C7",
"T_ 	c #C7C6C8",
"U_ 	c #C7C6C7",
"V_ 	c #C6C6C7",
"W_ 	c #C6C7CB",
"X_ 	c #71757D",
"Y_ 	c #010B24",
"Z_ 	c #02173F",
"`_ 	c #18587B",
" : 	c #286D86",
".: 	c #0E2631",
"+: 	c #665E3D",
"@: 	c #CBC49B",
"#: 	c #CBC297",
"$: 	c #CBC296",
"%: 	c #CBC39C",
"&: 	c #CBC298",
"*: 	c #CBC295",
"=: 	c #CCC397",
"-: 	c #CDC499",
";: 	c #CEC59C",
">: 	c #CEC59F",
",: 	c #CEC5A0",
"': 	c #CCC49B",
"): 	c #CBC088",
"!: 	c #C9BB81",
"~: 	c #948154",
"{: 	c #050404",
"]: 	c #01030A",
"^: 	c #02040A",
"/: 	c #04050C",
"(: 	c #484232",
"_: 	c #B2AD96",
":: 	c #A4A39C",
"<: 	c #A2A29B",
"[: 	c #A2A19C",
"}: 	c #A1A19B",
"|: 	c #A1A19F",
"1: 	c #A1A2A1",
"2: 	c #A1A1A2",
"3: 	c #A2A2A1",
"4: 	c #A4A4A2",
"5: 	c #B7B7B4",
"6: 	c #B7B6AF",
"7: 	c #161613",
"8: 	c #040509",
"9: 	c #03050D",
"0: 	c #15110A",
"a: 	c #B0AC98",
"b: 	c #A7A7A0",
"c: 	c #A2A29E",
"d: 	c #A2A29F",
"e: 	c #A4A4A1",
"f: 	c #A5A5A5",
"g: 	c #A5A4A5",
"h: 	c #A5A5A2",
"i: 	c #B6B4AF",
"j: 	c #76756E",
"k: 	c #08090C",
"l: 	c #050710",
"m: 	c #2B2A29",
"n: 	c #9B9A96",
"o: 	c #9D9C99",
"p: 	c #9E9D9A",
"q: 	c #9E9E9A",
"r: 	c #9E9E9B",
"s: 	c #9E9D99",
"t: 	c #9D9D97",
"u: 	c #9D9C97",
"v: 	c #9F9E9B",
"w: 	c #605F5D",
"x: 	c #05050A",
"y: 	c #040406",
"z: 	c #565143",
"A: 	c #A6A4A0",
"B: 	c #9F9E97",
"C: 	c #9F9E99",
"D: 	c #9F9F9A",
"E: 	c #A09F9B",
"F: 	c #A0A09B",
"G: 	c #A09F99",
"H: 	c #9F9F98",
"I: 	c #9F9F99",
"J: 	c #A1A09C",
"K: 	c #A1A19D",
"L: 	c #A09F9A",
"M: 	c #A1A099",
"N: 	c #A2A18B",
"O: 	c #A09E88",
"P: 	c #5E594D",
"Q: 	c #020204",
"R: 	c #00071D",
"S: 	c #010916",
"T: 	c #0B2231",
"U: 	c #0D2A3C",
"V: 	c #267295",
"W: 	c #091924",
"X: 	c #3386B4",
"Y: 	c #010610",
"Z: 	c #011137",
"`: 	c #4F8CC7",
" < 	c #A5CEF2",
".< 	c #F7FAFC",
"+< 	c #FCFCFC",
"@< 	c #FBFBFB",
"#< 	c #FBFCFB",
"$< 	c #FCFBFB",
"%< 	c #FCFCFB",
"&< 	c #FCFBFC",
"*< 	c #FBFBFC",
"=< 	c #FAFBFB",
"-< 	c #DCDDDF",
";< 	c #50535A",
">< 	c #0A0D16",
",< 	c #030812",
"'< 	c #020D1D",
")< 	c #041429",
"!< 	c #24759A",
"~< 	c #35A2D0",
"{< 	c #092331",
"]< 	c #021621",
"^< 	c #11678E",
"/< 	c #05070D",
"(< 	c #41464F",
"_< 	c #F8F9FA",
":< 	c #FAFAFA",
"<< 	c #F8F9F9",
"[< 	c #F7F9F8",
"}< 	c #9EA0A6",
"|< 	c #0A101D",
"1< 	c #000B24",
"2< 	c #414955",
"3< 	c #F3F5F7",
"4< 	c #FAFBFA",
"5< 	c #FBFCFC",
"6< 	c #F9FBFB",
"7< 	c #F8FAF9",
"8< 	c #ACAFB5",
"9< 	c #060D1D",
"0< 	c #9296A1",
"a< 	c #F9F9FA",
"b< 	c #F9FAFB",
"c< 	c #FBFBFA",
"d< 	c #F8F8F9",
"e< 	c #242C3A",
"f< 	c #6C6F78",
"g< 	c #F9FAF9",
"h< 	c #FBFAFA",
"i< 	c #F8F8F8",
"j< 	c #929497",
"k< 	c #070B17",
"l< 	c #A7A7AB",
"m< 	c #F9F9F9",
"n< 	c #F9FAFA",
"o< 	c #E7F2FA",
"p< 	c #657587",
"q< 	c #010B26",
"r< 	c #08355B",
"s< 	c #031931",
"t< 	c #03070E",
"u< 	c #232120",
"v< 	c #5D5546",
"w< 	c #AF9649",
"x< 	c #FBDA60",
"y< 	c #FCD95A",
"z< 	c #FCDA58",
"A< 	c #FCDA5C",
"B< 	c #FDDA5C",
"C< 	c #FDDA5B",
"D< 	c #FDDB5C",
"E< 	c #FCDB5A",
"F< 	c #FCDB5B",
"G< 	c #FCDA5B",
"H< 	c #FCD950",
"I< 	c #F9DA60",
"J< 	c #CAB161",
"K< 	c #393329",
"L< 	c #22211D",
"M< 	c #060504",
"N< 	c #01050F",
"O< 	c #02050D",
"P< 	c #03050C",
"Q< 	c #60562A",
"R< 	c #FBED7D",
"S< 	c #FBEEA9",
"T< 	c #FCEFAE",
"U< 	c #FBEFB4",
"V< 	c #FBF1B9",
"W< 	c #FBF2C1",
"X< 	c #FBF3C5",
"Y< 	c #FCF3C4",
"Z< 	c #FBF2BF",
"`< 	c #FCF2B9",
" [ 	c #F8EBAE",
".[ 	c #ECD78E",
"+[ 	c #17120A",
"@[ 	c #05060A",
"#[ 	c #02040C",
"$[ 	c #1D1203",
"%[ 	c #F5E171",
"&[ 	c #F9EA8A",
"*[ 	c #FCECA3",
"=[ 	c #FCEFB9",
"-[ 	c #FBF0BF",
";[ 	c #FCF2C4",
">[ 	c #FCF3C5",
",[ 	c #FCF2C3",
"'[ 	c #FCF1BB",
")[ 	c #FCEFAC",
"![ 	c #F7E896",
"~[ 	c #A1945A",
"{[ 	c #0A0804",
"][ 	c #443E2B",
"^[ 	c #F0E4A9",
"/[ 	c #FCF3C1",
"([ 	c #FCF4CA",
"_[ 	c #FCF4CC",
":[ 	c #FCF3C8",
"<[ 	c #FDF2C0",
"[[ 	c #FDF1BA",
"}[ 	c #FDF1B7",
"|[ 	c #FDF2B8",
"1[ 	c #FDF2BD",
"2[ 	c #FCF4C6",
"3[ 	c #FBF6D3",
"4[ 	c #999379",
"5[ 	c #060605",
"6[ 	c #060604",
"7[ 	c #7D724A",
"8[ 	c #FAEB9D",
"9[ 	c #FCED95",
"0[ 	c #FCEC9B",
"a[ 	c #FCEEA7",
"b[ 	c #FCEFB0",
"c[ 	c #FCF0B2",
"d[ 	c #FCEEAD",
"e[ 	c #FCEEAC",
"f[ 	c #FBEFAC",
"g[ 	c #FCEFAD",
"h[ 	c #FCEEAF",
"i[ 	c #FCECA9",
"j[ 	c #FBE57A",
"k[ 	c #FAE06F",
"l[ 	c #B09850",
"m[ 	c #3C3429",
"n[ 	c #201D1A",
"o[ 	c #000D2E",
"p[ 	c #00061A",
"q[ 	c #08151D",
"r[ 	c #3189B2",
"s[ 	c #0A1A26",
"t[ 	c #3186B8",
"u[ 	c #011136",
"v[ 	c #00091C",
"w[ 	c #042B73",
"x[ 	c #3961A7",
"y[ 	c #DAE2EF",
"z[ 	c #FAFAFB",
"A[ 	c #FDFDFD",
"B[ 	c #EFF1F3",
"C[ 	c #B8CAD4",
"D[ 	c #010915",
"E[ 	c #000B22",
"F[ 	c #062242",
"G[ 	c #1061A0",
"H[ 	c #1B85C2",
"I[ 	c #0A3348",
"J[ 	c #104057",
"K[ 	c #0C476D",
"L[ 	c #01081E",
"M[ 	c #030C1F",
"N[ 	c #6A6C7A",
"O[ 	c #EBECEE",
"P[ 	c #E7E9EE",
"Q[ 	c #122146",
"R[ 	c #000920",
"S[ 	c #00091F",
"T[ 	c #000C22",
"U[ 	c #030813",
"V[ 	c #54575E",
"W[ 	c #F5F6F7",
"X[ 	c #AEB0B6",
"Y[ 	c #050B19",
"Z[ 	c #020B20",
"`[ 	c #010C2A",
" } 	c #A1A9BA",
".} 	c #525865",
"+} 	c #040919",
"@} 	c #6D707A",
"#} 	c #98999C",
"$} 	c #050711",
"%} 	c #00071F",
"&} 	c #081331",
"*} 	c #AAAEB6",
"=} 	c #F6FAFA",
"-} 	c #F8FAFB",
";} 	c #888B94",
">} 	c #020A1F",
",} 	c #010D27",
"'} 	c #010A22",
")} 	c #D3CB95",
"!} 	c #F1E9B4",
"~} 	c #FBECA4",
"{} 	c #FBE27A",
"]} 	c #FDD852",
"^} 	c #FED950",
"/} 	c #FDD84E",
"(} 	c #FDD74D",
"_} 	c #FDD74E",
":} 	c #FDD64C",
"<} 	c #FDD64B",
"[} 	c #FDD749",
"}} 	c #FDE47A",
"|} 	c #FCF8D3",
"1} 	c #F7F3D0",
"2} 	c #CFC69D",
"3} 	c #080603",
"4} 	c #03050F",
"5} 	c #080607",
"6} 	c #974203",
"7} 	c #DD6803",
"8} 	c #F9C63D",
"9} 	c #FDD246",
"0} 	c #FDD346",
"a} 	c #FDD548",
"b} 	c #FDD649",
"c} 	c #FDD647",
"d} 	c #FDD545",
"e} 	c #FDD543",
"f} 	c #FDD53F",
"g} 	c #E68A18",
"h} 	c #D15B03",
"i} 	c #301404",
"j} 	c #020205",
"k} 	c #02030A",
"l} 	c #04050B",
"m} 	c #06070C",
"n} 	c #7A3F08",
"o} 	c #EF7F07",
"p} 	c #F3A929",
"q} 	c #FDD448",
"r} 	c #FDD54A",
"s} 	c #FDD64D",
"t} 	c #FDD84D",
"u} 	c #FDD74A",
"v} 	c #FDD646",
"w} 	c #FCD038",
"x} 	c #F0A11E",
"y} 	c #8B4203",
"z} 	c #0A0604",
"A} 	c #060709",
"B} 	c #974705",
"C} 	c #EA7309",
"D} 	c #F9C640",
"E} 	c #FDD64A",
"F} 	c #FDD747",
"G} 	c #FCD649",
"H} 	c #F9CD42",
"I} 	c #936713",
"J} 	c #1C0801",
"K} 	c #A84C03",
"L} 	c #E77A05",
"M} 	c #FDD74C",
"N} 	c #FDD648",
"O} 	c #FDD748",
"P} 	c #FDD849",
"Q} 	c #FDD84A",
"R} 	c #FDD447",
"S} 	c #FDD446",
"T} 	c #FDE588",
"U} 	c #FBF7DC",
"V} 	c #E1CD95",
"W} 	c #846A28",
"X} 	c #03040A",
"Y} 	c #03173B",
"Z} 	c #021436",
"`} 	c #00030B",
" | 	c #091820",
".| 	c #358FB8",
"+| 	c #0A1A25",
"@| 	c #3283B2",
"#| 	c #010F2F",
"$| 	c #03286E",
"%| 	c #3860AA",
"&| 	c #D6E0EF",
"*| 	c #F5F8FA",
"=| 	c #BED1DD",
"-| 	c #3E4451",
";| 	c #1C2230",
">| 	c #010816",
",| 	c #00091A",
"'| 	c #01132D",
")| 	c #1E89BE",
"!| 	c #10415B",
"~| 	c #020507",
"{| 	c #124861",
"]| 	c #0F456A",
"^| 	c #040A19",
"/| 	c #6C6E7A",
"(| 	c #F6F7F7",
"_| 	c #EDF0F4",
":| 	c #1F2A4B",
"<| 	c #030D24",
"[| 	c #000B20",
"}| 	c #57585D",
"|| 	c #F6F6F7",
"1| 	c #FDFCFC",
"2| 	c #B0B2BA",
"3| 	c #060D1F",
"4| 	c #010A27",
"5| 	c #9CA7BA",
"6| 	c #FDFDFC",
"7| 	c #5B6071",
"8| 	c #050B1E",
"9| 	c #6B707C",
"0| 	c #EEF2F5",
"a| 	c #F8FAFA",
"b| 	c #FCFCFD",
"c| 	c #FAFBFC",
"d| 	c #F4F6F9",
"e| 	c #939599",
"f| 	c #04060F",
"g| 	c #000517",
"h| 	c #07102B",
"i| 	c #A6ABB4",
"j| 	c #EDF6F9",
"k| 	c #8E9095",
"l| 	c #030918",
"m| 	c #02091C",
"n| 	c #2E2D2D",
"o| 	c #4C4B45",
"p| 	c #ECDF92",
"q| 	c #FBE989",
"r| 	c #FCD84F",
"s| 	c #FCD549",
"t| 	c #FCD54B",
"u| 	c #FADE6A",
"v| 	c #F3E181",
"w| 	c #6D5E3F",
"x| 	c #403E36",
"y| 	c #0D0D0E",
"z| 	c #060302",
"A| 	c #8E3F01",
"B| 	c #D56001",
"C| 	c #F7C742",
"D| 	c #FCD64C",
"E| 	c #FDD74B",
"F| 	c #EB8D1F",
"G| 	c #DB5F01",
"H| 	c #381803",
"I| 	c #030305",
"J| 	c #010308",
"K| 	c #030203",
"L| 	c #773C04",
"M| 	c #E17205",
"N| 	c #EFA62A",
"O| 	c #FCD448",
"P| 	c #DF6707",
"Q| 	c #8B3901",
"R| 	c #090505",
"S| 	c #060609",
"T| 	c #984705",
"U| 	c #E47008",
"V| 	c #F7C641",
"W| 	c #FCD749",
"X| 	c #FDD84B",
"Y| 	c #FED94C",
"Z| 	c #FED84B",
"`| 	c #FED749",
" 1 	c #FCD140",
".1 	c #F7BD2B",
"+1 	c #965808",
"@1 	c #020201",
"#1 	c #1E0901",
"$1 	c #AC4D02",
"%1 	c #E67503",
"&1 	c #FCD74E",
"*1 	c #FDD84C",
"=1 	c #FDD546",
"-1 	c #FCD853",
";1 	c #FBE06E",
">1 	c #CDBF81",
",1 	c #4D4A44",
"'1 	c #1C1B18",
")1 	c #010919",
"!1 	c #02163B",
"~1 	c #010711",
"{1 	c #091A24",
"]1 	c #378EB7",
"^1 	c #0A1C28",
"/1 	c #3286B4",
"(1 	c #000B26",
"_1 	c #022468",
":1 	c #184AA2",
"<1 	c #5691DB",
"[1 	c #7AADE5",
"}1 	c #F2F5F7",
"|1 	c #D8DBE0",
"11 	c #656B76",
"21 	c #040C1F",
"31 	c #00081C",
"41 	c #00081E",
"51 	c #0D3856",
"61 	c #175C83",
"71 	c #11415A",
"81 	c #071C23",
"91 	c #15506C",
"01 	c #051C36",
"a1 	c #03070F",
"b1 	c #F5F6F8",
"c1 	c #AFB3BD",
"d1 	c #202D40",
"e1 	c #010A1F",
"f1 	c #030A1B",
"g1 	c #575961",
"h1 	c #AEB0B8",
"i1 	c #050A19",
"j1 	c #000921",
"k1 	c #9099A8",
"l1 	c #5E616C",
"m1 	c #2E476B",
"n1 	c #629ADA",
"o1 	c #BEDAF4",
"p1 	c #F9FBFC",
"q1 	c #ACC9EB",
"r1 	c #669DDB",
"s1 	c #3D5F87",
"t1 	c #01030C",
"u1 	c #030816",
"v1 	c #436A99",
"w1 	c #679FDC",
"x1 	c #EDF3F9",
"y1 	c #8D8F94",
"z1 	c #01081B",
"A1 	c #0D0D0C",
"B1 	c #8C8A7D",
"C1 	c #E3DFC1",
"D1 	c #FAD853",
"E1 	c #FCDA56",
"F1 	c #FDD84F",
"G1 	c #FDD94F",
"H1 	c #FCDA53",
"I1 	c #FCDC56",
"J1 	c #EED472",
"K1 	c #D4C57F",
"L1 	c #302712",
"M1 	c #06060A",
"N1 	c #6B2703",
"O1 	c #9A3401",
"P1 	c #EED16F",
"Q1 	c #FCE167",
"R1 	c #FCD74F",
"S1 	c #FDD94E",
"T1 	c #FCE061",
"U1 	c #D0802A",
"V1 	c #AD3B01",
"W1 	c #230D02",
"X1 	c #030205",
"Y1 	c #582302",
"Z1 	c #A64001",
"`1 	c #D29744",
" 2 	c #FCE573",
".2 	c #FCD64D",
"+2 	c #FDD54B",
"@2 	c #FBE164",
"#2 	c #B14A0C",
"$2 	c #692101",
"%2 	c #682802",
"&2 	c #A44507",
"*2 	c #EBCC67",
"=2 	c #FBE56E",
"-2 	c #FED84C",
";2 	c #EBBA3C",
">2 	c #BC6512",
",2 	c #582602",
"'2 	c #1B0900",
")2 	c #8A3602",
"!2 	c #B04A02",
"~2 	c #FBE473",
"{2 	c #FCDD5B",
"]2 	c #FDD94C",
"^2 	c #FDD951",
"/2 	c #F6DE72",
"(2 	c #E1D48A",
"_2 	c #5B512E",
":2 	c #0A1C25",
"<2 	c #378FB6",
"[2 	c #0B202C",
"}2 	c #318EBD",
"|2 	c #05030E",
"12 	c #000A28",
"22 	c #000619",
"32 	c #021F5E",
"42 	c #053790",
"52 	c #085FC5",
"62 	c #287BD7",
"72 	c #F8FBFB",
"82 	c #989BA5",
"92 	c #404558",
"02 	c #111829",
"a2 	c #1A6894",
"b2 	c #185E82",
"c2 	c #0C2E3B",
"d2 	c #1A5B7A",
"e2 	c #030814",
"f2 	c #737784",
"g2 	c #F7F7F7",
"h2 	c #283645",
"i2 	c #02091D",
"j2 	c #010B20",
"k2 	c #555760",
"l2 	c #ADAFB5",
"m2 	c #00071E",
"n2 	c #8F94A3",
"o2 	c #61646E",
"p2 	c #0C356A",
"q2 	c #1972D1",
"r2 	c #A7CEF2",
"s2 	c #FBFCFD",
"t2 	c #F6F8FA",
"u2 	c #7DAEE1",
"v2 	c #176ECC",
"w2 	c #0E4285",
"x2 	c #000C26",
"y2 	c #0C4C9A",
"z2 	c #1E74D3",
"A2 	c #E8F1F9",
"B2 	c #F9FAFC",
"C2 	c #898B91",
"D2 	c #16130E",
"E2 	c #9E976C",
"F2 	c #F8EB96",
"G2 	c #FCD343",
"H2 	c #FDD950",
"I2 	c #FDDA50",
"J2 	c #FEDB51",
"K2 	c #FDDA4F",
"L2 	c #FED94F",
"M2 	c #FCD64B",
"N2 	c #F6CC42",
"O2 	c #382607",
"P2 	c #060707",
"Q2 	c #3D1202",
"R2 	c #601902",
"S2 	c #E5D58C",
"T2 	c #FCE679",
"U2 	c #FCE56E",
"V2 	c #C27A32",
"W2 	c #932301",
"X2 	c #1B0905",
"Y2 	c #020613",
"Z2 	c #03050E",
"`2 	c #05060B",
" 3 	c #3B1405",
".3 	c #732000",
"+3 	c #C69155",
"@3 	c #FCEC8B",
"#3 	c #FCD750",
"$3 	c #FBDE60",
"%3 	c #FBE76F",
"&3 	c #8C370D",
"*3 	c #480F01",
"=3 	c #030101",
"-3 	c #320F02",
";3 	c #5D240A",
">3 	c #E0D18D",
",3 	c #FAEE90",
"'3 	c #FDD549",
")3 	c #FBD850",
"!3 	c #E0AE3C",
"~3 	c #943305",
"{3 	c #330C01",
"]3 	c #220E04",
"^3 	c #872F01",
"/3 	c #993702",
"(3 	c #F9EC92",
"_3 	c #FBE066",
":3 	c #FED94D",
"<3 	c #FCD846",
"[3 	c #FBDA4B",
"}3 	c #B4923E",
"|3 	c #412912",
"13 	c #070404",
"23 	c #0C1F2B",
"33 	c #3A93B8",
"43 	c #05131B",
"53 	c #1B5B7A",
"63 	c #071C2B",
"73 	c #061727",
"83 	c #02112A",
"93 	c #042D69",
"03 	c #194483",
"a3 	c #F6F7F9",
"b3 	c #FCFDFC",
"c3 	c #3B3F49",
"d3 	c #0A2F4D",
"e3 	c #134C70",
"f3 	c #1A5979",
"g3 	c #0C314A",
"h3 	c #010712",
"i3 	c #191D24",
"j3 	c #B4B8BE",
"k3 	c #353E4B",
"l3 	c #010C23",
"m3 	c #020D27",
"n3 	c #040B1E",
"o3 	c #565860",
"p3 	c #F7F6F7",
"q3 	c #FBFAFB",
"r3 	c #ADAEB5",
"s3 	c #060B1C",
"t3 	c #8D93A1",
"u3 	c #65676E",
"v3 	c #051F49",
"w3 	c #093B80",
"x3 	c #879FBD",
"y3 	c #7993B2",
"z3 	c #0B3775",
"A3 	c #05214D",
"B3 	c #00030D",
"C3 	c #052250",
"D3 	c #123A71",
"E3 	c #DEE2E8",
"F3 	c #8C8D92",
"G3 	c #020815",
"H3 	c #03060C",
"I3 	c #181813",
"J3 	c #E7E0B0",
"K3 	c #F4D871",
"L3 	c #FCD44D",
"M3 	c #FCDA4E",
"N3 	c #FCD044",
"O3 	c #FCCA3D",
"P3 	c #FCCA3C",
"Q3 	c #FCCA3E",
"R3 	c #FCCA40",
"S3 	c #FCD247",
"T3 	c #FEDA4D",
"U3 	c #EEBF3F",
"V3 	c #2B1B07",
"W3 	c #060603",
"X3 	c #D0CB95",
"Y3 	c #FCD64A",
"Z3 	c #FCD855",
"`3 	c #FAE67B",
" 4 	c #7B6739",
".4 	c #0C0403",
"+4 	c #040407",
"@4 	c #030409",
"#4 	c #010612",
"$4 	c #918359",
"%4 	c #FAEA8C",
"&4 	c #FADB5B",
"*4 	c #F7E26D",
"=4 	c #241B09",
"-4 	c #040201",
";4 	c #151312",
">4 	c #D2CE9B",
",4 	c #F8ED94",
"'4 	c #FDD547",
")4 	c #F9D754",
"!4 	c #BBA33F",
"~4 	c #1A1606",
"{4 	c #0A0504",
"]4 	c #220D03",
"^4 	c #291102",
"/4 	c #F0E494",
"(4 	c #FADE66",
"_4 	c #FDDA4D",
":4 	c #FDDA4C",
"<4 	c #FED74A",
"[4 	c #DBC868",
"}4 	c #252211",
"|4 	c #040303",
"14 	c #081822",
"24 	c #348EB5",
"34 	c #2A8EC1",
"44 	c #2276A2",
"54 	c #020924",
"64 	c #101D45",
"74 	c #F7F7F9",
"84 	c #333742",
"94 	c #12486B",
"04 	c #2686B1",
"a4 	c #041529",
"b4 	c #000A1F",
"c4 	c #030B1D",
"d4 	c #454B57",
"e4 	c #444854",
"f4 	c #020C20",
"g4 	c #010C24",
"h4 	c #020C22",
"i4 	c #040814",
"j4 	c #525459",
"k4 	c #F5F6F6",
"l4 	c #ACAEB5",
"m4 	c #060C1D",
"n4 	c #01081D",
"o4 	c #8A8F9C",
"p4 	c #5E5F63",
"q4 	c #000720",
"r4 	c #757883",
"s4 	c #72747A",
"t4 	c #030817",
"u4 	c #000519",
"v4 	c #00081A",
"w4 	c #010B21",
"x4 	c #00040D",
"y4 	c #000312",
"z4 	c #010413",
"A4 	c #040713",
"B4 	c #D4D4D8",
"C4 	c #8C8E94",
"D4 	c #04070D",
"E4 	c #14140E",
"F4 	c #F4EBA5",
"G4 	c #FADB60",
"H4 	c #FDDB50",
"I4 	c #FCDA4D",
"J4 	c #FCC737",
"K4 	c #FCC130",
"L4 	c #FCC433",
"M4 	c #FBC335",
"N4 	c #FBC235",
"O4 	c #FCCF44",
"P4 	c #FCDB4F",
"Q4 	c #FDD94D",
"R4 	c #FED94E",
"S4 	c #FEDA4E",
"T4 	c #E9BB41",
"U4 	c #251707",
"V4 	c #050506",
"W4 	c #030307",
"X4 	c #D0CB9A",
"Y4 	c #FBE67C",
"Z4 	c #F8E578",
"`4 	c #605A32",
" 5 	c #030710",
".5 	c #040C1E",
"+5 	c #020612",
"@5 	c #7E7B59",
"#5 	c #FAEB93",
"$5 	c #FDD64F",
"%5 	c #FADA57",
"&5 	c #F6E06B",
"*5 	c #1A1709",
"=5 	c #040408",
"-5 	c #050508",
";5 	c #131313",
">5 	c #D1CC9E",
",5 	c #F8EC93",
"'5 	c #F9D651",
")5 	c #B59F40",
"!5 	c #151206",
"~5 	c #070703",
"{5 	c #EEE6A2",
"]5 	c #FADF6D",
"^5 	c #FDDE51",
"/5 	c #FDE051",
"(5 	c #FDDF50",
"_5 	c #FDDF4F",
":5 	c #FDDD4F",
"<5 	c #FED84A",
"[5 	c #FDDA4E",
"}5 	c #DAC14B",
"|5 	c #25210D",
"15 	c #030E16",
"25 	c #2F8BB4",
"35 	c #196082",
"45 	c #1A648C",
"55 	c #051F3F",
"65 	c #00010B",
"75 	c #020512",
"85 	c #111931",
"95 	c #F7F8F9",
"05 	c #A4BBE0",
"a5 	c #8EACDA",
"b5 	c #8EAFDF",
"c5 	c #8FB1E1",
"d5 	c #8FB0DF",
"e5 	c #8BABD9",
"f5 	c #88A6D3",
"g5 	c #CAD8EB",
"h5 	c #303440",
"i5 	c #114A6C",
"j5 	c #1F78A1",
"k5 	c #020E1D",
"l5 	c #626874",
"m5 	c #F7F7F8",
"n5 	c #4D5F7C",
"o5 	c #03183B",
"p5 	c #4F5156",
"q5 	c #EFF3F5",
"r5 	c #C3DFF5",
"s5 	c #94B6E0",
"t5 	c #93AFDC",
"u5 	c #92B0DD",
"v5 	c #94B1DE",
"w5 	c #93B0DD",
"x5 	c #92AEDA",
"y5 	c #93ADD8",
"z5 	c #DAE2F0",
"A5 	c #F8F9FB",
"B5 	c #CAD8ED",
"C5 	c #98B4DF",
"D5 	c #97B4E0",
"E5 	c #96B3DE",
"F5 	c #96B3DD",
"G5 	c #9AB5DF",
"H5 	c #A5BFE3",
"I5 	c #EBF1F7",
"J5 	c #A8ABB1",
"K5 	c #040811",
"L5 	c #808692",
"M5 	c #F7F8FA",
"N5 	c #D7E2F2",
"O5 	c #99B5E0",
"P5 	c #9AB6E1",
"Q5 	c #98B6E2",
"R5 	c #94AFDB",
"S5 	c #A8BCDD",
"T5 	c #E9EDF5",
"U5 	c #F5F7FA",
"V5 	c #B3C8E8",
"W5 	c #99B6E0",
"X5 	c #9AB8E1",
"Y5 	c #9DBAE3",
"Z5 	c #91B3E2",
"`5 	c #92B4E1",
" 6 	c #D0DEF0",
".6 	c #F7F8F8",
"+6 	c #5A5B5F",
"@6 	c #74777E",
"#6 	c #727377",
"$6 	c #03060F",
"%6 	c #010A20",
"&6 	c #000309",
"*6 	c #010719",
"=6 	c #D2D3D5",
"-6 	c #EFF3F9",
";6 	c #ABC3E6",
">6 	c #93B5E4",
",6 	c #92B5E3",
"'6 	c #90B4E2",
")6 	c #8FB3E0",
"!6 	c #8EB4E0",
"~6 	c #8DB4E0",
"{6 	c #8DB3E1",
"]6 	c #8DB2E1",
"^6 	c #8BAEDF",
"/6 	c #87ABDC",
"(6 	c #86A9DB",
"_6 	c #A7C0E4",
":6 	c #EFF3F6",
"<6 	c #88898E",
"[6 	c #010611",
"}6 	c #06070B",
"|6 	c #15150D",
"16 	c #F7EFB2",
"26 	c #FBDE6A",
"36 	c #FDDA51",
"46 	c #FCD951",
"56 	c #DAA537",
"66 	c #CE932E",
"76 	c #C27A1C",
"86 	c #BD7418",
"96 	c #BE771A",
"06 	c #C2781B",
"a6 	c #C4781C",
"b6 	c #C27B21",
"c6 	c #C58527",
"d6 	c #FED84D",
"e6 	c #FCD84C",
"f6 	c #E9BC41",
"g6 	c #231707",
"h6 	c #CECB98",
"i6 	c #FCD74C",
"j6 	c #5B5630",
"k6 	c #040403",
"l6 	c #030917",
"m6 	c #040F28",
"n6 	c #01040F",
"o6 	c #7C7958",
"p6 	c #FCD64F",
"q6 	c #FADA59",
"r6 	c #F7E26F",
"s6 	c #19170A",
"t6 	c #040405",
"u6 	c #121210",
"v6 	c #D1CC9F",
"w6 	c #F8ED95",
"x6 	c #F9D751",
"y6 	c #B7A141",
"z6 	c #161306",
"A6 	c #020309",
"B6 	c #020308",
"C6 	c #ECE5A1",
"D6 	c #FADE6C",
"E6 	c #FDD449",
"F6 	c #FDDA53",
"G6 	c #E3B343",
"H6 	c #DAA63B",
"I6 	c #D7A336",
"J6 	c #D5A236",
"K6 	c #D6A235",
"L6 	c #D7A235",
"M6 	c #D8A136",
"N6 	c #F1CE52",
"O6 	c #FCE164",
"P6 	c #FDDB51",
"Q6 	c #DAC14C",
"R6 	c #26220D",
"S6 	c #020D16",
"T6 	c #1D6D93",
"U6 	c #505051",
"V6 	c #B2B3B4",
"W6 	c #657173",
"X6 	c #01080D",
"Y6 	c #1C5C7C",
"Z6 	c #15487A",
"`6 	c #131417",
" 7 	c #3165BA",
".7 	c #0242A6",
"+7 	c #0348AF",
"@7 	c #034BB3",
"#7 	c #034CB4",
"$7 	c #024AB2",
"%7 	c #0249B0",
"&7 	c #84ACDD",
"*7 	c #D8EDFA",
"=7 	c #F6F9FC",
"-7 	c #2D303C",
";7 	c #175379",
">7 	c #1E658B",
",7 	c #000C23",
"'7 	c #818A96",
")7 	c #5785BA",
"!7 	c #04295E",
"~7 	c #010A21",
"{7 	c #02060E",
"]7 	c #334558",
"^7 	c #A4CEEE",
"/7 	c #4E99DC",
"(7 	c #054CAD",
"_7 	c #0444A8",
":7 	c #0345AA",
"<7 	c #0246AC",
"[7 	c #0245AA",
"}7 	c #0243A7",
"|7 	c #0945A4",
"17 	c #B0C3E1",
"27 	c #FAFBFD",
"37 	c #F2F6FA",
"47 	c #82A2D7",
"57 	c #044AB1",
"67 	c #024BB4",
"77 	c #0349B1",
"87 	c #0348AD",
"97 	c #0C51B1",
"07 	c #619AD6",
"a7 	c #51759F",
"b7 	c #577794",
"c7 	c #B4DAF6",
"d7 	c #639AD4",
"e7 	c #0443A3",
"f7 	c #0343A9",
"g7 	c #0347AF",
"h7 	c #0348B0",
"i7 	c #0244AB",
"j7 	c #3C6CB9",
"k7 	c #D7E0EE",
"l7 	c #FBFBF9",
"m7 	c #E8EDF5",
"n7 	c #4278C4",
"o7 	c #054CAF",
"p7 	c #054DB4",
"q7 	c #054EB7",
"r7 	c #054EB8",
"s7 	c #044CB9",
"t7 	c #0A52B7",
"u7 	c #5594D6",
"v7 	c #82BAE5",
"w7 	c #354759",
"x7 	c #76787E",
"y7 	c #737374",
"z7 	c #011233",
"A7 	c #02102F",
"B7 	c #031233",
"C7 	c #D3D3D5",
"D7 	c #E0E9F5",
"E7 	c #437AC8",
"F7 	c #0853BB",
"G7 	c #0753BA",
"H7 	c #0654BB",
"I7 	c #0655BC",
"J7 	c #0657BB",
"K7 	c #0656BB",
"L7 	c #0554BB",
"M7 	c #0451BA",
"N7 	c #034EB8",
"O7 	c #0450BB",
"P7 	c #0652BF",
"Q7 	c #4580CE",
"R7 	c #D0E5F5",
"S7 	c #7F8994",
"T7 	c #020A1C",
"U7 	c #07090D",
"V7 	c #14140D",
"W7 	c #F7EFB5",
"X7 	c #FADE6B",
"Y7 	c #FCD84D",
"Z7 	c #FCD850",
"`7 	c #F9D74F",
" 8 	c #A45412",
".8 	c #8D2D00",
"+8 	c #943100",
"@8 	c #943200",
"#8 	c #933000",
"$8 	c #8F2D00",
"%8 	c #8B2C00",
"&8 	c #892C00",
"*8 	c #933B05",
"=8 	c #FBD750",
"-8 	c #FCD94D",
";8 	c #FCD84B",
">8 	c #E9BC40",
",8 	c #241706",
"'8 	c #CECA95",
")8 	c #FCE77B",
"!8 	c #FCD752",
"~8 	c #F8E476",
"{8 	c #5B5730",
"]8 	c #05102B",
"^8 	c #020B1F",
"/8 	c #7D7957",
"(8 	c #FAEA93",
"_8 	c #FCD650",
":8 	c #FED74C",
"<8 	c #FED649",
"[8 	c #FBDD5C",
"}8 	c #F7E677",
"|8 	c #1A190A",
"18 	c #020917",
"28 	c #121311",
"38 	c #D1CD9E",
"48 	c #F9D753",
"58 	c #B6A141",
"68 	c #151306",
"78 	c #00050E",
"88 	c #EBE39D",
"98 	c #FBDB53",
"08 	c #B15B13",
"a8 	c #993400",
"b8 	c #973300",
"c8 	c #953200",
"d8 	c #973500",
"e8 	c #993602",
"f8 	c #DBAF4F",
"g8 	c #FBEB82",
"h8 	c #DABF48",
"i8 	c #24200C",
"j8 	c #022D4F",
"k8 	c #515A5D",
"l8 	c #BABDBF",
"m8 	c #585B5D",
"n8 	c #C8CFD2",
"o8 	c #6A8185",
"p8 	c #021119",
"q8 	c #062334",
"r8 	c #010A0E",
"s8 	c #12415A",
"t8 	c #164F7A",
"u8 	c #00030F",
"v8 	c #111115",
"w8 	c #2D59A5",
"x8 	c #013895",
"y8 	c #013FA4",
"z8 	c #0242A8",
"A8 	c #0140A3",
"B8 	c #0B4DAB",
"C8 	c #1F62B4",
"D8 	c #CAD9ED",
"E8 	c #2D313E",
"F8 	c #124A6F",
"G8 	c #165273",
"H8 	c #000817",
"I8 	c #181D27",
"J8 	c #9FA5AE",
"K8 	c #F7FAFB",
"L8 	c #86A5C8",
"M8 	c #354C6C",
"N8 	c #030C20",
"O8 	c #021D45",
"P8 	c #0349A7",
"Q8 	c #023E9D",
"R8 	c #013FA3",
"S8 	c #0241A6",
"T8 	c #023D9E",
"U8 	c #013997",
"V8 	c #013892",
"W8 	c #023180",
"X8 	c #08347D",
"Y8 	c #AFBDD5",
"Z8 	c #F2F5F8",
"`8 	c #7F99C4",
" 9 	c #03388B",
".9 	c #01388E",
"+9 	c #013891",
"@9 	c #013A95",
"#9 	c #013E9F",
"$9 	c #013D9D",
"%9 	c #013B9A",
"&9 	c #012E79",
"*9 	c #000926",
"=9 	c #053674",
"-9 	c #054CAB",
";9 	c #0243A2",
">9 	c #013B9C",
",9 	c #0240A5",
"'9 	c #023C9B",
")9 	c #01358C",
"!9 	c #013383",
"~9 	c #012F76",
"{9 	c #3A5C92",
"]9 	c #D6DCE7",
"^9 	c #EDF0F6",
"/9 	c #446EAD",
"(9 	c #043C90",
"_9 	c #043B90",
":9 	c #033B91",
"<9 	c #033C98",
"[9 	c #0342A6",
"}9 	c #0342A7",
"|9 	c #0246AA",
"19 	c #014DAF",
"29 	c #02214C",
"39 	c #777A80",
"49 	c #727374",
"59 	c #011131",
"69 	c #031230",
"79 	c #041436",
"89 	c #D6D6D8",
"99 	c #DCE3ED",
"09 	c #3D649E",
"a9 	c #063881",
"b9 	c #043D95",
"c9 	c #0441A0",
"d9 	c #0445A8",
"e9 	c #0445A7",
"f9 	c #0346A8",
"g9 	c #0245A8",
"h9 	c #0141A3",
"i9 	c #013D9C",
"j9 	c #0441A4",
"k9 	c #054AB3",
"l9 	c #074DB6",
"m9 	c #0A56BB",
"n9 	c #08326D",
"o9 	c #0F0E09",
"p9 	c #F5EEB4",
"q9 	c #FBDF6B",
"r9 	c #FCDA51",
"s9 	c #F9DA53",
"t9 	c #884D13",
"u9 	c #652100",
"v9 	c #602000",
"w9 	c #601F00",
"x9 	c #5B1D00",
"y9 	c #561B00",
"z9 	c #501A00",
"A9 	c #481901",
"B9 	c #915A17",
"C9 	c #D8A534",
"D9 	c #FBD54D",
"E9 	c #E7B93E",
"F9 	c #CECA94",
"G9 	c #FCE67B",
"H9 	c #F8E475",
"I9 	c #5C562F",
"J9 	c #030301",
"K9 	c #04102B",
"L9 	c #030C22",
"M9 	c #02050C",
"N9 	c #7C7854",
"O9 	c #FAEA92",
"P9 	c #FDD650",
"Q9 	c #FADC5D",
"R9 	c #F7E678",
"S9 	c #1A190B",
"T9 	c #020817",
"U9 	c #111210",
"V9 	c #D1CC9D",
"W9 	c #B7A041",
"X9 	c #060602",
"Y9 	c #EBE193",
"Z9 	c #FADD65",
"`9 	c #F9D74B",
" 0 	c #9C4F11",
".0 	c #842900",
"+0 	c #912F00",
"@0 	c #953100",
"#0 	c #A34B0D",
"$0 	c #AC5916",
"%0 	c #FBDB55",
"&0 	c #FCD94F",
"*0 	c #D8BE48",
"=0 	c #05223D",
"-0 	c #0A2D42",
";0 	c #04151F",
">0 	c #556B70",
",0 	c #BCD8DF",
"'0 	c #6A777B",
")0 	c #181C1D",
"!0 	c #374043",
"~0 	c #1B262A",
"{0 	c #093D5A",
"]0 	c #147EBB",
"^0 	c #052233",
"/0 	c #1E719A",
"(0 	c #021027",
"_0 	c #0F1016",
":0 	c #2D4376",
"<0 	c #001C59",
"[0 	c #001D59",
"}0 	c #001E56",
"|0 	c #001D51",
"10 	c #001B4E",
"20 	c #002876",
"30 	c #143C8D",
"40 	c #BEC7DE",
"50 	c #2E3240",
"60 	c #082E51",
"70 	c #072744",
"80 	c #020816",
"90 	c #59606C",
"00 	c #E8EBEF",
"a0 	c #EEF8FC",
"b0 	c #EAF7FC",
"c0 	c #9B9EA5",
"d0 	c #0A1125",
"e0 	c #011235",
"f0 	c #003A99",
"g0 	c #013999",
"h0 	c #013185",
"i0 	c #002C78",
"j0 	c #011E57",
"k0 	c #001543",
"l0 	c #001544",
"m0 	c #000A26",
"n0 	c #080F22",
"o0 	c #AEB1B8",
"p0 	c #F3F3F5",
"q0 	c #828899",
"r0 	c #020E2F",
"s0 	c #000C2D",
"t0 	c #000D30",
"u0 	c #001441",
"v0 	c #002264",
"w0 	c #002771",
"x0 	c #003393",
"y0 	c #002776",
"z0 	c #000B32",
"A0 	c #000418",
"B0 	c #00328F",
"C0 	c #012F85",
"D0 	c #012771",
"E0 	c #012A73",
"F0 	c #01194A",
"G0 	c #000822",
"H0 	c #00071B",
"I0 	c #010411",
"J0 	c #3B3F48",
"K0 	c #D7D7D9",
"L0 	c #ECECEE",
"M0 	c #444A5B",
"N0 	c #020920",
"O0 	c #00081F",
"P0 	c #002A7C",
"Q0 	c #013089",
"R0 	c #003697",
"S0 	c #00399F",
"T0 	c #01153F",
"U0 	c #78797E",
"V0 	c #011130",
"W0 	c #031333",
"X0 	c #041539",
"Y0 	c #D9D8DA",
"Z0 	c #DADCE0",
"`0 	c #3B404F",
" a 	c #030A1D",
".a 	c #000D31",
"+a 	c #001242",
"@a 	c #001851",
"#a 	c #001B59",
"$a 	c #001C58",
"%a 	c #001B56",
"&a 	c #001954",
"*a 	c #00164C",
"=a 	c #001444",
"-a 	c #012367",
";a 	c #023A98",
">a 	c #033999",
",a 	c #013899",
"'a 	c #001846",
")a 	c #05070B",
"!a 	c #101009",
"~a 	c #F6EFB6",
"{a 	c #FCD74D",
"]a 	c #FCDB52",
"^a 	c #F9DE5D",
"/a 	c #583D16",
"(a 	c #1D0400",
"_a 	c #410F00",
":a 	c #B67B22",
"<a 	c #FAD148",
"[a 	c #FDD148",
"}a 	c #FDC93F",
"|a 	c #E4B338",
"1a 	c #201405",
"2a 	c #060506",
"3a 	c #CFCB91",
"4a 	c #FCD852",
"5a 	c #F8E473",
"6a 	c #5C572E",
"7a 	c #020301",
"8a 	c #04112D",
"9a 	c #040D26",
"0a 	c #7C7853",
"aa 	c #FAEA90",
"ba 	c #FDD74F",
"ca 	c #FADD5E",
"da 	c #F7E679",
"ea 	c #1A180B",
"fa 	c #02050B",
"ga 	c #D1CC9A",
"ha 	c #F8EB8E",
"ia 	c #161307",
"ja 	c #010407",
"ka 	c #060502",
"la 	c #EBDF83",
"ma 	c #FADB5F",
"na 	c #FDD347",
"oa 	c #F9D951",
"pa 	c #704112",
"qa 	c #491401",
"ra 	c #541800",
"sa 	c #5B1C00",
"ta 	c #5A1C00",
"ua 	c #641F00",
"va 	c #7A2500",
"wa 	c #7A2501",
"xa 	c #F9DF5B",
"ya 	c #FCDB50",
"za 	c #FCDA50",
"Aa 	c #D9BF49",
"Ba 	c #25210C",
"Ca 	c #020F1F",
"Da 	c #0A3753",
"Ea 	c #031725",
"Fa 	c #219BE2",
"Ga 	c #0E4466",
"Ha 	c #182327",
"Ia 	c #35464B",
"Ja 	c #1C2528",
"Ka 	c #021421",
"La 	c #052C48",
"Ma 	c #010B13",
"Na 	c #020F24",
"Oa 	c #11121A",
"Pa 	c #2D3446",
"Qa 	c #00123B",
"Ra 	c #14377F",
"Sa 	c #BFC7DB",
"Ta 	c #2B2E3B",
"Ua 	c #000B25",
"Va 	c #06264B",
"Wa 	c #042043",
"Xa 	c #000A23",
"Ya 	c #030B1F",
"Za 	c #646A75",
"`a 	c #F3F4F6",
" b 	c #F6F8F9",
".b 	c #E3F4FB",
"+b 	c #E2F5FC",
"@b 	c #F5FBFD",
"#b 	c #9D9EA4",
"$b 	c #0A0F1F",
"%b 	c #000F2A",
"&b 	c #002E7C",
"*b 	c #002E7E",
"=b 	c #001742",
"-b 	c #08090B",
";b 	c #AFAFB0",
">b 	c #F1F2F2",
",b 	c #7F8082",
"'b 	c #02030C",
")b 	c #00081D",
"!b 	c #002165",
"~b 	c #001950",
"{b 	c #00051A",
"]b 	c #000E28",
"^b 	c #002160",
"/b 	c #001847",
"(b 	c #010312",
"_b 	c #3B3C42",
":b 	c #D6D6D7",
"<b 	c #E9E9E9",
"[b 	c #414244",
"}b 	c #00020C",
"|b 	c #000923",
"1b 	c #001E59",
"2b 	c #012A77",
"3b 	c #011032",
"4b 	c #75767A",
"5b 	c #01102E",
"6b 	c #041332",
"7b 	c #051538",
"8b 	c #D9D9DA",
"9b 	c #DBDCDF",
"0b 	c #3D404C",
"ab 	c #03091B",
"bb 	c #00133A",
"cb 	c #001C51",
"db 	c #002B7A",
"eb 	c #00020E",
"fb 	c #040609",
"gb 	c #0D0D08",
"hb 	c #F4ECAA",
"ib 	c #F8DC59",
"jb 	c #513B15",
"kb 	c #180400",
"lb 	c #060100",
"mb 	c #3F0F00",
"nb 	c #B88026",
"ob 	c #F7CA47",
"pb 	c #ECB53B",
"qb 	c #E7B339",
"rb 	c #E19B26",
"sb 	c #DD8917",
"tb 	c #E7B73A",
"ub 	c #E0AC2E",
"vb 	c #1F1304",
"wb 	c #CEC98D",
"xb 	c #FCE678",
"yb 	c #FCD952",
"zb 	c #5D582F",
"Ab 	c #04102C",
"Bb 	c #030E28",
"Cb 	c #FAEA8F",
"Db 	c #FCD64E",
"Eb 	c #FADE5F",
"Fb 	c #F7E879",
"Gb 	c #19180A",
"Hb 	c #02040B",
"Ib 	c #121211",
"Jb 	c #D1CB96",
"Kb 	c #F8EB8B",
"Lb 	c #EBDE7F",
"Mb 	c #FDD345",
"Nb 	c #F9DA58",
"Ob 	c #473B14",
"Pb 	c #0A0501",
"Qb 	c #060200",
"Rb 	c #190600",
"Sb 	c #4D1700",
"Tb 	c #5A1E01",
"Ub 	c #F8E267",
"Vb 	c #FCDD58",
"Wb 	c #FDDB4F",
"Xb 	c #DAC048",
"Yb 	c #021122",
"Zb 	c #093A58",
"`b 	c #01070E",
" c 	c #092F4D",
".c 	c #031522",
"+c 	c #020C13",
"@c 	c #237DA7",
"#c 	c #021024",
"$c 	c #111219",
"%c 	c #2D323E",
"&c 	c #131B2E",
"*c 	c #BBBEC7",
"=c 	c #2B2F3B",
"-c 	c #000F2D",
";c 	c #001030",
">c 	c #000D2B",
",c 	c #060A13",
"'c 	c #F9F7F6",
")c 	c #FBFAF9",
"!c 	c #D3E4F5",
"~c 	c #4792DF",
"{c 	c #257FDE",
"]c 	c #B4D3F2",
"^c 	c #A2A4AB",
"/c 	c #0D152A",
"(c 	c #000008",
"_c 	c #07080C",
":c 	c #AEAEB0",
"<c 	c #808181",
"[c 	c #393A3F",
"}c 	c #D4D4D5",
"|c 	c #EAE9EA",
"1c 	c #434449",
"2c 	c #000109",
"3c 	c #6F7074",
"4c 	c #01112F",
"5c 	c #041231",
"6c 	c #051437",
"7c 	c #DCDCDE",
"8c 	c #404144",
"9c 	c #050811",
"0c 	c #0C0B06",
"ac 	c #F3E78C",
"bc 	c #FADB5A",
"cc 	c #FEDA4F",
"dc 	c #F6D955",
"ec 	c #463813",
"fc 	c #010200",
"gc 	c #01040B",
"hc 	c #0D0500",
"ic 	c #935907",
"jc 	c #D4760A",
"kc 	c #912B00",
"lc 	c #852600",
"mc 	c #792200",
"nc 	c #6D1E00",
"oc 	c #802F03",
"pc 	c #944506",
"qc 	c #0F0600",
"rc 	c #CFCA8C",
"sc 	c #FCE676",
"tc 	c #F8E36F",
"uc 	c #5B562C",
"vc 	c #04112E",
"wc 	c #030D25",
"xc 	c #030E26",
"yc 	c #040F2B",
"zc 	c #7A7754",
"Ac 	c #F9E991",
"Bc 	c #FDD54E",
"Cc 	c #FBDE5F",
"Dc 	c #12120F",
"Ec 	c #D1CB93",
"Fc 	c #F8EA88",
"Gc 	c #FCD347",
"Hc 	c #FED549",
"Ic 	c #ECE185",
"Jc 	c #FCD74B",
"Kc 	c #F7D956",
"Lc 	c #3F3813",
"Mc 	c #050400",
"Nc 	c #0B0B02",
"Oc 	c #F5E674",
"Pc 	c #FADF5D",
"Qc 	c #24210B",
"Rc 	c #021023",
"Sc 	c #093857",
"Tc 	c #020F14",
"Uc 	c #08334D",
"Vc 	c #247DA6",
"Wc 	c #031126",
"Xc 	c #101219",
"Yc 	c #313545",
"Zc 	c #141F38",
"`c 	c #BFC3CB",
" d 	c #FCFBFA",
".d 	c #2D303E",
"+d 	c #000F2B",
"@d 	c #000D29",
"#d 	c #050A13",
"$d 	c #727F8D",
"%d 	c #CDDCEE",
"&d 	c #2F6EBC",
"*d 	c #0451AF",
"=d 	c #A3BEE2",
"-d 	c #A1A3AA",
";d 	c #0C1328",
">d 	c #08090E",
",d 	c #AEAFB1",
"'d 	c #F3F3F3",
")d 	c #848484",
"!d 	c #00010C",
"~d 	c #00020F",
"{d 	c #393A40",
"]d 	c #ECECEC",
"^d 	c #45474C",
"/d 	c #000313",
"(d 	c #707278",
"_d 	c #021131",
":d 	c #051130",
"<d 	c #051336",
"[d 	c #D7D7D8",
"}d 	c #3D3E41",
"|d 	c #04060C",
"1d 	c #283143",
"2d 	c #344357",
"3d 	c #050E22",
"4d 	c #111007",
"5d 	c #F5E889",
"6d 	c #FBDC5D",
"7d 	c #FCD84E",
"8d 	c #F9D750",
"9d 	c #8F7F40",
"0d 	c #5D5A3A",
"ad 	c #1C1B11",
"bd 	c #010104",
"cd 	c #070100",
"dd 	c #4C1A00",
"ed 	c #6A2000",
"fd 	c #621C00",
"gd 	c #5F1900",
"hd 	c #5C1900",
"id 	c #6C1E00",
"jd 	c #701E00",
"kd 	c #0D0301",
"ld 	c #030610",
"md 	c #CEC886",
"nd 	c #FBE674",
"od 	c #F8E371",
"pd 	c #5C562E",
"qd 	c #050302",
"rd 	c #030611",
"sd 	c #030B1E",
"td 	c #030A1C",
"ud 	c #02091A",
"vd 	c #7D7959",
"wd 	c #F9EA96",
"xd 	c #FDD751",
"yd 	c #FCD348",
"zd 	c #FADE60",
"Ad 	c #F7E87B",
"Bd 	c #19170B",
"Cd 	c #13130E",
"Dd 	c #D1CB90",
"Ed 	c #F8EB89",
"Fd 	c #F9D854",
"Gd 	c #B6A142",
"Hd 	c #010206",
"Id 	c #030714",
"Jd 	c #EDE387",
"Kd 	c #FADC5E",
"Ld 	c #F7D854",
"Md 	c #3C3412",
"Nd 	c #040400",
"Od 	c #050200",
"Pd 	c #0A0B02",
"Qd 	c #FADE5A",
"Rd 	c #D9BF46",
"Sd 	c #24200B",
"Td 	c #021022",
"Ud 	c #073348",
"Vd 	c #021219",
"Wd 	c #06202D",
"Xd 	c #1B75A8",
"Yd 	c #040E14",
"Zd 	c #2E82A6",
"`d 	c #030F22",
" e 	c #2E3342",
".e 	c #051331",
"+e 	c #1B376A",
"@e 	c #C7CEDA",
"#e 	c #282A34",
"$e 	c #000F2E",
"%e 	c #000E29",
"&e 	c #0C131F",
"*e 	c #96B1CA",
"=e 	c #FDFCFD",
"-e 	c #CBD2E0",
";e 	c #2D497C",
">e 	c #042560",
",e 	c #A6AFC3",
"'e 	c #AAADB6",
")e 	c #17223C",
"!e 	c #020A21",
"~e 	c #030E2C",
"{e 	c #020D28",
"]e 	c #06080B",
"^e 	c #ADAEB0",
"/e 	c #828283",
"(e 	c #030308",
"_e 	c #020A20",
":e 	c #020A1D",
"<e 	c #020818",
"[e 	c #010618",
"}e 	c #01071A",
"|e 	c #010C25",
"1e 	c #02081B",
"2e 	c #010B25",
"3e 	c #D4D4D6",
"4e 	c #EBECEC",
"5e 	c #444548",
"6e 	c #020C27",
"7e 	c #F9F8F8",
"8e 	c #737475",
"9e 	c #021232",
"0e 	c #051030",
"ae 	c #061336",
"be 	c #DDDEDF",
"ce 	c #454648",
"de 	c #0E0F12",
"ee 	c #0B0D14",
"fe 	c #0C0E19",
"ge 	c #0D0F1C",
"he 	c #0A0E1B",
"ie 	c #090C17",
"je 	c #080B15",
"ke 	c #0B1125",
"le 	c #748194",
"me 	c #A1B7CE",
"ne 	c #17233B",
"oe 	c #161405",
"pe 	c #F8E77C",
"qe 	c #FBDC5C",
"re 	c #FCD446",
"se 	c #F6E078",
"te 	c #E4D77E",
"ue 	c #56502E",
"ve 	c #181712",
"we 	c #1B1A16",
"xe 	c #0E0E0D",
"ye 	c #0C0300",
"ze 	c #110500",
"Ae 	c #100400",
"Be 	c #110400",
"Ce 	c #140600",
"De 	c #240900",
"Ee 	c #2B0B00",
"Fe 	c #050202",
"Ge 	c #CCC57D",
"He 	c #FBE571",
"Ie 	c #FCD954",
"Je 	c #F8E370",
"Ke 	c #5C552C",
"Le 	c #040301",
"Me 	c #7E7A59",
"Ne 	c #F9EA94",
"Oe 	c #FDD750",
"Pe 	c #F7E979",
"Qe 	c #13120D",
"Re 	c #D1CB8E",
"Se 	c #F9EA86",
"Te 	c #F9D954",
"Ue 	c #151205",
"Ve 	c #EEE283",
"We 	c #FDD445",
"Xe 	c #F7D955",
"Ye 	c #3B3313",
"Ze 	c #040100",
"`e 	c #0A0A02",
" f 	c #F4E672",
".f 	c #FBDD58",
"+f 	c #021021",
"@f 	c #093C5B",
"#f 	c #021018",
"$f 	c #1378AA",
"%f 	c #072739",
"&f 	c #051219",
"*f 	c #154561",
"=f 	c #051016",
"-f 	c #3585A8",
";f 	c #041022",
">f 	c #2B303E",
",f 	c #010923",
"'f 	c #9BA1AF",
")f 	c #F5F7F9",
"!f 	c #04080F",
"~f 	c #3C3D46",
"{f 	c #F8F8F7",
"]f 	c #CACAD0",
"^f 	c #2C2F43",
"/f 	c #040B26",
"(f 	c #ADADB1",
"_f 	c #83A7CA",
":f 	c #030B22",
"<f 	c #030C26",
"[f 	c #05102E",
"}f 	c #08183E",
"|f 	c #09173C",
"1f 	c #08173C",
"2f 	c #08173D",
"3f 	c #08163C",
"4f 	c #07163B",
"5f 	c #07163A",
"6f 	c #08090F",
"7f 	c #ADAEB1",
"8f 	c #FAFAF9",
"9f 	c #030A19",
"0f 	c #081639",
"af 	c #09173D",
"bf 	c #081841",
"cf 	c #071A43",
"df 	c #071A46",
"ef 	c #071B48",
"ff 	c #071C49",
"gf 	c #051B48",
"hf 	c #051A46",
"if 	c #061943",
"jf 	c #081943",
"kf 	c #081A44",
"lf 	c #071941",
"mf 	c #07183F",
"nf 	c #07173E",
"of 	c #030D26",
"pf 	c #D5D4D6",
"qf 	c #EBEBEB",
"rf 	c #434447",
"sf 	c #061331",
"tf 	c #0A1A43",
"uf 	c #09183F",
"vf 	c #08163A",
"wf 	c #08163B",
"xf 	c #08183F",
"yf 	c #091A43",
"zf 	c #0A1A45",
"Af 	c #6C6D70",
"Bf 	c #747576",
"Cf 	c #04040A",
"Df 	c #031231",
"Ef 	c #061232",
"Ff 	c #071437",
"Gf 	c #F8F6F7",
"Hf 	c #5B5F6D",
"If 	c #030A21",
"Jf 	c #030C23",
"Kf 	c #05112D",
"Lf 	c #05112F",
"Mf 	c #041131",
"Nf 	c #151204",
"Of 	c #F5E26B",
"Pf 	c #FAD951",
"Qf 	c #FED74B",
"Rf 	c #FCEEA3",
"Sf 	c #FBF7C6",
"Tf 	c #FBF6C0",
"Uf 	c #807D61",
"Vf 	c #040402",
"Wf 	c #CEC77E",
"Xf 	c #FCE673",
"Yf 	c #FDD850",
"Zf 	c #FDD851",
"`f 	c #D9CA86",
" g 	c #BFBDA6",
".g 	c #BEBDA8",
"+g 	c #C0BFAA",
"@g 	c #C3C2B0",
"#g 	c #C4C3B5",
"$g 	c #C3C2B6",
"%g 	c #C2C1B4",
"&g 	c #C2C0AF",
"*g 	c #E0CA79",
"=g 	c #FCD547",
"-g 	c #FCD548",
";g 	c #FBDD5E",
">g 	c #F8E775",
",g 	c #1A1809",
"'g 	c #12120D",
")g 	c #D1CB8D",
"!g 	c #F9EA84",
"~g 	c #F9D955",
"{g 	c #B5A042",
"]g 	c #141206",
"^g 	c #EEE282",
"/g 	c #FADB5D",
"(g 	c #F8DA57",
"_g 	c #3C3414",
":g 	c #050402",
"<g 	c #010309",
"[g 	c #0A0A03",
"}g 	c #F4E470",
"|g 	c #FADC55",
"1g 	c #FED848",
"2g 	c #FDDB4D",
"3g 	c #D9C047",
"4g 	c #020F20",
"5g 	c #083856",
"6g 	c #001020",
"7g 	c #00162D",
"8g 	c #01060D",
"9g 	c #020B11",
"0g 	c #0F3D56",
"ag 	c #03121B",
"bg 	c #7D8587",
"cg 	c #CACDCE",
"dg 	c #4C5050",
"eg 	c #061016",
"fg 	c #3685A8",
"gg 	c #040F22",
"hg 	c #111319",
"ig 	c #72747E",
"jg 	c #55565D",
"kg 	c #55575C",
"lg 	c #57595E",
"mg 	c #575A61",
"ng 	c #585D69",
"og 	c #BEC5CF",
"pg 	c #F6FAFC",
"qg 	c #93B4E1",
"rg 	c #4179C6",
"sg 	c #091222",
"tg 	c #001437",
"ug 	c #040B19",
"vg 	c #3F404A",
"wg 	c #CBCBCF",
"xg 	c #2D2F39",
"yg 	c #04091C",
"zg 	c #9EA9AF",
"Ag 	c #E7F4F9",
"Bg 	c #F1F5F8",
"Cg 	c #91B2CF",
"Dg 	c #141B2C",
"Eg 	c #020B23",
"Fg 	c #081B45",
"Gg 	c #061535",
"Hg 	c #040D20",
"Ig 	c #030C1D",
"Jg 	c #051028",
"Kg 	c #08173B",
"Lg 	c #09183D",
"Mg 	c #07090C",
"Ng 	c #AEAFB0",
"Og 	c #818182",
"Pg 	c #020209",
"Qg 	c #040C22",
"Rg 	c #091940",
"Sg 	c #081537",
"Tg 	c #050F27",
"Ug 	c #040F29",
"Vg 	c #030E27",
"Wg 	c #030C21",
"Xg 	c #030D21",
"Yg 	c #030F25",
"Zg 	c #041027",
"`g 	c #05112A",
" h 	c #05112B",
".h 	c #041029",
"+h 	c #05122F",
"@h 	c #050E26",
"#h 	c #01020A",
"$h 	c #3A3C42",
"%h 	c #D5D5D6",
"&h 	c #071332",
"*h 	c #0A1942",
"=h 	c #071432",
"-h 	c #050E25",
";h 	c #061128",
">h 	c #051029",
",h 	c #050F26",
"'h 	c #091538",
")h 	c #0B1940",
"!h 	c #050E29",
"~h 	c #757576",
"{h 	c #021130",
"]h 	c #071333",
"^h 	c #081538",
"/h 	c #D7D8D9",
"(h 	c #5E616B",
"_h 	c #020C23",
":h 	c #030D23",
"<h 	c #051334",
"[h 	c #0F0800",
"}h 	c #BC7F19",
"|h 	c #E9BA3A",
"1h 	c #FCD543",
"2h 	c #FCDA4B",
"3h 	c #FCDB4C",
"4h 	c #FCD949",
"5h 	c #AE9841",
"6h 	c #67613E",
"7h 	c #686447",
"8h 	c #676550",
"9h 	c #484636",
"0h 	c #090806",
"ah 	c #030A1A",
"bh 	c #030509",
"ch 	c #050502",
"dh 	c #CFC87F",
"eh 	c #FCE675",
"fh 	c #FDE578",
"gh 	c #FDEC90",
"hh 	c #FDED92",
"ih 	c #FDED97",
"jh 	c #FDED99",
"kh 	c #FDEC99",
"lh 	c #FDED9B",
"mh 	c #FDEC9B",
"nh 	c #FBDF6E",
"oh 	c #FAD753",
"ph 	c #F7DC61",
"qh 	c #1B1708",
"rh 	c #D1CB8C",
"sh 	c #F9EA85",
"th 	c #B6A042",
"uh 	c #141105",
"vh 	c #030713",
"wh 	c #EEE182",
"xh 	c #F8DB58",
"yh 	c #3D3514",
"zh 	c #070502",
"Ah 	c #151307",
"Bh 	c #F6E46F",
"Ch 	c #FADA52",
"Dh 	c #FCD645",
"Eh 	c #FDD746",
"Fh 	c #FED745",
"Gh 	c #D8BF46",
"Hh 	c #073856",
"Ih 	c #0B4E7C",
"Jh 	c #0D6199",
"Kh 	c #021625",
"Lh 	c #A9B1B1",
"Mh 	c #8F9395",
"Nh 	c #040709",
"Oh 	c #020A0C",
"Ph 	c #112E36",
"Qh 	c #163943",
"Rh 	c #031B2D",
"Sh 	c #093D67",
"Th 	c #5C94BD",
"Uh 	c #9ACDEE",
"Vh 	c #5E8490",
"Wh 	c #020506",
"Xh 	c #082A39",
"Yh 	c #072230",
"Zh 	c #3684A8",
"`h 	c #040F21",
" i 	c #12131B",
".i 	c #F8FBFC",
"+i 	c #C3E6F8",
"@i 	c #96C8F1",
"#i 	c #3E6AB3",
"$i 	c #012D89",
"%i 	c #000211",
"&i 	c #011841",
"*i 	c #050B1B",
"=i 	c #3C3F49",
"-i 	c #CACBD0",
";i 	c #2B2E3A",
">i 	c #020717",
",i 	c #3E719E",
"'i 	c #73B2ED",
")i 	c #E2EEF9",
"!i 	c #F0F7F9",
"~i 	c #474D55",
"{i 	c #06183D",
"]i 	c #071330",
"^i 	c #0A193C",
"/i 	c #AFAFB1",
"(i 	c #818181",
"_i 	c #02030B",
":i 	c #040D25",
"<i 	c #0B1B45",
"[i 	c #07132E",
"}i 	c #0A1C46",
"|i 	c #06112C",
"1i 	c #3A3B41",
"2i 	c #444549",
"3i 	c #07122D",
"4i 	c #0B1A42",
"5i 	c #06112E",
"6i 	c #0B1A43",
"7i 	c #060F28",
"8i 	c #67686A",
"9i 	c #F8F7F8",
"0i 	c #747475",
"ai 	c #031130",
"bi 	c #071434",
"ci 	c #D8D8DA",
"di 	c #5E6169",
"ei 	c #020B22",
"fi 	c #030A17",
"gi 	c #041335",
"hi 	c #020A1B",
"ii 	c #080000",
"ji 	c #742A04",
"ki 	c #CA9A37",
"li 	c #FBDC5A",
"mi 	c #FDD443",
"ni 	c #FDD342",
"oi 	c #FDD240",
"pi 	c #FCD13E",
"qi 	c #FCD03C",
"ri 	c #FCCF3A",
"si 	c #FBDF69",
"ti 	c #FCE06F",
"ui 	c #F8DE7D",
"vi 	c #C6B369",
"wi 	c #605C4A",
"xi 	c #56554B",
"yi 	c #47453A",
"zi 	c #040D21",
"Ai 	c #CFC77A",
"Bi 	c #FCE570",
"Ci 	c #FAD752",
"Di 	c #F6DB5E",
"Ei 	c #191508",
"Fi 	c #12120C",
"Gi 	c #D0CB8B",
"Hi 	c #141106",
"Ii 	c #EEDE75",
"Ji 	c #FADC5A",
"Ki 	c #F7DA58",
"Li 	c #3C3514",
"Mi 	c #050401",
"Ni 	c #060403",
"Oi 	c #575132",
"Pi 	c #A09B76",
"Qi 	c #FBD447",
"Ri 	c #FCD242",
"Si 	c #FDD444",
"Ti 	c #FDD645",
"Ui 	c #FDD441",
"Vi 	c #FCD848",
"Wi 	c #D8BE44",
"Xi 	c #073552",
"Yi 	c #010001",
"Zi 	c #041119",
"`i 	c #09283B",
" j 	c #10476D",
".j 	c #0A3957",
"+j 	c #020C12",
"@j 	c #4C5659",
"#j 	c #9FD1EA",
"$j 	c #6490BB",
"%j 	c #072E60",
"&j 	c #041E40",
"*j 	c #163841",
"=j 	c #14333B",
"-j 	c #040E10",
";j 	c #082228",
">j 	c #3898B1",
",j 	c #46BFE0",
"'j 	c #011419",
")j 	c #053A63",
"!j 	c #117ED5",
"~j 	c #167DD3",
"{j 	c #208ADE",
"]j 	c #529FBD",
"^j 	c #1A85B6",
"/j 	c #1A709A",
"(j 	c #03131C",
"_j 	c #3482A7",
":j 	c #040E20",
"<j 	c #13141A",
"[j 	c #80BDE8",
"}j 	c #155EB7",
"|j 	c #053890",
"1j 	c #002D83",
"2j 	c #011741",
"3j 	c #050A17",
"4j 	c #393D49",
"5j 	c #C6C7CD",
"6j 	c #084386",
"7j 	c #2B7BDA",
"8j 	c #D4E3F7",
"9j 	c #494C55",
"0j 	c #020614",
"aj 	c #06183E",
"bj 	c #061435",
"cj 	c #081432",
"dj 	c #0A193F",
"ej 	c #08090D",
"fj 	c #808081",
"gj 	c #040D23",
"hj 	c #0B1B41",
"ij 	c #07112A",
"jj 	c #0A1C47",
"kj 	c #EBEBEC",
"lj 	c #44454A",
"mj 	c #07122E",
"nj 	c #0C1A42",
"oj 	c #050D21",
"pj 	c #06102A",
"qj 	c #02040E",
"rj 	c #656668",
"sj 	c #737375",
"tj 	c #031131",
"uj 	c #5D6068",
"vj 	c #020611",
"wj 	c #040A16",
"xj 	c #041336",
"yj 	c #020A1E",
"zj 	c #6E2201",
"Aj 	c #BC8428",
"Bj 	c #F0C542",
"Cj 	c #FBD443",
"Dj 	c #FDD341",
"Ej 	c #FDD13F",
"Fj 	c #FDD140",
"Gj 	c #FCD03E",
"Hj 	c #FCCE3E",
"Ij 	c #FCCE3F",
"Jj 	c #F5D45E",
"Kj 	c #EBDF96",
"Lj 	c #E6DA91",
"Mj 	c #B4AA68",
"Nj 	c #090702",
"Oj 	c #040E25",
"Pj 	c #040C23",
"Qj 	c #03060A",
"Rj 	c #CEC570",
"Sj 	c #FBE368",
"Tj 	c #FAD954",
"Uj 	c #F6DD5F",
"Vj 	c #191608",
"Wj 	c #12120B",
"Xj 	c #D0CA8A",
"Yj 	c #B5A041",
"Zj 	c #060501",
"`j 	c #EEDD6B",
" k 	c #FADC58",
".k 	c #F8DA58",
"+k 	c #564E26",
"@k 	c #212019",
"#k 	c #1B1C16",
"$k 	c #1C1D17",
"%k 	c #1E1D17",
"&k 	c #232118",
"*k 	c #9B8F52",
"=k 	c #F9F6B6",
"-k 	c #FCD241",
";k 	c #FDD442",
">k 	c #FDD542",
",k 	c #FDD23E",
"'k 	c #FDD13E",
")k 	c #FCD746",
"!k 	c #D7BD42",
"~k 	c #231F0B",
"{k 	c #021224",
"]k 	c #083552",
"^k 	c #083651",
"/k 	c #187BB5",
"(k 	c #15557E",
"_k 	c #020609",
":k 	c #7F9DA1",
"<k 	c #5AB6F0",
"[k 	c #155AAA",
"}k 	c #0956B3",
"|k 	c #083E83",
"1k 	c #4DB4CF",
"2k 	c #47A8BE",
"3k 	c #103037",
"4k 	c #082227",
"5k 	c #3799B2",
"6k 	c #48C1E1",
"7k 	c #02161B",
"8k 	c #031C31",
"9k 	c #093A64",
"0k 	c #062E58",
"ak 	c #0A4D97",
"bk 	c #154772",
"ck 	c #0C5379",
"dk 	c #0E445D",
"ek 	c #3280A7",
"fk 	c #040D1E",
"gk 	c #000518",
"hk 	c #131419",
"ik 	c #F4F9FB",
"jk 	c #9EB9DB",
"kk 	c #5174B3",
"lk 	c #285CAC",
"mk 	c #01358D",
"nk 	c #00153F",
"ok 	c #010D26",
"pk 	c #1C456C",
"qk 	c #56799C",
"rk 	c #FCFDFD",
"sk 	c #CAE9F9",
"tk 	c #97B5C9",
"uk 	c #1D242A",
"vk 	c #22519C",
"wk 	c #D2DCEC",
"xk 	c #494D59",
"yk 	c #041534",
"zk 	c #041638",
"Ak 	c #071431",
"Bk 	c #0A193E",
"Ck 	c #0B1A40",
"Dk 	c #071129",
"Ek 	c #0A1B45",
"Fk 	c #010108",
"Gk 	c #EAEBEB",
"Hk 	c #0D1B44",
"Ik 	c #060D23",
"Jk 	c #07112C",
"Kk 	c #0D1B43",
"Lk 	c #646465",
"Mk 	c #F9FBFD",
"Nk 	c #041334",
"Ok 	c #D5D5D7",
"Pk 	c #F3F9FD",
"Qk 	c #F0F9FD",
"Rk 	c #E9F6FC",
"Sk 	c #ECF7FC",
"Tk 	c #EDF7FC",
"Uk 	c #EFF8FC",
"Vk 	c #F5FAFC",
"Wk 	c #F6FBFB",
"Xk 	c #F2F9FC",
"Yk 	c #F5F8F9",
"Zk 	c #5A5E67",
"`k 	c #01081C",
" l 	c #030F2D",
".l 	c #070200",
"+l 	c #200900",
"@l 	c #4E1500",
"#l 	c #691B00",
"$l 	c #BA7316",
"%l 	c #F2B426",
"&l 	c #FBCC38",
"*l 	c #FDD644",
"=l 	c #FED544",
"-l 	c #FDD241",
";l 	c #FED140",
">l 	c #FDD03F",
",l 	c #FDCF3E",
"'l 	c #FDCF3C",
")l 	c #FCCD39",
"!l 	c #FCCD37",
"~l 	c #FCCB33",
"{l 	c #FBC830",
"]l 	c #F6CC43",
"^l 	c #E9DB93",
"/l 	c #D9D091",
"(l 	c #B5AA60",
"_l 	c #0C0A05",
":l 	c #050608",
"<l 	c #03091A",
"[l 	c #020716",
"}l 	c #CDC164",
"|l 	c #FBE161",
"1l 	c #FCD74A",
"2l 	c #F7DB60",
"3l 	c #1A1707",
"4l 	c #11100A",
"5l 	c #D1CA83",
"6l 	c #F8EA81",
"7l 	c #B5A141",
"8l 	c #141205",
"9l 	c #040711",
"0l 	c #EEDD66",
"al 	c #FADB56",
"bl 	c #FBD548",
"cl 	c #FBED8E",
"dl 	c #FBF29D",
"el 	c #FBF19A",
"fl 	c #FBF19E",
"gl 	c #FBF09C",
"hl 	c #FBEF98",
"il 	c #F9E988",
"jl 	c #FAD045",
"kl 	c #FCCF40",
"ll 	c #FCCF3C",
"ml 	c #FDCF3D",
"nl 	c #FCD23E",
"ol 	c #FCCF3B",
"pl 	c #FDCE39",
"ql 	c #D8BF45",
"rl 	c #020103",
"sl 	c #031223",
"tl 	c #031B2F",
"ul 	c #083D69",
"vl 	c #083455",
"wl 	c #274E67",
"xl 	c #175591",
"yl 	c #02122B",
"zl 	c #041F41",
"Al 	c #021731",
"Bl 	c #000506",
"Cl 	c #49B4D0",
"Dl 	c #47AABF",
"El 	c #103137",
"Fl 	c #010607",
"Gl 	c #081C22",
"Hl 	c #0A232B",
"Il 	c #051017",
"Jl 	c #040D1B",
"Kl 	c #F4F9FA",
"Ll 	c #E9F6FB",
"Ml 	c #789FCD",
"Nl 	c #1B4292",
"Ol 	c #153F89",
"Pl 	c #0E2255",
"Ql 	c #000415",
"Rl 	c #010F28",
"Sl 	c #4E85B0",
"Tl 	c #8FC1E4",
"Ul 	c #9ACFF3",
"Vl 	c #6D9EC1",
"Wl 	c #151E28",
"Xl 	c #01091F",
"Yl 	c #203B70",
"Zl 	c #D1D9E3",
"`l 	c #5F626E",
" m 	c #1A2234",
".m 	c #051434",
"+m 	c #04173C",
"@m 	c #010E27",
"#m 	c #07122F",
"$m 	c #0A173C",
"%m 	c #F2F2F3",
"&m 	c #0B1A41",
"*m 	c #050F29",
"=m 	c #F6F9FB",
"-m 	c #F5F9FB",
";m 	c #E9EBEA",
">m 	c #0D1B45",
",m 	c #050E23",
"'m 	c #061029",
")m 	c #616262",
"!m 	c #E3F5FD",
"~m 	c #E0F4FD",
"{m 	c #000611",
"]m 	c #041333",
"^m 	c #D8D8D9",
"/m 	c #F7F9FB",
"(m 	c #E5F5FC",
"_m 	c #DEF3FD",
":m 	c #DFF3FC",
"<m 	c #E1F3FC",
"[m 	c #F1F8FD",
"}m 	c #F1F9FC",
"|m 	c #F0F9FC",
"1m 	c #EBF6FB",
"2m 	c #F1F6F8",
"3m 	c #595D66",
"4m 	c #020D24",
"5m 	c #3B0F00",
"6m 	c #5E1800",
"7m 	c #963D02",
"8m 	c #CB7512",
"9m 	c #E6B337",
"0m 	c #EFC23F",
"am 	c #F7C83B",
"bm 	c #FDD23F",
"cm 	c #FED341",
"dm 	c #FED240",
"em 	c #FDCE3C",
"fm 	c #FCCD3A",
"gm 	c #FCCC38",
"hm 	c #FCCA37",
"im 	c #FBCB3B",
"jm 	c #FBD24A",
"km 	c #F9DA66",
"lm 	c #F3E48A",
"mm 	c #282412",
"nm 	c #12110A",
"om 	c #CEC060",
"pm 	c #FCE05F",
"qm 	c #FCD346",
"rm 	c #FAD24A",
"sm 	c #F7D556",
"tm 	c #100F08",
"um 	c #D0C674",
"vm 	c #F8E676",
"wm 	c #F9D551",
"xm 	c #B69F40",
"ym 	c #040610",
"zm 	c #02040D",
"Am 	c #EFDC63",
"Bm 	c #FADB55",
"Cm 	c #FCD445",
"Dm 	c #FDDB52",
"Em 	c #FDDB55",
"Fm 	c #FDDB56",
"Gm 	c #FDDC55",
"Hm 	c #FCCE3C",
"Im 	c #FDCD39",
"Jm 	c #FDCE38",
"Km 	c #FDCF39",
"Lm 	c #D8C24B",
"Mm 	c #26220F",
"Nm 	c #000007",
"Om 	c #020F1B",
"Pm 	c #08344F",
"Qm 	c #092029",
"Rm 	c #0A1F25",
"Sm 	c #02080A",
"Tm 	c #3180A6",
"Um 	c #040D1A",
"Vm 	c #E4F4FC",
"Wm 	c #DDF2FC",
"Xm 	c #CCDFF0",
"Ym 	c #BECAE0",
"Zm 	c #BCC4D5",
"`m 	c #848996",
" n 	c #0F1422",
".n 	c #00091B",
"+n 	c #070B15",
"@n 	c #C0CAD4",
"#n 	c #E8F1F8",
"$n 	c #F7F9FA",
"%n 	c #498ED8",
"&n 	c #1E5CA6",
"*n 	c #061127",
"=n 	c #1D293E",
"-n 	c #CDD4DA",
";n 	c #FDFCFB",
">n 	c #D5D6D9",
",n 	c #78828C",
"'n 	c #020F2B",
")n 	c #031330",
"!n 	c #07112B",
"~n 	c #0A173A",
"{n 	c #0A0A0F",
"]n 	c #B0B0B2",
"^n 	c #FAFCFC",
"/n 	c #F3FAFD",
"(n 	c #E6F6FC",
"_n 	c #E1F4FC",
":n 	c #F1F2F3",
"<n 	c #050D24",
"[n 	c #0B1B43",
"}n 	c #091A44",
"|n 	c #D5D4D5",
"1n 	c #F6FAFD",
"2n 	c #E8F6FD",
"3n 	c #EBF6FC",
"4n 	c #E5F5FB",
"5n 	c #E2F4FC",
"6n 	c #E9EAEB",
"7n 	c #424348",
"8n 	c #060E22",
"9n 	c #08122D",
"0n 	c #0E1B44",
"an 	c #071029",
"bn 	c #616263",
"cn 	c #F4F6F8",
"dn 	c #EEF7FB",
"en 	c #ECF7FD",
"fn 	c #E1F5FD",
"gn 	c #DFF3FD",
"hn 	c #F4F6F7",
"in 	c #717173",
"jn 	c #041232",
"kn 	c #041537",
"ln 	c #D9DADB",
"mn 	c #DDF3FC",
"nn 	c #DCF2FC",
"on 	c #DEF2FC",
"pn 	c #E0F3FC",
"qn 	c #E3F5FC",
"rn 	c #E4F5FC",
"sn 	c #E3F4FC",
"tn 	c #E6F5FC",
"un 	c #DEF3FC",
"vn 	c #DCF2FB",
"wn 	c #F2F7F9",
"xn 	c #5D626A",
"yn 	c #1D0700",
"zn 	c #712300",
"An 	c #873003",
"Bn 	c #94460E",
"Cn 	c #964A10",
"Dn 	c #CA8216",
"En 	c #FAC62B",
"Fn 	c #FDCD37",
"Gn 	c #FDD03E",
"Hn 	c #FDCE3B",
"In 	c #FDCD3A",
"Jn 	c #FBCB3A",
"Kn 	c #FBC939",
"Ln 	c #FACA40",
"Mn 	c #F9CD49",
"Nn 	c #C3B865",
"On 	c #655F32",
"Pn 	c #050501",
"Qn 	c #070601",
"Rn 	c #D1C262",
"Sn 	c #FCDD5D",
"Tn 	c #FECF41",
"Un 	c #FCCD3C",
"Vn 	c #FCCD3D",
"Wn 	c #FCCF3E",
"Xn 	c #FDCE3D",
"Yn 	c #FDCD3B",
"Zn 	c #FCD142",
"`n 	c #FDD344",
" o 	c #FDD243",
".o 	c #FDD244",
"+o 	c #FDD142",
"@o 	c #FCCB3B",
"#o 	c #FCC837",
"$o 	c #FACA3D",
"%o 	c #F5D24F",
"&o 	c #171405",
"*o 	c #01030B",
"=o 	c #100F07",
"-o 	c #D1C362",
";o 	c #F8E064",
">o 	c #F9D34C",
",o 	c #B69E3E",
"'o 	c #151105",
")o 	c #EEDB63",
"!o 	c #FADA54",
"~o 	c #FCD345",
"{o 	c #FCD344",
"]o 	c #FDD242",
"^o 	c #FDD141",
"/o 	c #FDD03C",
"(o 	c #FDCD38",
"_o 	c #FCCC36",
":o 	c #FCDB49",
"<o 	c #DAC752",
"[o 	c #252312",
"}o 	c #020207",
"|o 	c #03111E",
"1o 	c #0A3551",
"2o 	c #327EA4",
"3o 	c #131418",
"4o 	c #F6FAFB",
"5o 	c #F7FBFC",
"6o 	c #DBF1FC",
"7o 	c #D8F1FD",
"8o 	c #EBF7FC",
"9o 	c #F4FAFB",
"0o 	c #CBD4DB",
"ao 	c #343F4C",
"bo 	c #011333",
"co 	c #090D1A",
"do 	c #D9D9DB",
"eo 	c #3277C9",
"fo 	c #043F8F",
"go 	c #1A2129",
"ho 	c #C4CFD5",
"io 	c #979CA0",
"jo 	c #02102C",
"ko 	c #041535",
"lo 	c #0A183C",
"mo 	c #090A0E",
"no 	c #F6FBFC",
"oo 	c #E7F6FC",
"po 	c #E6F6FD",
"qo 	c #E1F4FD",
"ro 	c #0C1B45",
"so 	c #0A1B46",
"to 	c #050F2A",
"uo 	c #010209",
"vo 	c #3A3B40",
"wo 	c #D5D5D5",
"xo 	c #F2F9FD",
"yo 	c #424347",
"zo 	c #07112D",
"Ao 	c #0D1C45",
"Bo 	c #081330",
"Co 	c #0E1D48",
"Do 	c #606163",
"Eo 	c #F3F6F7",
"Fo 	c #EBF7FB",
"Go 	c #E8F7FD",
"Ho 	c #E6F5FD",
"Io 	c #E0F4FC",
"Jo 	c #DFF4FC",
"Ko 	c #F6F6F8",
"Lo 	c #01112E",
"Mo 	c #031232",
"No 	c #041437",
"Oo 	c #050609",
"Po 	c #D8D9DB",
"Qo 	c #F7FAFD",
"Ro 	c #F3F8FB",
"So 	c #F1F8FC",
"To 	c #E8F6FC",
"Uo 	c #F6F9FA",
"Vo 	c #60666F",
"Wo 	c #5D1B00",
"Xo 	c #752400",
"Yo 	c #722100",
"Zo 	c #712001",
"`o 	c #B6670C",
" p 	c #FAC929",
".p 	c #FCCF36",
"+p 	c #FCC937",
"@p 	c #FBC835",
"#p 	c #FBC734",
"$p 	c #FCC62E",
"%p 	c #847B39",
"&p 	c #110A03",
"*p 	c #040204",
"=p 	c #080702",
"-p 	c #D1C361",
";p 	c #FCDC5A",
">p 	c #FCCA38",
",p 	c #FCCA39",
"'p 	c #FDCB38",
")p 	c #FDCB37",
"!p 	c #FCC936",
"~p 	c #FDC833",
"{p 	c #FCCA33",
"]p 	c #FCD03A",
"^p 	c #FCD13F",
"/p 	c #FCD341",
"(p 	c #FDD343",
"_p 	c #FCCE3B",
":p 	c #FCC735",
"<p 	c #FDCF3F",
"[p 	c #FDCD3C",
"}p 	c #FDCC3C",
"|p 	c #FCC836",
"1p 	c #FCC533",
"2p 	c #F9C83A",
"3p 	c #F6D24E",
"4p 	c #171305",
"5p 	c #100F06",
"6p 	c #CFC059",
"7p 	c #F8E05D",
"8p 	c #B59C3C",
"9p 	c #141104",
"0p 	c #EDDA63",
"ap 	c #FADA53",
"bp 	c #FCD141",
"cp 	c #FDCF3B",
"dp 	c #FDCE3A",
"ep 	c #FDD03A",
"fp 	c #FCD73F",
"gp 	c #D79E27",
"hp 	c #95510F",
"ip 	c #170D06",
"jp 	c #010105",
"kp 	c #041421",
"lp 	c #0C3956",
"mp 	c #3D3D3D",
"np 	c #AFAFAF",
"op 	c #BBBBBB",
"pp 	c #BBBBBA",
"qp 	c #646463",
"rp 	c #040C17",
"sp 	c #F9F9F8",
"tp 	c #DCF3FD",
"up 	c #E5F5FD",
"vp 	c #E3F4FD",
"wp 	c #E2F3FC",
"xp 	c #D6EFFC",
"yp 	c #D4EEFC",
"zp 	c #D8F0FC",
"Ap 	c #D7F1FC",
"Bp 	c #D8F1FC",
"Cp 	c #D5F0FC",
"Dp 	c #D6F1FC",
"Ep 	c #D9F1FC",
"Fp 	c #EFF7FA",
"Gp 	c #D6D9DE",
"Hp 	c #C5C8CF",
"Ip 	c #132036",
"Jp 	c #0A0C14",
"Kp 	c #D7D8DA",
"Lp 	c #E2F4FD",
"Mp 	c #EDF7FB",
"Np 	c #23437C",
"Op 	c #011843",
"Pp 	c #050709",
"Qp 	c #86AABA",
"Rp 	c #F7FAFA",
"Sp 	c #EAF6FB",
"Tp 	c #E7F6FD",
"Up 	c #F3F6F8",
"Vp 	c #A5A7AC",
"Wp 	c #030819",
"Xp 	c #010A1D",
"Yp 	c #010710",
"Zp 	c #05122E",
"`p 	c #08183D",
" q 	c #090A11",
".q 	c #AFB0B2",
"+q 	c #D6F1FD",
"@q 	c #E0F3FD",
"#q 	c #818384",
"$q 	c #0B1C45",
"%q 	c #DDF3FD",
"&q 	c #E9F6FD",
"*q 	c #EBEBEA",
"=q 	c #06112B",
"-q 	c #0C1C45",
";q 	c #060D22",
">q 	c #0C1D47",
",q 	c #06112D",
"'q 	c #575858",
")q 	c #F0F5F8",
"!q 	c #D4F1FD",
"~q 	c #DBF2FC",
"{q 	c #E2F5FD",
"]q 	c #01102D",
"^q 	c #031639",
"/q 	c #F1F7FB",
"(q 	c #DCF3FC",
"_q 	c #DDF4FD",
":q 	c #DEF4FD",
"<q 	c #E4F5FB",
"[q 	c #DDE6F2",
"}q 	c #6985BD",
"|q 	c #3E61AA",
"1q 	c #3D63AF",
"2q 	c #3D66B2",
"3q 	c #3C68B4",
"4q 	c #3B67B4",
"5q 	c #3C6AB5",
"6q 	c #3E6DB9",
"7q 	c #3D6CB9",
"8q 	c #4F82C6",
"9q 	c #7DB2E3",
"0q 	c #253D58",
"aq 	c #020B1E",
"bq 	c #000E26",
"cq 	c #000A1E",
"dq 	c #0E0400",
"eq 	c #130400",
"fq 	c #1A0700",
"gq 	c #722D02",
"hq 	c #AB5408",
"iq 	c #AA560C",
"jq 	c #A7550F",
"kq 	c #A4530E",
"lq 	c #A3520D",
"mq 	c #B15F0F",
"nq 	c #FCCD38",
"oq 	c #FCCC39",
"pq 	c #FDCC38",
"qq 	c #FDCA36",
"rq 	c #FCC935",
"sq 	c #FCC834",
"tq 	c #FCC632",
"uq 	c #FCC631",
"vq 	c #FBCC3E",
"wq 	c #E9C64A",
"xq 	c #D1BA4F",
"yq 	c #070501",
"zq 	c #030300",
"Aq 	c #CDBE55",
"Bq 	c #FBD348",
"Cq 	c #FCBF2C",
"Dq 	c #FCC32F",
"Eq 	c #FCCB38",
"Fq 	c #FCCC3A",
"Gq 	c #FCCB3A",
"Hq 	c #FBCA3A",
"Iq 	c #BD7B1D",
"Jq 	c #994C0C",
"Kq 	c #A2520D",
"Lq 	c #AC5B10",
"Mq 	c #AE5C10",
"Nq 	c #AB5A0F",
"Oq 	c #A2540E",
"Pq 	c #964D0D",
"Qq 	c #914B0D",
"Rq 	c #C9881B",
"Sq 	c #FBBF2A",
"Tq 	c #FBC12F",
"Uq 	c #FDC32E",
"Vq 	c #FDC42E",
"Wq 	c #FDC42F",
"Xq 	c #FDC735",
"Yq 	c #FACC3E",
"Zq 	c #F6D34E",
"`q 	c #171304",
" r 	c #0F0E03",
".r 	c #CDBB4C",
"+r 	c #F8D84C",
"@r 	c #FCC32E",
"#r 	c #FDC530",
"$r 	c #FDCB36",
"%r 	c #FDC12B",
"&r 	c #FDBF28",
"*r 	c #F9CA3D",
"=r 	c #B59731",
"-r 	c #141003",
";r 	c #EDD353",
">r 	c #FCC634",
",r 	c #FCC734",
"'r 	c #FDC935",
")r 	c #FCCB36",
"!r 	c #FCC933",
"~r 	c #FDCA34",
"{r 	c #FDC934",
"]r 	c #FECA35",
"^r 	c #FECD39",
"/r 	c #FAD03F",
"(r 	c #EAC245",
"_r 	c #8F621E",
":r 	c #1D0601",
"<r 	c #030106",
"[r 	c #03192E",
"}r 	c #0B3E5F",
"|r 	c #545454",
"1r 	c #C3C2C2",
"2r 	c #C0C0C0",
"3r 	c #535353",
"4r 	c #555656",
"5r 	c #878B8A",
"6r 	c #141514",
"7r 	c #050F16",
"8r 	c #337CA2",
"9r 	c #040B15",
"0r 	c #00010D",
"ar 	c #DFF4FD",
"br 	c #BCE0F4",
"cr 	c #B4DBF2",
"dr 	c #B5D9F1",
"er 	c #AFD6F0",
"fr 	c #A4D0EF",
"gr 	c #82C4F0",
"hr 	c #8DCAF1",
"ir 	c #C5E7F9",
"jr 	c #D1EEFB",
"kr 	c #D6F0FC",
"lr 	c #192639",
"mr 	c #030B1B",
"nr 	c #1A1F29",
"or 	c #DBF2FD",
"pr 	c #E5F4FB",
"qr 	c #1F3664",
"rr 	c #020E29",
"sr 	c #010106",
"tr 	c #81A5B6",
"ur 	c #E4F4FB",
"vr 	c #DAF2FC",
"wr 	c #D9F2FC",
"xr 	c #D8F2FC",
"yr 	c #D7F2FC",
"zr 	c #F3F6F9",
"Ar 	c #131823",
"Br 	c #04173A",
"Cr 	c #020916",
"Dr 	c #05122D",
"Er 	c #07173C",
"Fr 	c #F1F8FB",
"Gr 	c #CFEFFD",
"Hr 	c #D2EFFD",
"Ir 	c #808182",
"Jr 	c #091C46",
"Kr 	c #3B3C41",
"Lr 	c #D7D7D7",
"Mr 	c #DAF2FD",
"Nr 	c #E9EAE9",
"Or 	c #414245",
"Pr 	c #0D1C47",
"Qr 	c #07132F",
"Rr 	c #0C1D48",
"Sr 	c #06122E",
"Tr 	c #04060D",
"Ur 	c #515152",
"Vr 	c #EEF4F7",
"Wr 	c #D4F0FC",
"Xr 	c #D7F1FD",
"Yr 	c #717273",
"Zr 	c #031638",
"`r 	c #D8D9DA",
" s 	c #ECF6FB",
".s 	c #D9E0EB",
"+s 	c #3B5D9B",
"@s 	c #033181",
"#s 	c #00348D",
"$s 	c #003590",
"%s 	c #003793",
"&s 	c #003997",
"*s 	c #003A98",
"=s 	c #003A9B",
"-s 	c #0544A5",
";s 	c #094EAE",
">s 	c #031C45",
",s 	c #020E25",
"'s 	c #010C20",
")s 	c #010C21",
"!s 	c #010D23",
"~s 	c #571B00",
"{s 	c #7C2700",
"]s 	c #7A2600",
"^s 	c #7D2600",
"/s 	c #7E2600",
"(s 	c #822700",
"_s 	c #953601",
":s 	c #EDA81E",
"<s 	c #E59F21",
"[s 	c #F0B327",
"}s 	c #FCC932",
"|s 	c #FCC833",
"1s 	c #FCC732",
"2s 	c #FCC530",
"3s 	c #FDC733",
"4s 	c #FDC533",
"5s 	c #FAD049",
"6s 	c #ECD459",
"7s 	c #CCBD4E",
"8s 	c #FBCF3F",
"9s 	c #FBBA25",
"0s 	c #FCBF2B",
"as 	c #FDCB39",
"bs 	c #FCCB3C",
"cs 	c #FBCD41",
"ds 	c #AC6116",
"es 	c #7B2000",
"fs 	c #842600",
"gs 	c #8C2C00",
"hs 	c #872A00",
"is 	c #7E2400",
"js 	c #782200",
"ks 	c #BA7416",
"ls 	c #FAC12F",
"ms 	c #FBBD2B",
"ns 	c #FBBF2C",
"os 	c #FDC52F",
"ps 	c #FEC42F",
"qs 	c #FDC634",
"rs 	c #F6D24B",
"ss 	c #161203",
"ts 	c #CEBB4A",
"us 	c #F8D548",
"vs 	c #FCBD28",
"ws 	c #FDBE29",
"xs 	c #FDC630",
"ys 	c #FDBE27",
"zs 	c #FCBC26",
"As 	c #F9C83B",
"Bs 	c #B4962E",
"Cs 	c #141002",
"Ds 	c #EDD14F",
"Es 	c #FBC02C",
"Fs 	c #FCC22D",
"Gs 	c #FCC02C",
"Hs 	c #FCCA35",
"Is 	c #FCC934",
"Js 	c #FCC831",
"Ks 	c #FDC831",
"Ls 	c #FDCA32",
"Ms 	c #F9CB3D",
"Ns 	c #E7B332",
"Os 	c #A14004",
"Ps 	c #5D2102",
"Qs 	c #070101",
"Rs 	c #000009",
"Ss 	c #031D3A",
"Ts 	c #083D62",
"Us 	c #121312",
"Vs 	c #737576",
"Ws 	c #707170",
"Xs 	c #595A5A",
"Ys 	c #ECECED",
"Zs 	c #E3F3FB",
"`s 	c #C7E9F9",
" t 	c #C2DAE6",
".t 	c #D2D3D3",
"+t 	c #D0D0D0",
"@t 	c #515050",
"#t 	c #050F15",
"$t 	c #2E779F",
"%t 	c #030B15",
"&t 	c #3D68AD",
"*t 	c #1B4896",
"=t 	c #1C4DA1",
"-t 	c #1A4EA5",
";t 	c #164DA5",
">t 	c #134DA8",
",t 	c #1651AC",
"'t 	c #285EB5",
")t 	c #3968BA",
"!t 	c #C1DDF2",
"~t 	c #D7F0FD",
"{t 	c #D4F0FD",
"]t 	c #D3EFFC",
"^t 	c #D5EFFB",
"/t 	c #E2F4FB",
"(t 	c #F4F7F9",
"_t 	c #323946",
":t 	c #254863",
"<t 	c #A3C4D6",
"[t 	c #ECF5F8",
"}t 	c #D8F2FD",
"|t 	c #D7F0FC",
"1t 	c #DCF3FB",
"2t 	c #C7D0DC",
"3t 	c #C4C4C6",
"4t 	c #C9E2ED",
"5t 	c #DFEAEE",
"6t 	c #A5A9AC",
"7t 	c #15181D",
"8t 	c #02112D",
"9t 	c #010C22",
"0t 	c #031029",
"at 	c #051539",
"bt 	c #090A0F",
"ct 	c #EFF8FB",
"dt 	c #D3F0FD",
"et 	c #D4EFFD",
"ft 	c #E5F6FC",
"gt 	c #D0EDFC",
"ht 	c #C4E9FC",
"it 	c #C4EAFC",
"jt 	c #F0F2F2",
"kt 	c #7F8081",
"lt 	c #040E26",
"mt 	c #0B1D47",
"nt 	c #07132D",
"ot 	c #020A1A",
"pt 	c #040E2A",
"qt 	c #3A3B3F",
"rt 	c #D8D7D7",
"st 	c #E6F5FB",
"tt 	c #D9F1FD",
"ut 	c #C3EAFC",
"vt 	c #BFE9FC",
"wt 	c #D5F0FD",
"xt 	c #E8E9EA",
"yt 	c #404145",
"zt 	c #0B1D49",
"At 	c #050F25",
"Bt 	c #0A1940",
"Ct 	c #545555",
"Dt 	c #EFF5F8",
"Et 	c #D2EFFB",
"Ft 	c #EBF7FD",
"Gt 	c #E0F5FD",
"Ht 	c #D1EFFD",
"It 	c #C4EAFD",
"Jt 	c #EDF4F7",
"Kt 	c #727576",
"Lt 	c #000918",
"Mt 	c #D9DADC",
"Nt 	c #EDF6FA",
"Ot 	c #CBECFC",
"Pt 	c #D1EFFC",
"Qt 	c #CDEDFC",
"Rt 	c #DADBDE",
"St 	c #3B414C",
"Tt 	c #030B18",
"Ut 	c #000B1F",
"Vt 	c #00236B",
"Wt 	c #002E88",
"Xt 	c #000F31",
"Yt 	c #010E26",
"Zt 	c #010E25",
"`t 	c #000D24",
" u 	c #0D0400",
".u 	c #130500",
"+u 	c #130600",
"@u 	c #150600",
"#u 	c #170700",
"$u 	c #1A0801",
"%u 	c #441400",
"&u 	c #762C02",
"*u 	c #712901",
"=u 	c #944607",
"-u 	c #DB8D17",
";u 	c #FAC02B",
">u 	c #FDCA35",
",u 	c #FCC733",
"'u 	c #FDC32D",
")u 	c #FCB924",
"!u 	c #F9C738",
"~u 	c #E9CE4C",
"{u 	c #CFBD4E",
"]u 	c #FBC93C",
"^u 	c #FBAF1B",
"/u 	c #FCB721",
"(u 	c #FDC734",
"_u 	c #F9CB3F",
":u 	c #8B5416",
"<u 	c #4C0F00",
"[u 	c #6E1E00",
"}u 	c #892B00",
"|u 	c #7A2300",
"1u 	c #742100",
"2u 	c #B87B1D",
"3u 	c #FACA3C",
"4u 	c #FCBB2A",
"5u 	c #FCB927",
"6u 	c #FDC02E",
"7u 	c #FDC431",
"8u 	c #FDC02D",
"9u 	c #FAC534",
"0u 	c #F5CA40",
"au 	c #171203",
"bu 	c #100E03",
"cu 	c #D0BB4B",
"du 	c #F8D247",
"eu 	c #FCB31D",
"fu 	c #FCB621",
"gu 	c #FCBF28",
"hu 	c #FCBE28",
"iu 	c #FCB923",
"ju 	c #FCB61E",
"ku 	c #F9C739",
"lu 	c #B59830",
"mu 	c #EDD352",
"nu 	c #F9C335",
"ou 	c #FBB420",
"pu 	c #FBB923",
"qu 	c #FCC330",
"ru 	c #FCBE29",
"su 	c #FDBD28",
"tu 	c #FDC22B",
"uu 	c #FDC42D",
"vu 	c #FDC52E",
"wu 	c #FEC730",
"xu 	c #FDC832",
"yu 	c #FDC932",
"zu 	c #FDCA33",
"Au 	c #D78E17",
"Bu 	c #A05510",
"Cu 	c #793009",
"Du 	c #6D1800",
"Eu 	c #150602",
"Fu 	c #010109",
"Gu 	c #00010F",
"Hu 	c #114B8B",
"Iu 	c #0C3D6F",
"Ju 	c #010D17",
"Ku 	c #545353",
"Lu 	c #D1D1D1",
"Mu 	c #D0D1D2",
"Nu 	c #C6D9E3",
"Ou 	c #CDECFB",
"Pu 	c #D9F0FB",
"Qu 	c #585959",
"Ru 	c #E7EAEC",
"Su 	c #D3EDFA",
"Tu 	c #AFDFF8",
"Uu 	c #C3E8FA",
"Vu 	c #5C5E5E",
"Wu 	c #040E15",
"Xu 	c #2C76A0",
"Yu 	c #030A16",
"Zu 	c #DDF3FB",
"`u 	c #DEF3FB",
" v 	c #234992",
".v 	c #003598",
"+v 	c #00379A",
"@v 	c #003595",
"#v 	c #003392",
"$v 	c #003394",
"%v 	c #003294",
"&v 	c #12459F",
"*v 	c #ADCDEA",
"=v 	c #D3F0FC",
"-v 	c #D2EFFC",
";v 	c #3A4355",
">v 	c #2F5972",
",v 	c #C2E6F9",
"'v 	c #E9F7FD",
")v 	c #D6F0FD",
"!v 	c #D5F1FD",
"~v 	c #F6FBFD",
"{v 	c #FAFDFD",
"]v 	c #FBFDFD",
"^v 	c #F4F9FC",
"/v 	c #D0EFFC",
"(v 	c #DAF1FC",
"_v 	c #DDF1FB",
":v 	c #BFC4C7",
"<v 	c #17191C",
"[v 	c #02112E",
"}v 	c #02122F",
"|v 	c #02102B",
"1v 	c #031536",
"2v 	c #09090C",
"3v 	c #CFEEFC",
"4v 	c #C1EAFC",
"5v 	c #B4E6FD",
"6v 	c #B7E6FD",
"7v 	c #EDF1F3",
"8v 	c #7D8080",
"9v 	c #040F26",
"0v 	c #0C1E48",
"av 	c #071942",
"bv 	c #030F2B",
"cv 	c #3A3A3E",
"dv 	c #D8D5D5",
"ev 	c #DFF2FA",
"fv 	c #D5F1FC",
"gv 	c #D9F2FD",
"hv 	c #B8E6FC",
"iv 	c #B1E4FC",
"jv 	c #CEEDFC",
"kv 	c #E6E9EA",
"lv 	c #414247",
"mv 	c #0A1B47",
"nv 	c #050E24",
"ov 	c #EFF5F9",
"pv 	c #CEEDFB",
"qv 	c #CDEEFC",
"rv 	c #E6F7FD",
"sv 	c #CBEDFD",
"tv 	c #BDE9FD",
"uv 	c #E9F2F6",
"vv 	c #6F7375",
"wv 	c #D6D8D9",
"xv 	c #EFF7FB",
"yv 	c #C4EBFC",
"zv 	c #C1EAFD",
"Av 	c #D8DADB",
"Bv 	c #3B3B3C",
"Cv 	c #001241",
"Dv 	c #002167",
"Ev 	c #002C84",
"Fv 	c #000F32",
"Gv 	c #0A090B",
"Hv 	c #2D0B00",
"Iv 	c #5E1900",
"Jv 	c #601A00",
"Kv 	c #792500",
"Lv 	c #943600",
"Mv 	c #D48D1C",
"Nv 	c #FBC934",
"Ov 	c #FCC029",
"Pv 	c #FCC12B",
"Qv 	c #FCBD27",
"Rv 	c #FCB31B",
"Sv 	c #FAC32E",
"Tv 	c #E5C741",
"Uv 	c #070600",
"Vv 	c #D1BD4F",
"Wv 	c #FCC840",
"Xv 	c #FCAD1C",
"Yv 	c #FCB31E",
"Zv 	c #FCC531",
"`v 	c #FCC430",
" w 	c #FCC22E",
".w 	c #F8CA3B",
"+w 	c #6A4B14",
"@w 	c #1F0600",
"#w 	c #300C00",
"$w 	c #421300",
"%w 	c #471500",
"&w 	c #4A1600",
"*w 	c #451500",
"=w 	c #360F00",
"-w 	c #300F00",
";w 	c #96711D",
">w 	c #F9CA3B",
",w 	c #FCB625",
"'w 	c #FDB623",
")w 	c #FCC12E",
"!w 	c #FBBF2B",
"~w 	c #FCBA24",
"{w 	c #FABA28",
"]w 	c #F5C73B",
"^w 	c #191203",
"/w 	c #CFBA4A",
"(w 	c #F8D044",
"_w 	c #FBAF19",
":w 	c #FCB21D",
"<w 	c #FBBB26",
"[w 	c #FBB720",
"}w 	c #FCB51C",
"|w 	c #F9C638",
"1w 	c #B4972F",
"2w 	c #131002",
"3w 	c #EED454",
"4w 	c #F9C236",
"5w 	c #FBB21F",
"6w 	c #FBB620",
"7w 	c #FCB21B",
"8w 	c #FCB51F",
"9w 	c #FBBB24",
"0w 	c #F7C12C",
"aw 	c #F6C431",
"bw 	c #F6C632",
"cw 	c #F6C833",
"dw 	c #F7C834",
"ew 	c #F8C935",
"fw 	c #F8C834",
"gw 	c #F8C833",
"hw 	c #F8C832",
"iw 	c #F8C835",
"jw 	c #F7C939",
"kw 	c #E29D22",
"lw 	c #9F3200",
"mw 	c #7E2200",
"nw 	c #591300",
"ow 	c #0E0100",
"pw 	c #020D1F",
"qw 	c #14599F",
"rw 	c #104981",
"sw 	c #020608",
"tw 	c #656666",
"uw 	c #C9E9FA",
"vw 	c #BCE5FB",
"ww 	c #CCEBFB",
"xw 	c #6C6E6E",
"yw 	c #485256",
"zw 	c #B7DBEC",
"Aw 	c #A5DBF8",
"Bw 	c #94D5F9",
"Cw 	c #95D7FB",
"Dw 	c #9DDBFA",
"Ew 	c #C8E9F7",
"Fw 	c #525B60",
"Gw 	c #2C7D98",
"Hw 	c #337A94",
"Iw 	c #0B2028",
"Jw 	c #040F16",
"Kw 	c #2C77A1",
"Lw 	c #030B17",
"Mw 	c #EAF6FA",
"Nw 	c #E5F5FA",
"Ow 	c #273656",
"Pw 	c #001036",
"Qw 	c #000F29",
"Rw 	c #001443",
"Sw 	c #132957",
"Tw 	c #A6BBD1",
"Uw 	c #E2F2FA",
"Vw 	c #D6F0FB",
"Ww 	c #CAEDFC",
"Xw 	c #C0E9FC",
"Yw 	c #F7FBFD",
"Zw 	c #334358",
"`w 	c #05070C",
" x 	c #646E75",
".x 	c #E9F2F7",
"+x 	c #CEEEFC",
"@x 	c #C2E9FC",
"#x 	c #C3E9FC",
"$x 	c #C6EAFC",
"%x 	c #CCECFD",
"&x 	c #CDECFD",
"*x 	c #CAEBFC",
"=x 	c #C9ECFC",
"-x 	c #C8EBFC",
";x 	c #CAECFC",
">x 	c #C9EBFC",
",x 	c #C7EBFC",
"'x 	c #C5EBFC",
")x 	c #D4EEFA",
"!x 	c #CDCED1",
"~x 	c #1B1D25",
"{x 	c #000E2A",
"]x 	c #001334",
"^x 	c #000C1F",
"/x 	c #041538",
"(x 	c #0A0B0F",
"_x 	c #AFB0B3",
":x 	c #81CEFC",
"<x 	c #82CEFC",
"[x 	c #C6EBFC",
"}x 	c #D6F2FC",
"|x 	c #A7DFFC",
"1x 	c #96D8FD",
"2x 	c #9FDCFC",
"3x 	c #ECF1F3",
"4x 	c #7C8083",
"5x 	c #0B1D48",
"6x 	c #06132E",
"7x 	c #061840",
"8x 	c #D5D6D6",
"9x 	c #A4DBFA",
"0x 	c #8BD1FC",
"ax 	c #9ED8FC",
"bx 	c #D1EEFC",
"cx 	c #9ADAFC",
"dx 	c #91D6FC",
"ex 	c #B6E4FC",
"fx 	c #D8E7EB",
"gx 	c #3E4247",
"hx 	c #01030D",
"ix 	c #051433",
"jx 	c #081A45",
"kx 	c #03112D",
"lx 	c #061942",
"mx 	c #04060E",
"nx 	c #555758",
"ox 	c #DFEEF8",
"px 	c #95D4FA",
"qx 	c #8DD1FC",
"rx 	c #E4F6FD",
"sx 	c #B6E5FD",
"tx 	c #ABE0FC",
"ux 	c #E2F1F7",
"vx 	c #6A7174",
"wx 	c #01102B",
"xx 	c #D2D7D9",
"yx 	c #DDEFFB",
"zx 	c #96D6FC",
"Ax 	c #B7E4FC",
"Bx 	c #A6DEFC",
"Cx 	c #A2DDFD",
"Dx 	c #B7E5FC",
"Ex 	c #D2D8DB",
"Fx 	c #3A3B3D",
"Gx 	c #000416",
"Hx 	c #050503",
"Ix 	c #A09D83",
"Jx 	c #46443B",
"Kx 	c #0A0200",
"Lx 	c #170500",
"Mx 	c #340D00",
"Nx 	c #501801",
"Ox 	c #B0892B",
"Px 	c #FACC3D",
"Qx 	c #FBA915",
"Rx 	c #FBA70F",
"Sx 	c #FBB71E",
"Tx 	c #FCBD24",
"Ux 	c #FCB119",
"Vx 	c #FCA20E",
"Wx 	c #F9BA2A",
"Xx 	c #ECC941",
"Yx 	c #060500",
"Zx 	c #D0B740",
"`x 	c #FBB92B",
" y 	c #F99609",
".y 	c #F9A210",
"+y 	c #FCBF29",
"@y 	c #FCB822",
"#y 	c #FBBA24",
"$y 	c #F8C839",
"%y 	c #5A4B14",
"&y 	c #806C1D",
"*y 	c #F9C233",
"=y 	c #FB9E10",
"-y 	c #FB9F0E",
";y 	c #FBB622",
">y 	c #FBC22E",
",y 	c #FBB31F",
"'y 	c #FCAC18",
")y 	c #FAB322",
"!y 	c #F7C638",
"~y 	c #1A1402",
"{y 	c #0F0D02",
"]y 	c #CEB644",
"^y 	c #F7CD40",
"/y 	c #FBA813",
"(y 	c #FCAB16",
"_y 	c #FDBC27",
":y 	c #FCBA27",
"<y 	c #FCB01A",
"[y 	c #FCAA12",
"}y 	c #F9BE2C",
"|y 	c #B4952B",
"1y 	c #130F02",
"2y 	c #EDCF49",
"3y 	c #F9BA29",
"4y 	c #FBA814",
"5y 	c #FBAE18",
"6y 	c #FCB51E",
"7y 	c #FCA913",
"8y 	c #FCAF1A",
"9y 	c #A36213",
"0y 	c #86440D",
"ay 	c #8D450C",
"by 	c #94490C",
"cy 	c #994B0C",
"dy 	c #A34F0D",
"ey 	c #A8520D",
"fy 	c #AC560D",
"gy 	c #AB560D",
"hy 	c #A7530C",
"iy 	c #A4510C",
"jy 	c #953B06",
"ky 	c #7F2100",
"ly 	c #531500",
"my 	c #220803",
"ny 	c #0D5EA2",
"oy 	c #09335E",
"py 	c #031220",
"qy 	c #1D526A",
"ry 	c #3487AA",
"sy 	c #5F6365",
"ty 	c #E1F1F9",
"uy 	c #ABDFFB",
"vy 	c #99D7F9",
"wy 	c #9BD9FA",
"xy 	c #A0DBFA",
"yy 	c #AFDEF8",
"zy 	c #485D68",
"Ay 	c #3E4D53",
"By 	c #A5D6EB",
"Cy 	c #9EDBF8",
"Dy 	c #95D7FA",
"Ey 	c #8ED5FB",
"Fy 	c #7DD1FA",
"Gy 	c #9CDFF6",
"Hy 	c #44595F",
"Iy 	c #37A0CD",
"Jy 	c #3C99C2",
"Ky 	c #0D2832",
"Ly 	c #2D79A3",
"My 	c #030C1A",
"Ny 	c #141516",
"Oy 	c #B2E4FC",
"Py 	c #E8F6FB",
"Qy 	c #E9F7FB",
"Ry 	c #272E3A",
"Sy 	c #13203B",
"Ty 	c #AABAC9",
"Uy 	c #E9F4FB",
"Vy 	c #D3F0FB",
"Wy 	c #D1F0FD",
"Xy 	c #D3F1FD",
"Yy 	c #C7ECFC",
"Zy 	c #D0EEFB",
"`y 	c #EFF7FC",
" z 	c #2A3E52",
".z 	c #070914",
"+z 	c #797C81",
"@z 	c #C6EBFD",
"#z 	c #BCE6FC",
"$z 	c #BBE6FC",
"%z 	c #BAE6FC",
"&z 	c #B9E6FC",
"*z 	c #BBE6FD",
"=z 	c #BDE7FD",
"-z 	c #C0E8FC",
";z 	c #C5E9FC",
">z 	c #BDE8FC",
",z 	c #D2F1FC",
"'z 	c #BDE9FC",
")z 	c #B8E7FD",
"!z 	c #D6EFFA",
"~z 	c #D2D4D5",
"{z 	c #1E2029",
"]z 	c #00102C",
"^z 	c #00102A",
"/z 	c #041639",
"(z 	c #ADAFB2",
"_z 	c #6CC4FD",
":z 	c #6DC4FD",
"<z 	c #C1E9FD",
"[z 	c #D2F1FD",
"}z 	c #93D8FD",
"|z 	c #7CCDFD",
"1z 	c #8DD5FC",
"2z 	c #7D8185",
"3z 	c #0B1D46",
"4z 	c #06122C",
"5z 	c #05183D",
"6z 	c #D5D7D7",
"7z 	c #7FC9FA",
"8z 	c #5DB8FC",
"9z 	c #82C9FC",
"0z 	c #E5F7FE",
"az 	c #8FD4FC",
"bz 	c #7BCDFC",
"cz 	c #CAE2E9",
"dz 	c #393F43",
"ez 	c #515556",
"fz 	c #D2E8F6",
"gz 	c #72C5FB",
"hz 	c #62BEFD",
"iz 	c #D8F3FD",
"jz 	c #CDEEFD",
"kz 	c #A9E0FD",
"lz 	c #E7F3F8",
"mz 	c #6D7477",
"nz 	c #010D24",
"oz 	c #4C4D51",
"pz 	c #0E1019",
"qz 	c #010515",
"rz 	c #060912",
"sz 	c #D3D9DC",
"tz 	c #CFEAFA",
"uz 	c #73C6FC",
"vz 	c #9CD8FD",
"wz 	c #CAEDFD",
"xz 	c #9CDBFD",
"yz 	c #9DDBFC",
"zz 	c #B9E5FC",
"Az 	c #D4DADC",
"Bz 	c #3B3D3F",
"Cz 	c #03040B",
"Dz 	c #2E3139",
"Ez 	c #7D8088",
"Fz 	c #474B59",
"Gz 	c #070701",
"Hz 	c #E9CA62",
"Iz 	c #AB995C",
"Jz 	c #7A7451",
"Kz 	c #77704D",
"Lz 	c #777150",
"Mz 	c #797354",
"Nz 	c #7C765A",
"Oz 	c #7A7757",
"Pz 	c #14130B",
"Qz 	c #120300",
"Rz 	c #360E01",
"Sz 	c #A28527",
"Tz 	c #F9CA35",
"Uz 	c #FB9F08",
"Vz 	c #FCB61F",
"Wz 	c #FCAE1A",
"Xz 	c #FC9A0A",
"Yz 	c #F9B424",
"Zz 	c #EBC53A",
"`z 	c #070500",
" A 	c #CEB439",
".A 	c #FAB424",
"+A 	c #F98E03",
"@A 	c #F99E0E",
"#A 	c #FCB31C",
"$A 	c #FBB41C",
"%A 	c #554612",
"&A 	c #F9C030",
"*A 	c #FB9607",
"=A 	c #FB9403",
"-A 	c #FBC333",
";A 	c #FCAE1B",
">A 	c #FCA612",
",A 	c #FAB01D",
"'A 	c #F6C231",
")A 	c #0F0C02",
"!A 	c #F8CE41",
"~A 	c #FDA711",
"{A 	c #FCA912",
"]A 	c #FDB923",
"^A 	c #FCB722",
"/A 	c #FCAA14",
"(A 	c #FCA40E",
"_A 	c #F9BD2C",
":A 	c #B5952B",
"<A 	c #ECCB44",
"[A 	c #F9B926",
"}A 	c #FBA612",
"|A 	c #FCAB14",
"1A 	c #FBB018",
"2A 	c #FCA40F",
"3A 	c #FBAA13",
"4A 	c #F9C027",
"5A 	c #833C08",
"6A 	c #651800",
"7A 	c #761E00",
"8A 	c #822400",
"9A 	c #872500",
"0A 	c #8E2600",
"aA 	c #902900",
"bA 	c #922C00",
"cA 	c #942D00",
"dA 	c #952E00",
"eA 	c #942E00",
"fA 	c #8A2700",
"gA 	c #631800",
"hA 	c #100300",
"iA 	c #030006",
"jA 	c #00000B",
"kA 	c #042951",
"lA 	c #1483D8",
"mA 	c #082B4B",
"nA 	c #030B0F",
"oA 	c #297294",
"pA 	c #4ABBED",
"qA 	c #020F16",
"rA 	c #4F5E63",
"sA 	c #B8E6F7",
"tA 	c #93D9FA",
"uA 	c #97D8FB",
"vA 	c #95D7F9",
"wA 	c #94D4F6",
"xA 	c #365463",
"yA 	c #05090A",
"zA 	c #101B20",
"AA 	c #193045",
"BA 	c #2C6CB4",
"CA 	c #256AB9",
"DA 	c #0F2638",
"EA 	c #10222D",
"FA 	c #070E12",
"GA 	c #040B17",
"HA 	c #5C8CB1",
"IA 	c #A1AFB4",
"JA 	c #1E2526",
"KA 	c #030C12",
"LA 	c #030A0F",
"MA 	c #051018",
"NA 	c #2E7BA4",
"OA 	c #131415",
"PA 	c #F1F5F7",
"QA 	c #98D2F9",
"RA 	c #6EC2FB",
"SA 	c #A5DCFC",
"TA 	c #AEE0FC",
"UA 	c #B6E3FB",
"VA 	c #D3EFF9",
"WA 	c #20262D",
"XA 	c #12171F",
"YA 	c #A2B9C7",
"ZA 	c #C7E4F9",
"`A 	c #6BBEFB",
" B 	c #74C4FC",
".B 	c #B5E3FC",
"+B 	c #7CCAFB",
"@B 	c #61BBFA",
"#B 	c #A0D7FA",
"$B 	c #29415B",
"%B 	c #060910",
"&B 	c #7A7E86",
"*B 	c #EDF5F8",
"=B 	c #BDE6FA",
"-B 	c #BAE7FC",
";B 	c #B5E5FC",
">B 	c #B5E5FD",
",B 	c #B3E5FD",
"'B 	c #B6E5FC",
")B 	c #B7E7FC",
"!B 	c #B7E6FC",
"~B 	c #B1E3FC",
"{B 	c #AFE3FC",
"]B 	c #BCE8FC",
"^B 	c #A7E1FC",
"/B 	c #A3DDFC",
"(B 	c #86D1FB",
"_B 	c #AFE0F8",
":B 	c #CFD8DC",
"<B 	c #1C1E23",
"[B 	c #000E2D",
"}B 	c #01173C",
"|B 	c #00050B",
"1B 	c #021231",
"2B 	c #AAAEB3",
"3B 	c #CCEBFA",
"4B 	c #53B3FB",
"5B 	c #5BB7FB",
"6B 	c #ABDFFC",
"7B 	c #BAE7FD",
"8B 	c #78C6FB",
"9B 	c #5CB7FB",
"0B 	c #64BDFB",
"aB 	c #C3E6F3",
"bB 	c #677B84",
"cB 	c #091D46",
"dB 	c #010A1A",
"eB 	c #04173D",
"fB 	c #010E2B",
"gB 	c #373C45",
"hB 	c #C8D5D8",
"iB 	c #6DBDFA",
"jB 	c #4BABF9",
"kB 	c #6ABCFA",
"lB 	c #AFDFFC",
"mB 	c #B5E3FD",
"nB 	c #63BCFA",
"oB 	c #55B5FA",
"pB 	c #87CFFB",
"qB 	c #BFDEEA",
"rB 	c #384047",
"sB 	c #061944",
"tB 	c #010F27",
"uB 	c #03163B",
"vB 	c #020C24",
"wB 	c #4E5456",
"xB 	c #C3E3F7",
"yB 	c #64BBFB",
"zB 	c #57B6FC",
"AB 	c #C0E9FD",
"BB 	c #ACDFFD",
"CB 	c #76C5FC",
"DB 	c #6ABFFC",
"EB 	c #C1E7F8",
"FB 	c #5D6E79",
"GB 	c #1D232B",
"HB 	c #87949E",
"IB 	c #9FACB6",
"JB 	c #DFE0E3",
"KB 	c #D5D6D8",
"LB 	c #282A31",
"MB 	c #050812",
"NB 	c #C9D5D8",
"OB 	c #BAE1FA",
"PB 	c #54B4FB",
"QB 	c #81CAFC",
"RB 	c #C9EBFD",
"SB 	c #B2E1FC",
"TB 	c #75C5FB",
"UB 	c #73C3FB",
"VB 	c #96D2FA",
"WB 	c #C3D5DD",
"XB 	c #353C42",
"YB 	c #3D3F44",
"ZB 	c #8A8B8D",
"`B 	c #AFB3B6",
" C 	c #E4EFF4",
".C 	c #7E8389",
"+C 	c #0F0B01",
"@C 	c #F3B725",
"#C 	c #F9DB74",
"$C 	c #FAF19F",
"%C 	c #FAF196",
"&C 	c #FAF19C",
"*C 	c #F6E17B",
"=C 	c #CFAE37",
"-C 	c #211A07",
";C 	c #090501",
">C 	c #927D21",
",C 	c #F7BF29",
"'C 	c #F98D02",
")C 	c #FA9205",
"!C 	c #FDB51C",
"~C 	c #FB9C0D",
"{C 	c #FA8E03",
"]C 	c #F8AC1B",
"^C 	c #EAC234",
"/C 	c #050300",
"(C 	c #CFB135",
"_C 	c #F9AE1F",
":C 	c #F88B02",
"<C 	c #FA980A",
"[C 	c #FCB81E",
"}C 	c #FAA713",
"|C 	c #FA9306",
"1C 	c #FA990D",
"2C 	c #F8BD2F",
"3C 	c #574611",
"4C 	c #7C6719",
"5C 	c #F7B92A",
"6C 	c #F88B05",
"7C 	c #F98D05",
"8C 	c #FBAE1E",
"9C 	c #FBBE2D",
"0C 	c #FB980D",
"aC 	c #FA8D03",
"bC 	c #F8A012",
"cC 	c #F5BE2B",
"dC 	c #191202",
"eC 	c #D1B73E",
"fC 	c #F8C93A",
"gC 	c #FC9C07",
"hC 	c #FB9E09",
"iC 	c #FCB51D",
"jC 	c #FCA30F",
"kC 	c #FC9C08",
"lC 	c #F9BA28",
"mC 	c #B39229",
"nC 	c #120E01",
"oC 	c #ECC53C",
"pC 	c #F9B321",
"qC 	c #FBA10D",
"rC 	c #FCA610",
"sC 	c #FCB019",
"tC 	c #FBAB15",
"uC 	c #FBA10B",
"vC 	c #FAA914",
"wC 	c #F8C533",
"xC 	c #5C3309",
"yC 	c #6A1900",
"zC 	c #7B2100",
"AC 	c #7F2200",
"BC 	c #822200",
"CC 	c #772100",
"DC 	c #6E1F00",
"EC 	c #6D1F00",
"FC 	c #7A2400",
"GC 	c #802600",
"HC 	c #531900",
"IC 	c #150400",
"JC 	c #093E74",
"KC 	c #042950",
"LC 	c #021932",
"MC 	c #02090F",
"NC 	c #05111B",
"OC 	c #111A1B",
"PC 	c #799DA3",
"QC 	c #436276",
"RC 	c #142731",
"SC 	c #1A3246",
"TC 	c #2872C2",
"UC 	c #2A74C2",
"VC 	c #163450",
"WC 	c #0F1D27",
"XC 	c #060C10",
"YC 	c #013080",
"ZC 	c #013289",
"`C 	c #5383A6",
" D 	c #A0BBC2",
".D 	c #1E2729",
"+D 	c #2F7CA5",
"@D 	c #030C1B",
"#D 	c #151616",
"$D 	c #F5F7F8",
"%D 	c #94D0FA",
"&D 	c #9CD7FC",
"*D 	c #A6DEFD",
"=D 	c #8BD2FD",
"-D 	c #9FDAFB",
";D 	c #CCEEF9",
">D 	c #202931",
",D 	c #111315",
"'D 	c #9DB7C4",
")D 	c #C4E3F9",
"!D 	c #67BBFB",
"~D 	c #6EC0FC",
"{D 	c #B6E2FC",
"]D 	c #6CBFFB",
"^D 	c #4DB0FB",
"/D 	c #94D1FA",
"(D 	c #EFF8FD",
"_D 	c #27425B",
":D 	c #7F8691",
"<D 	c #C1E7FB",
"[D 	c #B5E3FB",
"}D 	c #A8DFFC",
"|D 	c #A6DFFC",
"1D 	c #ACE2FD",
"2D 	c #ADE3FD",
"3D 	c #B4E5FD",
"4D 	c #B2E3FC",
"5D 	c #B3E4FC",
"6D 	c #AFE4FC",
"7D 	c #ADE3FC",
"8D 	c #ABE2FD",
"9D 	c #A4E0FC",
"0D 	c #B9E7FC",
"aD 	c #C3EAFD",
"bD 	c #7ECAFB",
"cD 	c #5BB9FB",
"dD 	c #90D2FC",
"eD 	c #9DD8FB",
"fD 	c #B0DEF9",
"gD 	c #D2DCE1",
"hD 	c #23262D",
"iD 	c #060B19",
"jD 	c #00102D",
"kD 	c #080A0F",
"lD 	c #A3ADB2",
"mD 	c #BCE7FB",
"nD 	c #49ACFB",
"oD 	c #57B3FB",
"pD 	c #A6DCFC",
"qD 	c #74C3FB",
"rD 	c #57B2FB",
"sD 	c #59B6FB",
"tD 	c #B1DFF2",
"uD 	c #5D7680",
"vD 	c #091C45",
"wD 	c #03183E",
"xD 	c #32393F",
"yD 	c #B7CFD7",
"zD 	c #5FB7FA",
"AD 	c #43A7FA",
"BD 	c #61B9FB",
"CD 	c #9DD9FD",
"DD 	c #A7DDFD",
"ED 	c #64BAFB",
"FD 	c #5AB6FB",
"GD 	c #8DCFFC",
"HD 	c #C0DEEA",
"ID 	c #364045",
"JD 	c #041331",
"KD 	c #000E23",
"LD 	c #021435",
"MD 	c #4E5557",
"ND 	c #C8E5F8",
"OD 	c #6CBDFB",
"PD 	c #60B9FB",
"QD 	c #BAE5FC",
"RD 	c #A4DAFC",
"SD 	c #65BCFC",
"TD 	c #54B3FC",
"UD 	c #A9DEF7",
"VD 	c #546C77",
"WD 	c #090C12",
"XD 	c #070A14",
"YD 	c #070B16",
"ZD 	c #080C17",
"`D 	c #090D19",
" E 	c #0A0E1C",
".E 	c #0B0F1E",
"+E 	c #363B45",
"@E 	c #CFD3D6",
"#E 	c #EFF6FA",
"$E 	c #B5E1F9",
"%E 	c #8CBDD8",
"&E 	c #18222A",
"*E 	c #C2D1D6",
"=E 	c #B7E1FB",
"-E 	c #5DB6FB",
";E 	c #87CDFC",
">E 	c #C5E9FD",
",E 	c #AADCFC",
"'E 	c #69BDFB",
")E 	c #5FB8FB",
"!E 	c #7CC7FA",
"~E 	c #AFCDDD",
"{E 	c #353D46",
"]E 	c #090C18",
"^E 	c #090C16",
"/E 	c #080C16",
"(E 	c #080C18",
"_E 	c #090D1B",
":E 	c #0A1021",
"<E 	c #0B1121",
"[E 	c #757983",
"}E 	c #F4F8FA",
"|E 	c #D3EDFB",
"1E 	c #9FDBFA",
"2E 	c #65818F",
"3E 	c #0D0900",
"4E 	c #F3B11C",
"5E 	c #F9A815",
"6E 	c #F99E0F",
"7E 	c #F79A0C",
"8E 	c #F69609",
"9E 	c #F69709",
"0E 	c #F7A00C",
"aE 	c #CE9A12",
"bE 	c #291E05",
"cE 	c #0E0D04",
"dE 	c #988323",
"eE 	c #F9C12F",
"fE 	c #FB8C04",
"gE 	c #FB8C03",
"hE 	c #FCA20B",
"iE 	c #FCAB0F",
"jE 	c #FA9405",
"kE 	c #F88802",
"lE 	c #F8AA1B",
"mE 	c #E9C335",
"nE 	c #CEAC2E",
"oE 	c #F9AA1A",
"pE 	c #F78902",
"qE 	c #FA9708",
"rE 	c #FCB517",
"sE 	c #FCA30E",
"tE 	c #FB8F04",
"uE 	c #FB960D",
"vE 	c #F8BC2D",
"wE 	c #56470F",
"xE 	c #7D6719",
"yE 	c #F7B829",
"zE 	c #F88904",
"AE 	c #F98903",
"BE 	c #F99106",
"CE 	c #F88601",
"DE 	c #F8A013",
"EE 	c #F6C22C",
"FE 	c #191302",
"GE 	c #100D02",
"HE 	c #D0B33C",
"IE 	c #F8C635",
"JE 	c #FB9503",
"KE 	c #FC9A07",
"LE 	c #FDB720",
"ME 	c #FDB621",
"NE 	c #FDA30E",
"OE 	c #FC9905",
"PE 	c #F8B824",
"QE 	c #B49025",
"RE 	c #130E02",
"SE 	c #060400",
"TE 	c #EAC237",
"UE 	c #F9B21F",
"VE 	c #FB9F0C",
"WE 	c #FCA50F",
"XE 	c #FCB21A",
"YE 	c #FCAD17",
"ZE 	c #FCA00B",
"`E 	c #FAA712",
" F 	c #F6C533",
".F 	c #382D0A",
"+F 	c #040001",
"@F 	c #020001",
"#F 	c #06284B",
"$F 	c #1267B7",
"%F 	c #04182C",
"&F 	c #0F1C1F",
"*F 	c #71ACBA",
"=F 	c #3D667C",
"-F 	c #01050C",
";F 	c #013681",
">F 	c #044CAC",
",F 	c #01142F",
"'F 	c #011438",
")F 	c #0A386A",
"!F 	c #0B427A",
"~F 	c #041B32",
"{F 	c #182A33",
"]F 	c #364D55",
"^F 	c #051119",
"/F 	c #2B7CA6",
"(F 	c #F2F6F8",
"_F 	c #93D0FB",
":F 	c #5CBAFB",
"<F 	c #88CFFC",
"[F 	c #BEE8FD",
"}F 	c #70C2FB",
"|F 	c #8CCEF9",
"1F 	c #CEEEFB",
"2F 	c #212B34",
"3F 	c #141B23",
"4F 	c #AEC5D1",
"5F 	c #C1E2FA",
"6F 	c #5CB8FC",
"7F 	c #90D3FC",
"8F 	c #A9DFFC",
"9F 	c #66BDFB",
"0F 	c #52B2FB",
"aF 	c #91D0FB",
"bF 	c #223D52",
"cF 	c #697686",
"dF 	c #B3C4CF",
"eF 	c #D8F0FB",
"fF 	c #96D4FA",
"gF 	c #86CDFA",
"hF 	c #70C3FB",
"iF 	c #73C6FB",
"jF 	c #80CDFC",
"kF 	c #87D0FC",
"lF 	c #AEE3FD",
"mF 	c #9BD8FB",
"nF 	c #84CBFA",
"oF 	c #79C7FA",
"pF 	c #77C7FA",
"qF 	c #76C7F9",
"rF 	c #6BBAF4",
"sF 	c #6FBAF3",
"tF 	c #A6DDFA",
"uF 	c #8BD0FC",
"vF 	c #60B8FB",
"wF 	c #51B0FB",
"xF 	c #88CDFC",
"yF 	c #9FDBFC",
"zF 	c #9ED9FB",
"AF 	c #A9D7F0",
"BF 	c #8C979E",
"CF 	c #586167",
"DF 	c #000F2C",
"EF 	c #001130",
"FF 	c #080A10",
"GF 	c #9CACB2",
"HF 	c #B1E3FA",
"IF 	c #4CACFB",
"JF 	c #54B0FA",
"KF 	c #7EC8FB",
"LF 	c #84CCFB",
"MF 	c #52AFFA",
"NF 	c #59B4FA",
"OF 	c #A6DBF3",
"PF 	c #587682",
"QF 	c #061940",
"RF 	c #02173E",
"SF 	c #2F383C",
"TF 	c #B0CED6",
"UF 	c #64B9FA",
"VF 	c #4FADFA",
"WF 	c #60B5FA",
"XF 	c #7CC5FB",
"YF 	c #7DC6FB",
"ZF 	c #5BB5FA",
"`F 	c #54B2FB",
" G 	c #7DC9FB",
".G 	c #A8D5E9",
"+G 	c #2F3D43",
"@G 	c #051941",
"#G 	c #021638",
"$G 	c #030510",
"%G 	c #4C575B",
"&G 	c #B8E0F7",
"*G 	c #62B9FA",
"=G 	c #58B3FA",
"-G 	c #71C0FA",
";G 	c #6EBFFB",
">G 	c #5DB8FB",
",G 	c #84CCF9",
"'G 	c #8CAEC3",
")G 	c #919396",
"!G 	c #919294",
"~G 	c #929294",
"{G 	c #929395",
"]G 	c #949698",
"^G 	c #96989C",
"/G 	c #97999E",
"(G 	c #97999D",
"_G 	c #989A9F",
":G 	c #A0AAB1",
"<G 	c #B5D8EC",
"[G 	c #B4E1FB",
"}G 	c #8DD2FA",
"|G 	c #6EB2D7",
"1G 	c #12202B",
"2G 	c #030508",
"3G 	c #C0D2D8",
"4G 	c #B5E1FB",
"5G 	c #5DB7FB",
"6G 	c #6DC0FB",
"7G 	c #81CAFB",
"8G 	c #75C3FA",
"9G 	c #5DB7FA",
"0G 	c #59B5FB",
"aG 	c #66BDF9",
"bG 	c #8AC6ED",
"cG 	c #91A2AF",
"dG 	c #939699",
"eG 	c #97999F",
"fG 	c #979A9F",
"gG 	c #96999C",
"hG 	c #95979A",
"iG 	c #949699",
"jG 	c #95979B",
"kG 	c #96999E",
"lG 	c #999EA6",
"mG 	c #9BA0A9",
"nG 	c #ABBFCF",
"oG 	c #C1E5FB",
"pG 	c #ACDEFB",
"qG 	c #8FD4FA",
"rG 	c #50798C",
"sG 	c #040200",
"tG 	c #EEA610",
"uG 	c #F99906",
"vG 	c #F88E02",
"wG 	c #F98C02",
"xG 	c #F88C03",
"yG 	c #EA9C12",
"zG 	c #A58E29",
"AG 	c #362F0E",
"BG 	c #403C16",
"CG 	c #958D3A",
"DG 	c #CE9D27",
"EG 	c #F8A216",
"FG 	c #F98A03",
"GG 	c #FA8B02",
"HG 	c #FB9204",
"IG 	c #FA9605",
"JG 	c #F98901",
"KG 	c #F8A819",
"LG 	c #EAC130",
"MG 	c #050500",
"NG 	c #CFA628",
"OG 	c #FAA718",
"PG 	c #F98A01",
"QG 	c #FB9104",
"RG 	c #FCA10B",
"SG 	c #FB9807",
"TG 	c #FA8C03",
"UG 	c #FA9409",
"VG 	c #F7B625",
"WG 	c #55430C",
"XG 	c #7D671A",
"YG 	c #F8BA2A",
"ZG 	c #F98B04",
"`G 	c #F98802",
" H 	c #F99306",
".H 	c #F99707",
"+H 	c #F88B03",
"@H 	c #F88702",
"#H 	c #F8A115",
"$H 	c #F7C32D",
"%H 	c #100D01",
"&H 	c #CFAE33",
"*H 	c #F8BF2D",
"=H 	c #FA8D01",
"-H 	c #FB9205",
";H 	c #FDB31B",
">H 	c #FDB119",
",H 	c #FB9909",
"'H 	c #F8B220",
")H 	c #B59024",
"!H 	c #140F01",
"~H 	c #EBC134",
"{H 	c #F99105",
"]H 	c #FA9A0A",
"^H 	c #FDB31C",
"/H 	c #FCAA16",
"(H 	c #FB9507",
"_H 	c #F99D0E",
":H 	c #F6C12A",
"<H 	c #352A08",
"[H 	c #00010E",
"}H 	c #021633",
"|H 	c #094781",
"1H 	c #093158",
"2H 	c #010910",
"3H 	c #040C0D",
"4H 	c #1F414B",
"5H 	c #12252B",
"6H 	c #061C2B",
"7H 	c #155983",
"8H 	c #134F77",
"9H 	c #000E25",
"0H 	c #000711",
"aH 	c #0F5CA9",
"bH 	c #1275D4",
"cH 	c #073B70",
"dH 	c #020F21",
"eH 	c #01070F",
"fH 	c #287BA7",
"gH 	c #030C1C",
"hH 	c #EDF4F8",
"iH 	c #8BCDFB",
"jH 	c #55B5FC",
"kH 	c #7FCBFD",
"lH 	c #B2E3FD",
"mH 	c #67BDFB",
"nH 	c #56B3FB",
"oH 	c #80C7F9",
"pH 	c #CCEDFB",
"qH 	c #212D37",
"rH 	c #000210",
"sH 	c #3C4553",
"tH 	c #56687E",
"uH 	c #B4D1E4",
"vH 	c #B2DDFA",
"wH 	c #5BB6FB",
"xH 	c #5AB7FB",
"yH 	c #7FCBFC",
"zH 	c #92D6FD",
"AH 	c #6EC1FA",
"BH 	c #98D3FB",
"CH 	c #E4F5FD",
"DH 	c #243D53",
"EH 	c #B7C7D6",
"FH 	c #D8F1FB",
"GH 	c #B8E9FD",
"HH 	c #64BFFA",
"IH 	c #5CBAFA",
"JH 	c #91D4FC",
"KH 	c #8ED3FC",
"LH 	c #68C0FB",
"MH 	c #74C6FC",
"NH 	c #AFE3FD",
"OH 	c #80CCFA",
"PH 	c #51B3F8",
"QH 	c #54B4F8",
"RH 	c #55B6F9",
"SH 	c #56B7F9",
"TH 	c #56B7F8",
"UH 	c #3994E9",
"VH 	c #3893EA",
"WH 	c #8ACEF7",
"XH 	c #90D5FD",
"YH 	c #60BBFB",
"ZH 	c #56B2FB",
"`H 	c #56B1FB",
" I 	c #6FC1FA",
".I 	c #7CC9FB",
"+I 	c #7ECCFB",
"@I 	c #8CD5FC",
"#I 	c #E3F0F7",
"$I 	c #9AA5AB",
"%I 	c #06080C",
"&I 	c #93A9B0",
"*I 	c #AAE1FB",
"=I 	c #52AEFA",
"-I 	c #54AFFA",
";I 	c #5FB9FB",
">I 	c #56B2FA",
",I 	c #5CB4FA",
"'I 	c #9AD8F3",
")I 	c #507584",
"!I 	c #03163A",
"~I 	c #020E24",
"{I 	c #01163B",
"]I 	c #2B373B",
"^I 	c #A2CAD5",
"/I 	c #5EB5FA",
"(I 	c #4DABFA",
"_I 	c #53AEF9",
":I 	c #5AB3F9",
"<I 	c #5BB4FA",
"[I 	c #57B2FA",
"}I 	c #54B2FA",
"|I 	c #77C8FB",
"1I 	c #9BD2EA",
"2I 	c #2B3C43",
"3I 	c #031841",
"4I 	c #010B1E",
"5I 	c #021432",
"6I 	c #010B23",
"7I 	c #47575B",
"8I 	c #AFDEF7",
"9I 	c #60B7FA",
"0I 	c #58B2FA",
"aI 	c #59B3FA",
"bI 	c #5AB4FA",
"cI 	c #5CB6FB",
"dI 	c #5EB8FB",
"eI 	c #61B9FA",
"fI 	c #96D2FC",
"gI 	c #C4E4FC",
"hI 	c #C3E4FB",
"iI 	c #C6E5FB",
"jI 	c #CBE8FC",
"kI 	c #D1ECFD",
"lI 	c #D2EDFD",
"mI 	c #BEE5FB",
"nI 	c #B7E3FC",
"oI 	c #94D6FC",
"pI 	c #8AD1FB",
"qI 	c #89D1FB",
"rI 	c #76B4D9",
"sI 	c #142230",
"tI 	c #B2D1D9",
"uI 	c #A4DCFB",
"vI 	c #53B2FB",
"wI 	c #59B5FA",
"xI 	c #5BB6FA",
"yI 	c #5CB6FA",
"zI 	c #5DB6FA",
"AI 	c #5EB7FB",
"BI 	c #5EB8F8",
"CI 	c #6BBFFA",
"DI 	c #ACDCFC",
"EI 	c #C4E6FC",
"FI 	c #CFEBFC",
"GI 	c #D5EFFD",
"HI 	c #D2EEFD",
"II 	c #CDEBFC",
"JI 	c #C8E9FC",
"KI 	c #CFECFC",
"LI 	c #D4EFFC",
"MI 	c #D2EEFC",
"NI 	c #B4E2FB",
"OI 	c #95D5FB",
"PI 	c #92D3FB",
"QI 	c #91D3FB",
"RI 	c #4D788F",
"SI 	c #EEA30E",
"TI 	c #FA9806",
"UI 	c #FB9002",
"VI 	c #FB8F02",
"WI 	c #FA8E02",
"XI 	c #F88D02",
"YI 	c #FA930A",
"ZI 	c #F8B624",
"`I 	c #927630",
" J 	c #56533F",
".J 	c #575341",
"+J 	c #5A5645",
"@J 	c #5A5646",
"#J 	c #575444",
"$J 	c #565243",
"%J 	c #A18E42",
"&J 	c #FCD143",
"*J 	c #F8A51C",
"=J 	c #F88A03",
"-J 	c #FA8C02",
";J 	c #F9A718",
">J 	c #EABC2B",
",J 	c #D0A121",
"'J 	c #F9A315",
")J 	c #FB8C01",
"!J 	c #FC9201",
"~J 	c #FA9408",
"{J 	c #F8B421",
"]J 	c #55410B",
"^J 	c #7E6719",
"/J 	c #F8BB2A",
"(J 	c #F98B05",
"_J 	c #F88903",
":J 	c #F98A02",
"<J 	c #F88902",
"[J 	c #F6C02D",
"}J 	c #1A1302",
"|J 	c #CEA92C",
"1J 	c #F8BB29",
"2J 	c #F98600",
"3J 	c #FA8B01",
"4J 	c #FDAF15",
"5J 	c #FDAC12",
"6J 	c #FB8800",
"7J 	c #F8B423",
"8J 	c #B79225",
"9J 	c #151002",
"0J 	c #EBBE2E",
"aJ 	c #F79F14",
"bJ 	c #F78500",
"cJ 	c #FA9206",
"dJ 	c #FDB61E",
"eJ 	c #FCA915",
"fJ 	c #FB8A02",
"gJ 	c #F7C027",
"hJ 	c #372A08",
"iJ 	c #041A3B",
"jJ 	c #083F8A",
"kJ 	c #08408B",
"lJ 	c #021528",
"mJ 	c #04182A",
"nJ 	c #062344",
"oJ 	c #0C426B",
"pJ 	c #22A0E8",
"qJ 	c #228DCC",
"rJ 	c #000915",
"sJ 	c #054F8D",
"tJ 	c #0877D5",
"uJ 	c #0E5D93",
"vJ 	c #1A5D72",
"wJ 	c #0C303C",
"xJ 	c #051315",
"yJ 	c #17424F",
"zJ 	c #113E4E",
"AJ 	c #2577A5",
"BJ 	c #0F1113",
"CJ 	c #DCEEF6",
"DJ 	c #81C8FA",
"EJ 	c #7FC9FC",
"FJ 	c #B0E2FD",
"GJ 	c #67BDFC",
"HJ 	c #4FB0FB",
"IJ 	c #68BCFA",
"JJ 	c #9DDAFA",
"KJ 	c #18252F",
"LJ 	c #BDC0C4",
"MJ 	c #E3F1FA",
"NJ 	c #6EBCF5",
"OJ 	c #53B1F7",
"PJ 	c #57B3F9",
"QJ 	c #5AB5F9",
"RJ 	c #5DB6F9",
"SJ 	c #5FB9FA",
"TJ 	c #54B3FA",
"UJ 	c #83CCFA",
"VJ 	c #C1ECFB",
"WJ 	c #1D3344",
"XJ 	c #D0D6DD",
"YJ 	c #C1E7FA",
"ZJ 	c #93DAFC",
"`J 	c #58B9FB",
" K 	c #55B5FB",
".K 	c #7CC9FD",
"+K 	c #7ECAFC",
"@K 	c #69C1FC",
"#K 	c #6FC4FC",
"$K 	c #8BD2FC",
"%K 	c #559ED9",
"&K 	c #2064B2",
"*K 	c #2165B5",
"=K 	c #2269BC",
"-K 	c #246EC1",
";K 	c #2772C6",
">K 	c #2571C6",
",K 	c #0E4FB0",
"'K 	c #1350AC",
")K 	c #63AFE7",
"!K 	c #6DC3FC",
"~K 	c #54B2FC",
"{K 	c #52B0FB",
"]K 	c #51AFFA",
"^K 	c #4EAEFA",
"/K 	c #55B2FA",
"(K 	c #70C2F9",
"_K 	c #E0EEF7",
":K 	c #9DA8AF",
"<K 	c #000C24",
"[K 	c #000C25",
"}K 	c #05080D",
"|K 	c #88A6B0",
"1K 	c #A5E1FB",
"2K 	c #56B0FA",
"3K 	c #55AFFA",
"4K 	c #58B2FB",
"5K 	c #53AFFA",
"6K 	c #54B0FB",
"7K 	c #8CD2F3",
"8K 	c #487184",
"9K 	c #000E24",
"0K 	c #000B1D",
"aK 	c #01173E",
"bK 	c #293947",
"cK 	c #97C8D8",
"dK 	c #56B1FA",
"eK 	c #56B2F9",
"fK 	c #55B2F9",
"gK 	c #55B1FA",
"hK 	c #88CAEA",
"iK 	c #263B46",
"jK 	c #021333",
"kK 	c #021942",
"lK 	c #000C20",
"mK 	c #000B1C",
"nK 	c #3F555C",
"oK 	c #A5DAF7",
"pK 	c #60B6FA",
"qK 	c #5AB5FA",
"rK 	c #65BFFB",
"sK 	c #6FC5FB",
"tK 	c #7FCDFB",
"uK 	c #83CFFB",
"vK 	c #61BAFB",
"wK 	c #66BCFB",
"xK 	c #80CCFB",
"yK 	c #80CFFB",
"zK 	c #5FABD4",
"AK 	c #0E1D26",
"BK 	c #A8CFDA",
"CK 	c #A7DDFB",
"DK 	c #5DB5FB",
"EK 	c #5CB6F9",
"FK 	c #5CB7FA",
"GK 	c #5CB7F9",
"HK 	c #5BB6F9",
"IK 	c #74C6FA",
"JK 	c #7CCBFB",
"KK 	c #79C9FB",
"LK 	c #74C7FB",
"MK 	c #6BC2FA",
"NK 	c #84CEFA",
"OK 	c #8BD3FC",
"PK 	c #8CD4FD",
"QK 	c #84D1FC",
"RK 	c #88D2FC",
"SK 	c #92D4FC",
"TK 	c #79C9FA",
"UK 	c #3D7390",
"VK 	c #EF9809",
"WK 	c #F99003",
"XK 	c #F98C00",
"YK 	c #F98B02",
"ZK 	c #FA8C04",
"`K 	c #FA8D05",
" L 	c #FB8D07",
".L 	c #FBBF46",
"+L 	c #FBDD65",
"@L 	c #FBDB64",
"#L 	c #FBDB63",
"$L 	c #FBDC67",
"%L 	c #FBDB66",
"&L 	c #FABC3F",
"*L 	c #FA950B",
"=L 	c #FA9107",
"-L 	c #FA8E05",
";L 	c #FA8D04",
">L 	c #FB8C02",
",L 	c #FB8E03",
"'L 	c #F9A311",
")L 	c #E9AD1D",
"!L 	c #D19D17",
"~L 	c #F9A00F",
"{L 	c #F98800",
"]L 	c #FA8A01",
"^L 	c #FB8D01",
"/L 	c #FA8D02",
"(L 	c #FA8B03",
"_L 	c #F99207",
":L 	c #F7B11C",
"<L 	c #554008",
"[L 	c #7D6313",
"}L 	c #F8B620",
"|L 	c #F78A04",
"1L 	c #F88703",
"2L 	c #F98902",
"3L 	c #F98803",
"4L 	c #F89F12",
"5L 	c #F5BA26",
"6L 	c #1A1201",
"7L 	c #110D01",
"8L 	c #D0A826",
"9L 	c #F8B926",
"0L 	c #F98701",
"aL 	c #FA9A0B",
"bL 	c #FA8601",
"cL 	c #F9B521",
"dL 	c #B58F21",
"eL 	c #140F02",
"fL 	c #EEBB28",
"gL 	c #F79C11",
"hL 	c #F78200",
"iL 	c #F88C04",
"jL 	c #FCAE13",
"kL 	c #FAA20D",
"lL 	c #F88402",
"mL 	c #F89109",
"nL 	c #F7BE25",
"oL 	c #352907",
"pL 	c #00000A",
"qL 	c #01132A",
"rL 	c #042D5E",
"sL 	c #052F66",
"tL 	c #083776",
"uL 	c #082F5E",
"vL 	c #041117",
"wL 	c #0E2A36",
"xL 	c #1E4C58",
"yL 	c #0D242B",
"zL 	c #123B49",
"AL 	c #205B6D",
"BL 	c #268EC2",
"CL 	c #2FACF3",
"DL 	c #062E4C",
"EL 	c #000E1B",
"FL 	c #000C17",
"GL 	c #033867",
"HL 	c #075CAE",
"IL 	c #1373AB",
"JL 	c #36C8F6",
"KL 	c #1B6983",
"LL 	c #0F3038",
"ML 	c #41ABC8",
"NL 	c #33A3C9",
"OL 	c #030F17",
"PL 	c #2170A1",
"QL 	c #020B17",
"RL 	c #101316",
"SL 	c #D8EEF7",
"TL 	c #85C8FB",
"UL 	c #7BC7FC",
"VL 	c #A4DFFC",
"WL 	c #63BCFC",
"XL 	c #4CAFFB",
"YL 	c #55B4F9",
"ZL 	c #748999",
"`L 	c #7D8286",
" M 	c #848B8E",
".M 	c #858D90",
"+M 	c #868E91",
"@M 	c #848C92",
"#M 	c #95A1A8",
"$M 	c #B9DEED",
"%M 	c #96D9FA",
"&M 	c #5CB6F8",
"*M 	c #51AFF8",
"=M 	c #53B0F9",
"-M 	c #57B3FA",
";M 	c #58B4FA",
">M 	c #58B5FA",
",M 	c #57B4FA",
"'M 	c #B9EBFC",
")M 	c #1D3041",
"!M 	c #02040F",
"~M 	c #EEEFF1",
"{M 	c #B0E1FA",
"]M 	c #75CEFB",
"^M 	c #67C2FB",
"/M 	c #5EB9FC",
"(M 	c #5FBAFC",
"_M 	c #61BDFC",
":M 	c #62BDFC",
"<M 	c #5DBBFA",
"[M 	c #2B70BC",
"}M 	c #002A7F",
"|M 	c #003596",
"1M 	c #00399B",
"2M 	c #00399C",
"3M 	c #00389B",
"4M 	c #00308E",
"5M 	c #05328B",
"6M 	c #4B9EE0",
"7M 	c #5BB8FB",
"8M 	c #57B0F8",
"9M 	c #DFECF7",
"0M 	c #A2ACB5",
"aM 	c #04070C",
"bM 	c #77A1B0",
"cM 	c #94DCFB",
"dM 	c #50ACFB",
"eM 	c #51ACFA",
"fM 	c #52ADFA",
"gM 	c #52ACFA",
"hM 	c #58B4FB",
"iM 	c #7BC9F3",
"jM 	c #406B84",
"kM 	c #000D25",
"lM 	c #011436",
"mM 	c #23394C",
"nM 	c #7DBFD8",
"oM 	c #50ACFA",
"pM 	c #51ADFA",
"qM 	c #51ADF8",
"rM 	c #53ADF8",
"sM 	c #6AC1FB",
"tM 	c #70C0ED",
"uM 	c #213B50",
"vM 	c #000B1E",
"wM 	c #020A24",
"xM 	c #445D6F",
"yM 	c #A5DBF9",
"zM 	c #61B6FA",
"AM 	c #57B1FA",
"BM 	c #58B1F9",
"CM 	c #59B3F9",
"DM 	c #5AB4F9",
"EM 	c #7BCBFC",
"FM 	c #84CFFD",
"GM 	c #85D0FD",
"HM 	c #81CCFB",
"IM 	c #84CFFC",
"JM 	c #7ACCFC",
"KM 	c #51A6D2",
"LM 	c #0C1C27",
"MM 	c #010310",
"NM 	c #030712",
"OM 	c #97CCDB",
"PM 	c #96D7FA",
"QM 	c #5CB5FA",
"RM 	c #5FB7F9",
"SM 	c #5DB7F9",
"TM 	c #75C8FC",
"UM 	c #7DCBFB",
"VM 	c #7AC9FB",
"WM 	c #93D5FC",
"XM 	c #92D6FC",
"YM 	c #87D2FD",
"ZM 	c #89D1FD",
"`M 	c #8ED4FD",
" N 	c #8CD4FC",
".N 	c #7BCBFB",
"+N 	c #59BCFA",
"@N 	c #2E6B8D",
"#N 	c #080400",
"$N 	c #F0960B",
"%N 	c #FA9508",
"&N 	c #FB8B02",
"*N 	c #FA8A02",
"=N 	c #FA8B04",
"-N 	c #FC9E0B",
";N 	c #FCB211",
">N 	c #FCB210",
",N 	c #FCB311",
"'N 	c #FCB412",
")N 	c #FB9F0B",
"!N 	c #FA8F03",
"~N 	c #FB8D02",
"{N 	c #FB8D03",
"]N 	c #FC9105",
"^N 	c #FB9F0A",
"/N 	c #F69D0A",
"(N 	c #CD6D07",
"_N 	c #D2980F",
":N 	c #FA9D0A",
"<N 	c #FA8A00",
"[N 	c #FA9207",
"}N 	c #F7AF17",
"|N 	c #553E07",
"1N 	c #7D600E",
"2N 	c #F8B018",
"3N 	c #F98A04",
"4N 	c #F78603",
"5N 	c #F89E0E",
"6N 	c #F5B61D",
"7N 	c #1A1100",
"8N 	c #100C00",
"9N 	c #CFA322",
"0N 	c #F8B420",
"aN 	c #F78501",
"bN 	c #F78602",
"cN 	c #FA8902",
"dN 	c #FB8802",
"eN 	c #FB8901",
"fN 	c #F9B41C",
"gN 	c #B58C1D",
"hN 	c #140E01",
"iN 	c #ECB420",
"jN 	c #F6970E",
"kN 	c #F67F00",
"lN 	c #FCA004",
"mN 	c #FA9704",
"nN 	c #F88301",
"oN 	c #F88F08",
"pN 	c #F6BB21",
"qN 	c #332806",
"rN 	c #02224E",
"sN 	c #03326D",
"tN 	c #032B60",
"uN 	c #032F68",
"vN 	c #05326E",
"wN 	c #053473",
"xN 	c #053574",
"yN 	c #053A79",
"zN 	c #064284",
"AN 	c #052C5C",
"BN 	c #00050C",
"CN 	c #1D7393",
"DN 	c #3ABBE9",
"EN 	c #5AD9F7",
"FN 	c #2B6B7B",
"GN 	c #010505",
"HN 	c #247E9C",
"IN 	c #41C9F8",
"JN 	c #2596D1",
"KN 	c #117CC1",
"LN 	c #000A16",
"MN 	c #343333",
"NN 	c #393838",
"ON 	c #1A1919",
"PN 	c #020C0F",
"QN 	c #144552",
"RN 	c #113E4C",
"SN 	c #031114",
"TN 	c #000B17",
"UN 	c #011429",
"VN 	c #0B4462",
"WN 	c #29AFE9",
"XN 	c #2F89AC",
"YN 	c #335B63",
"ZN 	c #223C41",
"`N 	c #454749",
" O 	c #4B6B78",
".O 	c #47ACD7",
"+O 	c #32A0D3",
"@O 	c #020E16",
"#O 	c #1C6D9E",
"$O 	c #020A16",
"%O 	c #0F1417",
"&O 	c #D1EDF8",
"*O 	c #83C8FB",
"=O 	c #68BCFB",
"-O 	c #7AC7FB",
";O 	c #50AFF9",
">O 	c #52B0F9",
",O 	c #C0E5FB",
"'O 	c #E8F5FB",
")O 	c #EAF5FC",
"!O 	c #E9F5FB",
"~O 	c #CAE9FA",
"{O 	c #C9E8FB",
"]O 	c #C8E7FB",
"^O 	c #94D7FB",
"/O 	c #7DCEFB",
"(O 	c #54B0F9",
"_O 	c #55B2FB",
":O 	c #80BFED",
"<O 	c #87B6DA",
"[O 	c #131E2C",
"}O 	c #0D151B",
"|O 	c #EDEFF1",
"1O 	c #AADDFB",
"2O 	c #70C9FB",
"3O 	c #61BBFB",
"4O 	c #58B8FB",
"5O 	c #62BDFA",
"6O 	c #4A94CF",
"7O 	c #114489",
"8O 	c #002671",
"9O 	c #002979",
"0O 	c #002B7B",
"aO 	c #002A79",
"bO 	c #002873",
"cO 	c #002063",
"dO 	c #03205B",
"eO 	c #3571A3",
"fO 	c #5EAEE8",
"gO 	c #62BAFA",
"hO 	c #53AFF9",
"iO 	c #51AEF9",
"jO 	c #B1DAF8",
"kO 	c #93B3CB",
"lO 	c #4B525C",
"mO 	c #171C2B",
"nO 	c #23252C",
"oO 	c #51565D",
"pO 	c #7CADC9",
"qO 	c #85CFFB",
"rO 	c #55B0FB",
"sO 	c #53AEFA",
"tO 	c #54AFF9",
"uO 	c #55B3FB",
"vO 	c #6DC1F5",
"wO 	c #588AA7",
"xO 	c #464D55",
"yO 	c #132237",
"zO 	c #001A46",
"AO 	c #050B17",
"BO 	c #484F5D",
"CO 	c #5A7184",
"DO 	c #7BC0E3",
"EO 	c #54AFFB",
"FO 	c #53B0FA",
"GO 	c #50ADF8",
"HO 	c #4FACF8",
"IO 	c #5BB7F9",
"JO 	c #60B7EF",
"KO 	c #466A80",
"LO 	c #3C4955",
"MO 	c #1B2231",
"NO 	c #494F5F",
"OO 	c #60859D",
"PO 	c #85CCF9",
"QO 	c #5AB3FA",
"RO 	c #5BB8FA",
"SO 	c #7BCAFC",
"TO 	c #7AC9FC",
"UO 	c #70C4FB",
"VO 	c #78C8FC",
"WO 	c #89D0FB",
"XO 	c #80CCFC",
"YO 	c #7DCEFC",
"ZO 	c #54A5D1",
"`O 	c #0B1A24",
" P 	c #101B2B",
".P 	c #3C4450",
"+P 	c #84C6E3",
"@P 	c #82CCFA",
"#P 	c #5EB7FA",
"$P 	c #5EB8FA",
"%P 	c #60B8FA",
"&P 	c #59B6FA",
"*P 	c #74C7FC",
"=P 	c #72C6FC",
"-P 	c #8AD2FC",
";P 	c #80CCFD",
">P 	c #69BFFB",
",P 	c #73C2FB",
"'P 	c #95D6FC",
")P 	c #96D7FC",
"!P 	c #6DC0F9",
"~P 	c #6DC3FA",
"{P 	c #3F7592",
"]P 	c #F1AE16",
"^P 	c #FAA810",
"/P 	c #F99806",
"(P 	c #FB9003",
"_P 	c #FB9405",
":P 	c #FA9404",
"<P 	c #FB9705",
"[P 	c #FB9706",
"}P 	c #FA9304",
"|P 	c #FA8F02",
"1P 	c #FB8E02",
"2P 	c #FC8F04",
"3P 	c #FC8F05",
"4P 	c #FB8F05",
"5P 	c #F8BC1D",
"6P 	c #CB790B",
"7P 	c #732300",
"8P 	c #D1900B",
"9P 	c #FA9908",
"0P 	c #FA8C01",
"aP 	c #F98D03",
"bP 	c #F7AB14",
"cP 	c #563D06",
"dP 	c #7D600C",
"eP 	c #F8AE14",
"fP 	c #F88803",
"gP 	c #F89C0D",
"hP 	c #F7B318",
"iP 	c #1C1200",
"jP 	c #0E0A00",
"kP 	c #CB991A",
"lP 	c #F8AE1B",
"mP 	c #F9AD15",
"nP 	c #B68717",
"oP 	c #ECB21D",
"pP 	c #F7960D",
"qP 	c #F68000",
"rP 	c #F78601",
"sP 	c #FB9102",
"tP 	c #F88E07",
"uP 	c #F5B71D",
"vP 	c #332706",
"wP 	c #073B77",
"xP 	c #06366E",
"yP 	c #02122A",
"zP 	c #011329",
"AP 	c #02142C",
"BP 	c #02152F",
"CP 	c #021630",
"DP 	c #010B1B",
"EP 	c #00060E",
"FP 	c #185A7D",
"GP 	c #2B98CF",
"HP 	c #45C3EF",
"IP 	c #47879E",
"JP 	c #404547",
"KP 	c #1F3638",
"LP 	c #2E4E53",
"MP 	c #2B98BD",
"NP 	c #289FDF",
"OP 	c #0E3D66",
"PP 	c #01182E",
"QP 	c #020B0E",
"RP 	c #133843",
"SP 	c #194453",
"TP 	c #343434",
"UP 	c #333333",
"VP 	c #0F0F10",
"WP 	c #CCCDCE",
"XP 	c #6A6C6D",
"YP 	c #061E28",
"ZP 	c #32B1E0",
"`P 	c #30A2CA",
" Q 	c #0C2E3A",
".Q 	c #011D36",
"+Q 	c #0778CF",
"@Q 	c #4AB0E0",
"#Q 	c #90E0EE",
"$Q 	c #5B98A6",
"%Q 	c #C1D2D8",
"&Q 	c #B5D6EA",
"*Q 	c #3299E4",
"=Q 	c #0C64AC",
"-Q 	c #010C15",
";Q 	c #16689C",
">Q 	c #000314",
",Q 	c #10171B",
"'Q 	c #BAE7F9",
")Q 	c #71C0FB",
"!Q 	c #50ABFA",
"~Q 	c #53ADF9",
"{Q 	c #52ADF9",
"]Q 	c #4FABFA",
"^Q 	c #7BC7FA",
"/Q 	c #8CCFFB",
"(Q 	c #75C2FA",
"_Q 	c #66BBFA",
":Q 	c #56B8FA",
"<Q 	c #53B6F9",
"[Q 	c #55B0FA",
"}Q 	c #54B1FA",
"|Q 	c #51B1FB",
"1Q 	c #50B4FC",
"2Q 	c #6B99CC",
"3Q 	c #0E3176",
"4Q 	c #1B354D",
"5Q 	c #9ED2FA",
"6Q 	c #5CB5FB",
"7Q 	c #5BB4FB",
"8Q 	c #58B3FB",
"9Q 	c #4EB0FB",
"0Q 	c #65BCF9",
"aQ 	c #3D6995",
"bQ 	c #01143F",
"cQ 	c #00133B",
"dQ 	c #00123A",
"eQ 	c #001137",
"fQ 	c #001034",
"gQ 	c #000F30",
"hQ 	c #000C28",
"iQ 	c #0C1E2E",
"jQ 	c #5C97BD",
"kQ 	c #61BAF9",
"lQ 	c #55B0F9",
"mQ 	c #59B3FB",
"nQ 	c #74BEF6",
"oQ 	c #D6E0E5",
"pQ 	c #414750",
"qQ 	c #6A7076",
"rQ 	c #E0E7EC",
"sQ 	c #7EC0F5",
"tQ 	c #55AFF9",
"uQ 	c #54AEF9",
"vQ 	c #8CCBF4",
"wQ 	c #D3E7EE",
"xQ 	c #3C5771",
"yQ 	c #000922",
"zQ 	c #0D1419",
"AQ 	c #DCE6E8",
"BQ 	c #C5DEF0",
"CQ 	c #6DBFF9",
"DQ 	c #5AB4FB",
"EQ 	c #59B2FB",
"FQ 	c #56B2FC",
"GQ 	c #52AFF9",
"HQ 	c #56AFF9",
"IQ 	c #59B2F9",
"JQ 	c #A0D3EF",
"KQ 	c #B5D5E2",
"LQ 	c #020719",
"MQ 	c #545A60",
"NQ 	c #DBE1E3",
"OQ 	c #9ED0F3",
"PQ 	c #5CB4FB",
"QQ 	c #58B3F9",
"RQ 	c #51B4FA",
"SQ 	c #7ECCFC",
"TQ 	c #71C3FB",
"UQ 	c #85D0FC",
"VQ 	c #86D0FD",
"WQ 	c #83CEFC",
"XQ 	c #64BFFC",
"YQ 	c #79CCFC",
"ZQ 	c #57A5D2",
"`Q 	c #0B1B28",
" R 	c #66859B",
".R 	c #D6E1E9",
"+R 	c #71BEF7",
"@R 	c #61BAFA",
"#R 	c #60BAFB",
"$R 	c #7ECBFC",
"%R 	c #75C8FD",
"&R 	c #67C0FC",
"*R 	c #8AD1FC",
"=R 	c #6BBEFC",
"-R 	c #52AEFB",
";R 	c #8BD0FD",
">R 	c #8CD2FC",
",R 	c #3B9FF5",
"'R 	c #75C4F9",
")R 	c #507A8E",
"!R 	c #171201",
"~R 	c #F4C828",
"{R 	c #F8AF14",
"]R 	c #FBA30A",
"^R 	c #FC9A08",
"/R 	c #FC8C04",
"(R 	c #FA8E04",
"_R 	c #FA8F04",
":R 	c #FB8F03",
"<R 	c #FC9004",
"[R 	c #FB9004",
"}R 	c #FBAC17",
"|R 	c #FDC121",
"1R 	c #D28314",
"2R 	c #934006",
"3R 	c #190500",
"4R 	c #D28104",
"5R 	c #F8A10F",
"6R 	c #593D04",
"7R 	c #7F600A",
"8R 	c #F9A40C",
"9R 	c #F78702",
"0R 	c #FA8A03",
"aR 	c #F8960B",
"bR 	c #F8A812",
"cR 	c #1E1300",
"dR 	c #100B00",
"eR 	c #D08E0B",
"fR 	c #F8A30F",
"gR 	c #F78803",
"hR 	c #F88A02",
"iR 	c #F99F0B",
"jR 	c #B87F0F",
"kR 	c #161001",
"lR 	c #EBAA17",
"mR 	c #F7930A",
"nR 	c #F68301",
"oR 	c #F68501",
"pR 	c #F68300",
"qR 	c #F68E06",
"rR 	c #F5B51A",
"sR 	c #342706",
"tR 	c #0B427D",
"uR 	c #082F5A",
"vR 	c #021229",
"wR 	c #07457E",
"xR 	c #1097DD",
"yR 	c #77BFE3",
"zR 	c #D9E2E6",
"AR 	c #324448",
"BR 	c #070F13",
"CR 	c #5C99A3",
"DR 	c #86DDEA",
"ER 	c #2B9AD0",
"FR 	c #054293",
"GR 	c #011230",
"HR 	c #07212A",
"IR 	c #349BBF",
"JR 	c #46BBE6",
"KR 	c #061F2B",
"LR 	c #525555",
"MR 	c #D3D4D5",
"NR 	c #D1D4D6",
"OR 	c #090909",
"PR 	c #0D0E0E",
"QR 	c #C0C6C7",
"RR 	c #CFD7D9",
"SR 	c #687377",
"TR 	c #0C171B",
"UR 	c #040A0E",
"VR 	c #052029",
"WR 	c #35A9D9",
"XR 	c #35A1CD",
"YR 	c #124455",
"ZR 	c #010C13",
"`R 	c #000A18",
" S 	c #011D44",
".S 	c #3F7790",
"+S 	c #8EE3F5",
"@S 	c #57A2B7",
"#S 	c #285969",
"$S 	c #4699B4",
"%S 	c #A6D7EF",
"&S 	c #275A89",
"*S 	c #001E47",
"=S 	c #041825",
"-S 	c #14659B",
";S 	c #000110",
">S 	c #0C1519",
",S 	c #ABE1F9",
"'S 	c #6FBEFA",
")S 	c #50ABF9",
"!S 	c #51ABF9",
"~S 	c #51ACF9",
"{S 	c #54B1FB",
"]S 	c #54B1F9",
"^S 	c #62B9FB",
"/S 	c #5DB8F7",
"(S 	c #AED3EC",
"_S 	c #566D8D",
":S 	c #020C2B",
"<S 	c #080A11",
"[S 	c #1C2026",
"}S 	c #58809C",
"|S 	c #E0F1FA",
"1S 	c #8BCBFA",
"2S 	c #57B1FB",
"3S 	c #56B4FB",
"4S 	c #74C3FA",
"5S 	c #5A7DA2",
"6S 	c #1F2B4E",
"7S 	c #001032",
"8S 	c #000E2C",
"9S 	c #091223",
"0S 	c #1F2125",
"aS 	c #244157",
"bS 	c #5EA0CA",
"cS 	c #58B5FB",
"dS 	c #5AB3FB",
"eS 	c #6BBDFA",
"fS 	c #CDE3F0",
"gS 	c #505A64",
"hS 	c #12171D",
"iS 	c #212427",
"jS 	c #6D8797",
"kS 	c #BBE5F9",
"lS 	c #6EBEFB",
"mS 	c #57B0FA",
"nS 	c #5BB5FB",
"oS 	c #8ECFFB",
"pS 	c #C5EAFC",
"qS 	c #4C6D88",
"rS 	c #1A2028",
"sS 	c #212C32",
"tS 	c #CCECF6",
"uS 	c #B0E1FB",
"vS 	c #63BCFB",
"wS 	c #58B4FC",
"xS 	c #92D3FA",
"yS 	c #ADDAF2",
"zS 	c #25303F",
"AS 	c #161F29",
"BS 	c #171C24",
"CS 	c #607583",
"DS 	c #BBE0F3",
"ES 	c #9CD5FA",
"FS 	c #5EB6FB",
"GS 	c #5FB7FB",
"HS 	c #55AEF9",
"IS 	c #56B0F9",
"JS 	c #5AB5FB",
"KS 	c #58B6FB",
"LS 	c #80CBFC",
"MS 	c #81CCFC",
"NS 	c #7ACAFB",
"OS 	c #50A0D2",
"PS 	c #0A1C29",
"QS 	c #0B0E12",
"RS 	c #9BB2BA",
"SS 	c #D5F0FB",
"TS 	c #68BEFB",
"US 	c #62BAFB",
"VS 	c #62BBFC",
"WS 	c #64BCFC",
"XS 	c #6BC1FC",
"YS 	c #84CDFC",
"ZS 	c #60B6FC",
"`S 	c #49A8FA",
" T 	c #4AA9FB",
".T 	c #40A1F5",
"+T 	c #84CAF9",
"@T 	c #5C7F92",
"#T 	c #030102",
"$T 	c #DEAB22",
"%T 	c #C36C0E",
"&T 	c #BD4E00",
"*T 	c #F69506",
"=T 	c #F89005",
"-T 	c #F89004",
";T 	c #FC8D03",
">T 	c #FC8E03",
",T 	c #FB9A07",
"'T 	c #F89505",
")T 	c #EDA512",
"!T 	c #E6AA1B",
"~T 	c #7D2800",
"{T 	c #651B00",
"]T 	c #282107",
"^T 	c #3F340A",
"/T 	c #DC8406",
"(T 	c #FA9204",
"_T 	c #FB9305",
":T 	c #FB9506",
"<T 	c #FC9608",
"[T 	c #FA9305",
"}T 	c #F89405",
"|T 	c #7A560A",
"1T 	c #352B08",
"2T 	c #120F02",
"3T 	c #181605",
"4T 	c #272309",
"5T 	c #8E650A",
"6T 	c #F89D07",
"7T 	c #FA8F05",
"8T 	c #FA8F06",
"9T 	c #FA9007",
"0T 	c #F59D09",
"aT 	c #322404",
"bT 	c #191303",
"cT 	c #191507",
"dT 	c #2F2609",
"eT 	c #D7900A",
"fT 	c #F89F0D",
"gT 	c #F68503",
"hT 	c #F68702",
"iT 	c #BC7D08",
"jT 	c #231601",
"kT 	c #060300",
"lT 	c #EFA812",
"mT 	c #F79208",
"nT 	c #F58200",
"oT 	c #F68502",
"pT 	c #F78F07",
"qT 	c #F6B118",
"rT 	c #342604",
"sT 	c #0C3B70",
"tT 	c #082B53",
"uT 	c #022642",
"vT 	c #0F86C7",
"wT 	c #79BEE1",
"xT 	c #EBF6FA",
"yT 	c #95D4E0",
"zT 	c #2D4E59",
"AT 	c #5EA2B3",
"BT 	c #88DFF4",
"CT 	c #234955",
"DT 	c #02081A",
"ET 	c #040A0B",
"FT 	c #071519",
"GT 	c #05151C",
"HT 	c #0D3243",
"IT 	c #3299C4",
"JT 	c #41B7E4",
"KT 	c #07202C",
"LT 	c #03070A",
"MT 	c #0F181C",
"NT 	c #515F64",
"OT 	c #BDD0D4",
"PT 	c #C8CECF",
"QT 	c #0B0D0F",
"RT 	c #0D1418",
"ST 	c #33667A",
"TT 	c #66C3E4",
"UT 	c #295C7E",
"VT 	c #01050B",
"WT 	c #011855",
"XT 	c #0D3C81",
"YT 	c #37AEE1",
"ZT 	c #3CBEEC",
"`T 	c #0A6AA3",
" U 	c #115D75",
".U 	c #2EBEF6",
"+U 	c #35BDF6",
"@U 	c #78D6F7",
"#U 	c #C9F0FC",
"$U 	c #7CDBFA",
"%U 	c #59CAF8",
"&U 	c #165CAB",
"*U 	c #002879",
"=U 	c #020D12",
"-U 	c #0E5582",
";U 	c #083255",
">U 	c #090A0D",
",U 	c #303337",
"'U 	c #394655",
")U 	c #78C9F7",
"!U 	c #63B9F9",
"~U 	c #53ADFA",
"{U 	c #50ADF9",
"]U 	c #53B0FB",
"^U 	c #80C9FA",
"/U 	c #D8EEFA",
"(U 	c #87ADD8",
"_U 	c #083289",
":U 	c #031744",
"<U 	c #43494D",
"[U 	c #DDE5E8",
"}U 	c #88CAF3",
"|U 	c #69C1F9",
"1U 	c #65BEFA",
"2U 	c #62BBFB",
"3U 	c #62BCFB",
"4U 	c #6AC2FC",
"5U 	c #A5DDF8",
"6U 	c #E3EEF3",
"7U 	c #42565D",
"8U 	c #E3EBEF",
"9U 	c #7FCAF9",
"0U 	c #64BFFB",
"aU 	c #5EB9FB",
"bU 	c #64BEFB",
"cU 	c #BDE0F4",
"dU 	c #84B0CE",
"eU 	c #05080F",
"fU 	c #262B2D",
"gU 	c #CBD1D3",
"hU 	c #94D0F7",
"iU 	c #5AB6FA",
"jU 	c #62BEFB",
"kU 	c #63C1FC",
"lU 	c #65C0FC",
"mU 	c #57B7FA",
"nU 	c #A1D8F8",
"oU 	c #97B0B7",
"pU 	c #0A1015",
"qU 	c #022E62",
"rU 	c #002151",
"sU 	c #0C0F13",
"tU 	c #B5C6CB",
"uU 	c #5EBDF9",
"vU 	c #61C0FB",
"wU 	c #5BBBFB",
"xU 	c #63BDFC",
"yU 	c #6DC5FD",
"zU 	c #5DB9FB",
"AU 	c #59B7FB",
"BU 	c #57AFF8",
"CU 	c #CFEDF4",
"DU 	c #809FA9",
"EU 	c #788084",
"FU 	c #AFDAF7",
"GU 	c #60BBFA",
"HU 	c #5FBAFA",
"IU 	c #65BFFC",
"JU 	c #5FBCFC",
"KU 	c #5CB9FB",
"LU 	c #5DB8FA",
"MU 	c #54ABF6",
"NU 	c #56AEF8",
"OU 	c #5CB8FA",
"PU 	c #5FBBFB",
"QU 	c #61BCFB",
"RU 	c #64BEFA",
"SU 	c #61BDFB",
"TU 	c #68C2FC",
"UU 	c #7ACBFD",
"VU 	c #6EC0FB",
"WU 	c #69BEFA",
"XU 	c #5EBCF9",
"YU 	c #92D6FA",
"ZU 	c #3E8CC3",
"`U 	c #021220",
" V 	c #050A0D",
".V 	c #5C9AB8",
"+V 	c #7AD0FA",
"@V 	c #60BEFB",
"#V 	c #61BCFC",
"$V 	c #66BFFB",
"%V 	c #67C1FC",
"&V 	c #60BAFA",
"*V 	c #5FBAFB",
"=V 	c #57B4F9",
"-V 	c #54B3FB",
";V 	c #5EBBFC",
">V 	c #57AEF8",
",V 	c #4FA8F7",
"'V 	c #63B5F8",
")V 	c #9BD8F9",
"!V 	c #68838E",
"~V 	c #0A0300",
"{V 	c #832800",
"]V 	c #882900",
"^V 	c #C97A0C",
"/V 	c #DE9A11",
"(V 	c #DE8F0F",
"_V 	c #FA9004",
":V 	c #FC9504",
"<V 	c #FC9405",
"[V 	c #FB9504",
"}V 	c #FB9605",
"|V 	c #FC9705",
"1V 	c #FC9706",
"2V 	c #FC9604",
"3V 	c #F49408",
"4V 	c #DE9C16",
"5V 	c #D28C11",
"6V 	c #8A3B02",
"7V 	c #7B2901",
"8V 	c #671E00",
"9V 	c #230A00",
"0V 	c #9A811D",
"aV 	c #F3CE2E",
"bV 	c #F38E09",
"cV 	c #F5920B",
"dV 	c #F6A912",
"eV 	c #F6AA12",
"fV 	c #F5AC14",
"gV 	c #F6AD13",
"hV 	c #F6AD15",
"iV 	c #F4A410",
"jV 	c #F39306",
"kV 	c #F0AD1F",
"lV 	c #EAB724",
"mV 	c #503E09",
"nV 	c #947F26",
"oV 	c #F5CF3F",
"pV 	c #F9AD1E",
"qV 	c #FB9408",
"rV 	c #FCAC13",
"sV 	c #FCAF11",
"tV 	c #FCB012",
"uV 	c #FCAD10",
"vV 	c #FBA70E",
"wV 	c #FA9707",
"xV 	c #F88F02",
"yV 	c #F0C022",
"zV 	c #BC9A1A",
"AV 	c #221C04",
"BV 	c #A39733",
"CV 	c #EDD242",
"DV 	c #F89910",
"EV 	c #FB8C05",
"FV 	c #F88502",
"GV 	c #F78402",
"HV 	c #F88603",
"IV 	c #F98A07",
"JV 	c #EB8E0B",
"KV 	c #94590A",
"LV 	c #341B03",
"MV 	c #070602",
"NV 	c #211D08",
"OV 	c #2E2609",
"PV 	c #F28F06",
"QV 	c #F98702",
"RV 	c #F58804",
"SV 	c #F39C0F",
"TV 	c #352605",
"UV 	c #063263",
"VV 	c #053771",
"WV 	c #0C4480",
"XV 	c #49C6F9",
"YV 	c #9DE0FA",
"ZV 	c #F0FAFD",
"`V 	c #B0E9FC",
" W 	c #89D8F7",
".W 	c #43BAF4",
"+W 	c #23B0F6",
"@W 	c #09394E",
"#W 	c #215D69",
"$W 	c #47BEDA",
"%W 	c #29A8E9",
"&W 	c #27A0E3",
"*W 	c #0C478F",
"=W 	c #012055",
"-W 	c #000409",
";W 	c #193F60",
">W 	c #7AC0E4",
",W 	c #4A758E",
"'W 	c #121B23",
")W 	c #0E1114",
"!W 	c #245165",
"~W 	c #52A2C4",
"{W 	c #1F527A",
"]W 	c #011A48",
"^W 	c #00092E",
"/W 	c #072958",
"(W 	c #2498CB",
"_W 	c #2AB2E8",
":W 	c #0977BE",
"<W 	c #08161B",
"[W 	c #152F37",
"}W 	c #306F80",
"|W 	c #19404D",
"1W 	c #187696",
"2W 	c #22B9F7",
"3W 	c #2AACF3",
"4W 	c #6DCCF7",
"5W 	c #B0E6FC",
"6W 	c #7BDBFB",
"7W 	c #55C6F4",
"8W 	c #1358A5",
"9W 	c #002368",
"0W 	c #041A28",
"aW 	c #0B4A71",
"bW 	c #041B2A",
"cW 	c #23262A",
"dW 	c #B2B5B9",
"eW 	c #BFCDDB",
"fW 	c #58B1F8",
"gW 	c #53ACF9",
"hW 	c #52AEF9",
"iW 	c #53B1FB",
"jW 	c #54B1FC",
"kW 	c #55B1FB",
"lW 	c #78C3FA",
"mW 	c #7DC3F6",
"nW 	c #69A9DF",
"oW 	c #6490CA",
"pW 	c #284B8E",
"qW 	c #02297D",
"rW 	c #3A434E",
"sW 	c #BBCEE2",
"tW 	c #6DAEE2",
"uW 	c #51A3E4",
"vW 	c #54A4E5",
"wW 	c #54A4E8",
"xW 	c #5CABE5",
"yW 	c #5CABE3",
"zW 	c #5AA9E7",
"AW 	c #53A2E3",
"BW 	c #3F8DD8",
"CW 	c #3F8CD5",
"DW 	c #5295D2",
"EW 	c #74A2D1",
"FW 	c #050D22",
"GW 	c #233644",
"HW 	c #7F97BD",
"IW 	c #4884C5",
"JW 	c #367AC4",
"KW 	c #3174C1",
"LW 	c #3075C0",
"MW 	c #367FC9",
"NW 	c #3A86CD",
"OW 	c #3683D2",
"PW 	c #2E78CC",
"QW 	c #286BBF",
"RW 	c #296BBF",
"SW 	c #2A6BBD",
"TW 	c #3270BD",
"UW 	c #5280BD",
"VW 	c #395E82",
"WW 	c #10171E",
"XW 	c #5978A1",
"YW 	c #4279BB",
"ZW 	c #286BBB",
"`W 	c #2A6FC1",
" X 	c #2A6EC3",
".X 	c #286DC1",
"+X 	c #266ABE",
"@X 	c #276ABA",
"#X 	c #2669B8",
"$X 	c #296BB8",
"%X 	c #2868B7",
"&X 	c #2566B8",
"*X 	c #2365B8",
"=X 	c #2262B5",
"-X 	c #215FAF",
";X 	c #386AAD",
">X 	c #34537D",
",X 	c #03070C",
"'X 	c #03336C",
")X 	c #00162F",
"!X 	c #00112A",
"~X 	c #00214F",
"{X 	c #060A11",
"]X 	c #5375A1",
"^X 	c #2A6DBE",
"/X 	c #2D6EBC",
"(X 	c #2A6AB9",
"_X 	c #2B69B8",
":X 	c #2D6CBA",
"<X 	c #2969BA",
"[X 	c #2464B6",
"}X 	c #2465B6",
"|X 	c #2466B9",
"1X 	c #2568B9",
"2X 	c #2162B4",
"3X 	c #2360B1",
"4X 	c #235FB0",
"5X 	c #225CAD",
"6X 	c #4C76AC",
"7X 	c #2E4B6C",
"8X 	c #35455B",
"9X 	c #4C79B8",
"0X 	c #296AB8",
"aX 	c #296AB7",
"bX 	c #2769B7",
"cX 	c #2C6FBC",
"dX 	c #2F76C1",
"eX 	c #2D74C1",
"fX 	c #2B72C2",
"gX 	c #2F76C5",
"hX 	c #3076C8",
"iX 	c #3076C7",
"jX 	c #2F75C8",
"kX 	c #2E74C5",
"lX 	c #2C72C0",
"mX 	c #2D71BD",
"nX 	c #2D71BB",
"oX 	c #2D70BA",
"pX 	c #2B6FBC",
"qX 	c #3074C1",
"rX 	c #3D7DC4",
"sX 	c #3574BF",
"tX 	c #3374BF",
"uX 	c #2C72BE",
"vX 	c #3776BA",
"wX 	c #447FB7",
"xX 	c #1C5187",
"yX 	c #010913",
"zX 	c #010408",
"AX 	c #204D82",
"BX 	c #2F6EB7",
"CX 	c #2564B5",
"DX 	c #2663B3",
"EX 	c #2968B7",
"FX 	c #2A6BB7",
"GX 	c #2666B5",
"HX 	c #2666B7",
"IX 	c #2767B7",
"JX 	c #2867B7",
"KX 	c #2767B8",
"LX 	c #2666B8",
"MX 	c #2664B5",
"NX 	c #2562B2",
"OX 	c #2462B1",
"PX 	c #2362B2",
"QX 	c #2363B5",
"RX 	c #2667B7",
"SX 	c #2669BA",
"TX 	c #2468BD",
"UX 	c #276DC2",
"VX 	c #3075C4",
"WX 	c #2B6CBF",
"XX 	c #2666BC",
"YX 	c #306FBE",
"ZX 	c #4682C2",
"`X 	c #33506E",
" Y 	c #0F0501",
".Y 	c #842800",
"+Y 	c #922E00",
"@Y 	c #983000",
"#Y 	c #903802",
"$Y 	c #7C3103",
"%Y 	c #7E3303",
"&Y 	c #D47F04",
"*Y 	c #D88404",
"=Y 	c #DA8505",
"-Y 	c #DB8506",
";Y 	c #DC8506",
">Y 	c #E08805",
",Y 	c #E28A05",
"'Y 	c #E68F06",
")Y 	c #E89007",
"!Y 	c #EA9006",
"~Y 	c #E48C04",
"{Y 	c #DC8404",
"]Y 	c #C36C02",
"^Y 	c #782E02",
"/Y 	c #7D3001",
"(Y 	c #812600",
"_Y 	c #691E00",
":Y 	c #200A00",
"<Y 	c #582E06",
"[Y 	c #8B4B0A",
"}Y 	c #893A02",
"|Y 	c #903E03",
"1Y 	c #964605",
"2Y 	c #954805",
"3Y 	c #944806",
"4Y 	c #904606",
"5Y 	c #8B4204",
"6Y 	c #873C02",
"7Y 	c #863D04",
"8Y 	c #873E05",
"9Y 	c #2D1501",
"0Y 	c #060301",
"aY 	c #653609",
"bY 	c #A3550E",
"cY 	c #A55008",
"dY 	c #A44C04",
"eY 	c #A15406",
"fY 	c #9B5306",
"gY 	c #AE6707",
"hY 	c #B86F07",
"iY 	c #B56D08",
"jY 	c #B56B07",
"kY 	c #B76104",
"lY 	c #B95D03",
"mY 	c #C38319",
"nY 	c #9F6C10",
"oY 	c #221602",
"pY 	c #7A5012",
"qY 	c #B47016",
"rY 	c #C26405",
"sY 	c #CA6702",
"tY 	c #E28606",
"uY 	c #E98C05",
"vY 	c #F89404",
"wY 	c #FA9805",
"xY 	c #FB9D08",
"yY 	c #FA9A09",
"zY 	c #F99007",
"AY 	c #F89C0C",
"BY 	c #E8AF1A",
"CY 	c #7D6012",
"DY 	c #1F1A06",
"EY 	c #9E8A23",
"FY 	c #C8AB27",
"GY 	c #F89204",
"HY 	c #FA9104",
"IY 	c #F78503",
"JY 	c #F68906",
"KY 	c #F7B01F",
"LY 	c #594F22",
"MY 	c #2D2E28",
"NY 	c #01102A",
"OY 	c #012757",
"PY 	c #00060F",
"QY 	c #001B5D",
"RY 	c #0A4893",
"SY 	c #44C3F9",
"TY 	c #93DCFB",
"UY 	c #D9F5FC",
"VY 	c #61C1EF",
"WY 	c #3CABEC",
"XY 	c #2CACF3",
"YY 	c #21AFF7",
"ZY 	c #1F6B89",
"`Y 	c #33829B",
" Z 	c #164A5E",
".Z 	c #030C11",
"+Z 	c #207188",
"@Z 	c #4CCDEF",
"#Z 	c #1998E6",
"$Z 	c #1888CD",
"%Z 	c #072E5D",
"&Z 	c #12385B",
"*Z 	c #5E9DC4",
"=Z 	c #355A72",
"-Z 	c #002E76",
";Z 	c #022765",
">Z 	c #000D23",
",Z 	c #003382",
"'Z 	c #0A8BE6",
")Z 	c #04365D",
"!Z 	c #286B7B",
"~Z 	c #63DBF3",
"{Z 	c #63E0FB",
"]Z 	c #67DEFA",
"^Z 	c #4DCFF8",
"/Z 	c #12AAFA",
"(Z 	c #0766D0",
"_Z 	c #158FE8",
":Z 	c #19A7F9",
"<Z 	c #59CBF9",
"[Z 	c #4CADE1",
"}Z 	c #103777",
"|Z 	c #010E37",
"1Z 	c #010403",
"2Z 	c #166B9C",
"3Z 	c #233742",
"4Z 	c #A5CADF",
"5Z 	c #BADFF9",
"6Z 	c #4EACF9",
"7Z 	c #52ADFB",
"8Z 	c #4FAAF9",
"9Z 	c #4DAAF9",
"0Z 	c #4CABF9",
"aZ 	c #4BA9F9",
"bZ 	c #51AFFB",
"cZ 	c #56B5FB",
"dZ 	c #59BAFB",
"eZ 	c #65C1FB",
"fZ 	c #C7E9FC",
"gZ 	c #B9D4EC",
"hZ 	c #335CA2",
"iZ 	c #012E87",
"jZ 	c #002579",
"kZ 	c #001C65",
"lZ 	c #001035",
"mZ 	c #000D2A",
"nZ 	c #012777",
"oZ 	c #012474",
"pZ 	c #002576",
"qZ 	c #00277D",
"rZ 	c #002982",
"sZ 	c #002A85",
"tZ 	c #002C89",
"uZ 	c #002D8B",
"vZ 	c #002F8C",
"wZ 	c #002E8A",
"xZ 	c #002D82",
"yZ 	c #012672",
"zZ 	c #002984",
"AZ 	c #002986",
"BZ 	c #002A87",
"CZ 	c #002A86",
"DZ 	c #002C88",
"EZ 	c #00308F",
"FZ 	c #003293",
"GZ 	c #003195",
"HZ 	c #003092",
"IZ 	c #002E8E",
"JZ 	c #002C8C",
"KZ 	c #001956",
"LZ 	c #00287E",
"MZ 	c #012F8A",
"NZ 	c #013392",
"OZ 	c #003597",
"PZ 	c #003497",
"QZ 	c #003395",
"RZ 	c #003090",
"SZ 	c #002E8C",
"TZ 	c #002B89",
"UZ 	c #001A55",
"VZ 	c #010003",
"WZ 	c #033166",
"XZ 	c #01152C",
"YZ 	c #00142F",
"ZZ 	c #002556",
"`Z 	c #00226B",
" ` 	c #003093",
".` 	c #002D8D",
"+` 	c #002D8A",
"@` 	c #002F8E",
"#` 	c #002F8F",
"$` 	c #002E90",
"%` 	c #002C8A",
"&` 	c #00206E",
"*` 	c #00103A",
"=` 	c #000F34",
"-` 	c #002882",
";` 	c #002E8B",
">` 	c #012F8C",
",` 	c #012F8B",
"'` 	c #00308D",
")` 	c #00318F",
"!` 	c #013291",
"~` 	c #013191",
"{` 	c #002D89",
"]` 	c #002B85",
"^` 	c #00287C",
"/` 	c #00154D",
"(` 	c #001F62",
"_` 	c #002983",
":` 	c #003396",
"<` 	c #003292",
"[` 	c #003291",
"}` 	c #003190",
"|` 	c #002B86",
"1` 	c #002883",
"2` 	c #00257C",
"3` 	c #001341",
"4` 	c #0B0200",
"5` 	c #952F00",
"6` 	c #611800",
"7` 	c #601800",
"8` 	c #661C00",
"9` 	c #792701",
"0` 	c #742200",
"a` 	c #732200",
"b` 	c #742301",
"c` 	c #772400",
"d` 	c #7B2600",
"e` 	c #7C2601",
"f` 	c #802700",
"g` 	c #852A00",
"h` 	c #822A00",
"i` 	c #681E00",
"j` 	c #862900",
"k` 	c #7B2200",
"l` 	c #050201",
"m` 	c #4C1500",
"n` 	c #792700",
"o` 	c #7E2800",
"p` 	c #862B00",
"q` 	c #8C2E00",
"r` 	c #8E2D00",
"s` 	c #8A2C00",
"t` 	c #832900",
"u` 	c #7F2500",
"v` 	c #7D2200",
"w` 	c #280A00",
"x` 	c #3C1100",
"y` 	c #651C00",
"z` 	c #792600",
"A` 	c #8D2F00",
"B` 	c #892D00",
"C` 	c #822900",
"D` 	c #7C2600",
"E` 	c #772501",
"F` 	c #6E2000",
"G` 	c #6B2000",
"H` 	c #641A00",
"I` 	c #160500",
"J` 	c #360C00",
"K` 	c #521400",
"L` 	c #5D1800",
"M` 	c #6C1F00",
"N` 	c #7F2801",
"O` 	c #8A3102",
"P` 	c #B25002",
"Q` 	c #C15E03",
"R` 	c #C87407",
"S` 	c #C66E06",
"T` 	c #BD6407",
"U` 	c #BE6A07",
"V` 	c #C27B0B",
"W` 	c #694408",
"X` 	c #160D01",
"Y` 	c #855009",
"Z` 	c #B6700B",
"`` 	c #F49D08",
"  .	c #F89F08",
". .	c #FB9E05",
"+ .	c #FB9C06",
"@ .	c #FB9B07",
"# .	c #FA9807",
"$ .	c #FB8A08",
"% .	c #F8BC57",
"& .	c #E6A854",
"* .	c #5B2B00",
"= .	c #010D19",
"- .	c #04284F",
"; .	c #032C3F",
"> .	c #0F88C4",
", .	c #1177AE",
"' .	c #000830",
") .	c #073472",
"! .	c #23A1F4",
"~ .	c #5DC2F8",
"{ .	c #82DCFB",
"] .	c #0F58B9",
"^ .	c #033EA2",
"/ .	c #1386DC",
"( .	c #1CAEF7",
"_ .	c #59D8FA",
": .	c #68DFFC",
"< .	c #33C4F0",
"[ .	c #01283E",
"} .	c #053E5C",
"| .	c #0EABF3",
"1 .	c #0C95E5",
"2 .	c #002A72",
"3 .	c #000610",
"4 .	c #001640",
"5 .	c #021A2C",
"6 .	c #052231",
"7 .	c #010B12",
"8 .	c #01050A",
"9 .	c #002567",
"0 .	c #1074C2",
"a .	c #022546",
"b .	c #125C80",
"c .	c #28B1F0",
"d .	c #3BC1F6",
"e .	c #5BD9FB",
"f .	c #40C9F8",
"g .	c #0892E8",
"h .	c #065CC3",
"i .	c #1B90E5",
"j .	c #23ADF9",
"k .	c #4BB5ED",
"l .	c #439AD2",
"m .	c #0E2F64",
"n .	c #000B2D",
"o .	c #04131D",
"p .	c #186695",
"q .	c #92969B",
"r .	c #A7C0D3",
"s .	c #64BBF4",
"t .	c #4CAAF8",
"u .	c #4FA8F2",
"v .	c #54AAF0",
"w .	c #56B0F6",
"x .	c #57B4FB",
"y .	c #4EAAF7",
"z .	c #45A1F1",
"A .	c #48A0EA",
"B .	c #4DA0E4",
"C .	c #4395DE",
"D .	c #4192DD",
"E .	c #4597E0",
"F .	c #4898E1",
"G .	c #489BE3",
"H .	c #469BE4",
"I .	c #459CE5",
"J .	c #439BE4",
"K .	c #449EE5",
"L .	c #44A5E5",
"M .	c #41A3E3",
"N .	c #175FB9",
"O .	c #1857B0",
"P .	c #062F82",
"Q .	c #002678",
"R .	c #00206D",
"S .	c #001756",
"T .	c #000A25",
"U .	c #00226C",
"V .	c #002780",
"W .	c #00277E",
"X .	c #002880",
"Y .	c #002F8D",
"Z .	c #003191",
"` .	c #003192",
" ..	c #003495",
"...	c #000826",
"+..	c #001642",
"@..	c #00287D",
"#..	c #003091",
"$..	c #003194",
"%..	c #000316",
"&..	c #003699",
"*..	c #030104",
"=..	c #043165",
"-..	c #01142A",
";..	c #012A5F",
">..	c #00174C",
",..	c #003193",
"'..	c #00226E",
")..	c #000E30",
"!..	c #002471",
"~..	c #002E8D",
"{..	c #002D8C",
"]..	c #002B84",
"^..	c #00144D",
"/..	c #001E5A",
"(..	c #002B87",
"_..	c #003494",
":..	c #003496",
"<..	c #001856",
"[..	c #000820",
"}..	c #090200",
"|..	c #7D2700",
"1..	c #7F2800",
"2..	c #842B00",
"3..	c #6F1C00",
"4..	c #761F00",
"5..	c #902D00",
"6..	c #9B3600",
"7..	c #953000",
"8..	c #942F00",
"9..	c #943000",
"0..	c #973100",
"a..	c #973200",
"b..	c #983300",
"c..	c #963300",
"d..	c #6F2000",
"e..	c #6E2300",
"f..	c #310D00",
"g..	c #632000",
"h..	c #9F3800",
"i..	c #9E3700",
"j..	c #9C3600",
"k..	c #9D3500",
"l..	c #9E3500",
"m..	c #9F3600",
"n..	c #9E3600",
"o..	c #9C3500",
"p..	c #9A3300",
"q..	c #902C00",
"r..	c #782100",
"s..	c #250900",
"t..	c #9B3400",
"u..	c #9F3700",
"v..	c #973301",
"w..	c #953202",
"x..	c #6B1D00",
"y..	c #491200",
"z..	c #090100",
"A..	c #591A00",
"B..	c #892A00",
"C..	c #9A3200",
"D..	c #9C3400",
"E..	c #812700",
"F..	c #7B2500",
"G..	c #752301",
"H..	c #651A00",
"I..	c #571600",
"J..	c #721F00",
"K..	c #B24500",
"L..	c #BF5902",
"M..	c #DE8201",
"N..	c #E68B05",
"O..	c #E7990D",
"P..	c #E69A0B",
"Q..	c #E69908",
"R..	c #E48904",
"S..	c #E27501",
"T..	c #F39C09",
"U..	c #EF9D06",
"V..	c #7A5404",
"W..	c #020D1A",
"X..	c #092E55",
"Y..	c #01070C",
"Z..	c #052535",
"`..	c #167AAA",
" +.	c #1574A4",
".+.	c #00031B",
"++.	c #052B5E",
"@+.	c #2497E8",
"#+.	c #37ACF1",
"$+.	c #4FC3F9",
"%+.	c #1057BC",
"&+.	c #013EAB",
"*+.	c #0E7FDB",
"=+.	c #11A1F3",
"-+.	c #3CC6F8",
";+.	c #49CFFA",
">+.	c #209AD9",
",+.	c #011A36",
"'+.	c #023662",
")+.	c #0582DB",
"!+.	c #0877D8",
"~+.	c #041219",
"{+.	c #04131C",
"]+.	c #1172A4",
"^+.	c #1F9BD3",
"/+.	c #073F77",
"(+.	c #051D43",
"_+.	c #01132C",
":+.	c #021425",
"<+.	c #000710",
"[+.	c #034480",
"}+.	c #0773D7",
"|+.	c #1188E1",
"1+.	c #26C1FA",
"2+.	c #1AADF1",
"3+.	c #0251BC",
"4+.	c #0C54BA",
"5+.	c #479EE6",
"6+.	c #5FC2FA",
"7+.	c #165AB6",
"8+.	c #0B4190",
"9+.	c #02122C",
"0+.	c #051925",
"a+.	c #1973A1",
"b+.	c #99A7B3",
"c+.	c #9AC4E8",
"d+.	c #4EA5E9",
"e+.	c #469FE8",
"f+.	c #2A78CD",
"g+.	c #195DB2",
"h+.	c #1655A8",
"i+.	c #2265B4",
"j+.	c #3178C1",
"k+.	c #2268BC",
"l+.	c #0E52AF",
"m+.	c #0F479D",
"n+.	c #0E3C8D",
"o+.	c #063488",
"p+.	c #053387",
"q+.	c #05348C",
"r+.	c #06358F",
"s+.	c #073792",
"t+.	c #073996",
"u+.	c #073B97",
"v+.	c #073B95",
"w+.	c #083C97",
"x+.	c #0A4298",
"y+.	c #094197",
"z+.	c #002D86",
"A+.	c #002A82",
"B+.	c #002073",
"C+.	c #001E6E",
"D+.	c #002479",
"E+.	c #001246",
"F+.	c #00226A",
"G+.	c #002F92",
"H+.	c #003498",
"I+.	c #00359B",
"J+.	c #00113E",
"K+.	c #002773",
"L+.	c #003397",
"M+.	c #03010E",
"N+.	c #002A75",
"O+.	c #003BA1",
"P+.	c #003799",
"Q+.	c #003798",
"R+.	c #003698",
"S+.	c #03356D",
"T+.	c #01162F",
"U+.	c #001734",
"V+.	c #022D61",
"W+.	c #001540",
"X+.	c #002E89",
"Y+.	c #00318E",
"Z+.	c #00318D",
"`+.	c #002C8B",
" @.	c #00236F",
".@.	c #002B83",
"+@.	c #003290",
"@@.	c #00308C",
"#@.	c #170800",
"$@.	c #4C1200",
"%@.	c #541500",
"&@.	c #AB3D00",
"*@.	c #AA3C00",
"=@.	c #AB3C00",
"-@.	c #A93B00",
";@.	c #A73A00",
">@.	c #A73900",
",@.	c #A63900",
"'@.	c #A83C00",
")@.	c #A63B00",
"!@.	c #A13900",
"~@.	c #7F2A00",
"{@.	c #4D1200",
"]@.	c #290A00",
"^@.	c #692400",
"/@.	c #AC3F00",
"(@.	c #AD3F00",
"_@.	c #A83A00",
":@.	c #A53800",
"<@.	c #A23700",
"[@.	c #9D3400",
"}@.	c #3B1000",
"|@.	c #682200",
"1@.	c #A83900",
"2@.	c #A53900",
"3@.	c #A73B00",
"4@.	c #A53B00",
"5@.	c #A23A01",
"6@.	c #220800",
"7@.	c #7E2A00",
"8@.	c #AF3E00",
"9@.	c #B03F00",
"0@.	c #B14000",
"a@.	c #A93E00",
"b@.	c #A53C00",
"c@.	c #9E3800",
"d@.	c #973601",
"e@.	c #913201",
"f@.	c #7E2901",
"g@.	c #0E0300",
"h@.	c #691F00",
"i@.	c #8D3001",
"j@.	c #913400",
"k@.	c #993C01",
"l@.	c #9A3C01",
"m@.	c #903B03",
"n@.	c #8A3702",
"o@.	c #863601",
"p@.	c #853200",
"q@.	c #862F00",
"r@.	c #B06007",
"s@.	c #BC6F08",
"t@.	c #633902",
"u@.	c #082A4F",
"v@.	c #00060B",
"w@.	c #041823",
"x@.	c #031925",
"y@.	c #001435",
"z@.	c #0549AA",
"A@.	c #1478CF",
"B@.	c #22A6F4",
"C@.	c #0757BB",
"D@.	c #0047B0",
"E@.	c #035DC9",
"F@.	c #056CD9",
"G@.	c #1099EE",
"H@.	c #12A2F4",
"I@.	c #0973D2",
"J@.	c #01439E",
"K@.	c #00429D",
"L@.	c #0146A1",
"M@.	c #023881",
"N@.	c #18679B",
"O@.	c #1C71A9",
"P@.	c #01101B",
"Q@.	c #167BAF",
"R@.	c #1EA6EC",
"S@.	c #064E9E",
"T@.	c #05245C",
"U@.	c #00040A",
"V@.	c #02121C",
"W@.	c #064C7C",
"X@.	c #044E86",
"Y@.	c #2E7D9A",
"Z@.	c #287195",
"`@.	c #0E66B7",
" #.	c #0167D7",
".#.	c #0169D4",
"+#.	c #0892E4",
"@#.	c #0999E6",
"##.	c #003BA3",
"$#.	c #0D4CAD",
"%#.	c #4C9DE3",
"&#.	c #68C4FB",
"*#.	c #0C43A4",
"=#.	c #002B7F",
"-#.	c #051D2B",
";#.	c #1A7AAA",
">#.	c #183261",
",#.	c #16418D",
"'#.	c #093D93",
")#.	c #093D97",
"!#.	c #03308A",
"~#.	c #012B85",
"{#.	c #002782",
"]#.	c #01277E",
"^#.	c #02297F",
"/#.	c #012C84",
"(#.	c #002A83",
"_#.	c #002980",
":#.	c #00277F",
"<#.	c #002E8F",
"[#.	c #00237A",
"}#.	c #001E70",
"|#.	c #001A5E",
"1#.	c #000925",
"2#.	c #002263",
"3#.	c #003391",
"4#.	c #00318A",
"5#.	c #00328E",
"6#.	c #003390",
"7#.	c #00113B",
"8#.	c #002872",
"9#.	c #002B7E",
"0#.	c #002A7D",
"a#.	c #002978",
"b#.	c #002772",
"c#.	c #00256D",
"d#.	c #00256B",
"e#.	c #00246A",
"f#.	c #002369",
"g#.	c #002367",
"h#.	c #00215B",
"i#.	c #003080",
"j#.	c #00286D",
"k#.	c #002669",
"l#.	c #00266A",
"m#.	c #002366",
"n#.	c #00215F",
"o#.	c #002262",
"p#.	c #001F61",
"q#.	c #001D5A",
"r#.	c #00040B",
"s#.	c #023167",
"t#.	c #00142B",
"u#.	c #001631",
"v#.	c #022959",
"w#.	c #002F81",
"x#.	c #002878",
"y#.	c #002267",
"z#.	c #001F5E",
"A#.	c #001E5B",
"B#.	c #001F5F",
"C#.	c #002163",
"D#.	c #002265",
"E#.	c #002164",
"F#.	c #002161",
"G#.	c #00205F",
"H#.	c #002363",
"I#.	c #00236C",
"J#.	c #001D55",
"K#.	c #001D54",
"L#.	c #001B52",
"M#.	c #001C52",
"N#.	c #001D57",
"O#.	c #001C57",
"P#.	c #001C56",
"Q#.	c #001C55",
"R#.	c #00194E",
"S#.	c #00184E",
"T#.	c #00194F",
"U#.	c #001A53",
"V#.	c #001B55",
"W#.	c #001E5D",
"X#.	c #001C5B",
"Y#.	c #001647",
"Z#.	c #002061",
"`#.	c #00215E",
" $.	c #002261",
".$.	c #001F60",
"+$.	c #002469",
"@$.	c #001F5B",
"#$.	c #1A0400",
"$$.	c #702400",
"%$.	c #A73C00",
"&$.	c #A83D00",
"*$.	c #AA3D00",
"=$.	c #AC3D00",
"-$.	c #A43A00",
";$.	c #A43B00",
">$.	c #A43C00",
",$.	c #A53D00",
"'$.	c #6B2400",
")$.	c #1C0600",
"!$.	c #4C1800",
"~$.	c #772900",
"{$.	c #722800",
"]$.	c #762900",
"^$.	c #752800",
"/$.	c #732600",
"($.	c #702500",
"_$.	c #6D2400",
":$.	c #6E2400",
"<$.	c #742600",
"[$.	c #872B00",
"}$.	c #270A00",
"|$.	c #4E1800",
"1$.	c #852C00",
"2$.	c #852D00",
"3$.	c #852E00",
"4$.	c #872D00",
"5$.	c #862D00",
"6$.	c #8D3000",
"7$.	c #8A2F00",
"8$.	c #8C3100",
"9$.	c #9D3800",
"0$.	c #AA3E01",
"a$.	c #822E00",
"b$.	c #B74400",
"c$.	c #BC4600",
"d$.	c #BD4600",
"e$.	c #B74300",
"f$.	c #A83E00",
"g$.	c #A73E00",
"h$.	c #8F3300",
"i$.	c #250B00",
"j$.	c #872E00",
"k$.	c #9A3600",
"l$.	c #8B2E01",
"m$.	c #762200",
"n$.	c #752000",
"o$.	c #762000",
"p$.	c #741F00",
"q$.	c #762100",
"r$.	c #711F00",
"s$.	c #370D00",
"t$.	c #020D1B",
"u$.	c #082E56",
"v$.	c #1575CB",
"w$.	c #31B3F9",
"x$.	c #0981DF",
"y$.	c #006CD1",
"z$.	c #005DC7",
"A$.	c #0059C6",
"B$.	c #0284E0",
"C$.	c #0180E2",
"D$.	c #0165CE",
"E$.	c #0052C1",
"F$.	c #116CCB",
"G$.	c #3596D8",
"H$.	c #2A7EB2",
"I$.	c #06171D",
"J$.	c #123C53",
"K$.	c #07131A",
"L$.	c #020508",
"M$.	c #1A7ABD",
"N$.	c #1F89CF",
"O$.	c #021422",
"P$.	c #00070F",
"Q$.	c #0F3448",
"R$.	c #3FB3D8",
"S$.	c #6BCBE9",
"T$.	c #DEEEF5",
"U$.	c #ECF4F7",
"V$.	c #EBF9FC",
"W$.	c #ECF8FC",
"X$.	c #91DBF4",
"Y$.	c #52C8F4",
"Z$.	c #2781C7",
"`$.	c #013B96",
" %.	c #002074",
".%.	c #0143A1",
"+%.	c #0D87E3",
"@%.	c #17A3F5",
"#%.	c #043B9D",
"$%.	c #002072",
"%%.	c #062130",
"&%.	c #2183B4",
"*%.	c #030306",
"=%.	c #030103",
"-%.	c #003491",
";%.	c #002B81",
">%.	c #000B29",
",%.	c #001845",
"'%.	c #001D56",
")%.	c #001849",
"!%.	c #000913",
"~%.	c #03346E",
"{%.	c #00122A",
"]%.	c #013779",
"^%.	c #032D62",
"/%.	c #000417",
"(%.	c #0C0200",
"_%.	c #0F0400",
":%.	c #180700",
"<%.	c #3D1300",
"[%.	c #521800",
"}%.	c #511800",
"|%.	c #641E00",
"1%.	c #A13B00",
"2%.	c #A73D00",
"3%.	c #B04300",
"4%.	c #883200",
"5%.	c #3C1200",
"6%.	c #A03700",
"7%.	c #AD3D00",
"8%.	c #AE3E00",
"9%.	c #AB3B00",
"0%.	c #A63A00",
"a%.	c #A23800",
"b%.	c #A53A00",
"c%.	c #A43900",
"d%.	c #431000",
"e%.	c #021020",
"f%.	c #093663",
"g%.	c #0A2F3D",
"h%.	c #3095BF",
"i%.	c #3CA4D3",
"j%.	c #010E13",
"k%.	c #023363",
"l%.	c #001022",
"m%.	c #00247A",
"n%.	c #1167B5",
"o%.	c #31B3F3",
"p%.	c #0D75D9",
"q%.	c #005ECF",
"r%.	c #001D73",
"s%.	c #013EA2",
"t%.	c #3093D2",
"u%.	c #61CAF2",
"v%.	c #A5E1F6",
"w%.	c #F1FAFD",
"x%.	c #F2FAFD",
"y%.	c #F2F8F8",
"z%.	c #E7F5F9",
"A%.	c #78CAEB",
"B%.	c #41ABD7",
"C%.	c #0D2A3B",
"D%.	c #000810",
"E%.	c #051C2C",
"F%.	c #1880BB",
"G%.	c #50B4EA",
"H%.	c #D8EFFA",
"I%.	c #EFF9FE",
"J%.	c #97DEF9",
"K%.	c #97DDF9",
"L%.	c #B1E8FA",
"M%.	c #C1ECFA",
"N%.	c #69A1D6",
"O%.	c #0640A3",
"P%.	c #002781",
"Q%.	c #003DA0",
"R%.	c #0261C8",
"S%.	c #066BCD",
"T%.	c #012D85",
"U%.	c #001A62",
"V%.	c #041E2C",
"W%.	c #1B7AAC",
"X%.	c #001338",
"Y%.	c #002C7D",
"Z%.	c #002D7D",
"`%.	c #002C7F",
" &.	c #002B7C",
".&.	c #002672",
"+&.	c #00256E",
"@&.	c #002467",
"#&.	c #001641",
"$&.	c #000A22",
"%&.	c #001436",
"&&.	c #012E66",
"*&.	c #001841",
"=&.	c #001C4D",
"-&.	c #010F2A",
";&.	c #010F23",
">&.	c #032E64",
",&.	c #011948",
"'&.	c #01153E",
")&.	c #000F26",
"!&.	c #0B0100",
"~&.	c #561D00",
"{&.	c #571E00",
"]&.	c #581F00",
"^&.	c #411500",
"/&.	c #3E1400",
"(&.	c #983400",
"_&.	c #9D3600",
":&.	c #A83B00",
"<&.	c #A93C00",
"[&.	c #5F1A00",
"}&.	c #2C0900",
"|&.	c #010F1D",
"1&.	c #063461",
"2&.	c #05263D",
"3&.	c #1A7AC4",
"4&.	c #278BD9",
"5&.	c #000A11",
"6&.	c #000D17",
"7&.	c #034C8F",
"8&.	c #011A38",
"9&.	c #000B2C",
"0&.	c #002684",
"a&.	c #044EA8",
"b&.	c #0A70CA",
"c&.	c #0243A5",
"d&.	c #0040A5",
"e&.	c #002679",
"f&.	c #001764",
"g&.	c #0644AA",
"h&.	c #81B0DB",
"i&.	c #E4F5FA",
"j&.	c #C9EDFA",
"k&.	c #8FD7F8",
"l&.	c #BDEEFC",
"m&.	c #AFE5FA",
"n&.	c #49A7E0",
"o&.	c #061D30",
"p&.	c #30353A",
"q&.	c #AABDCD",
"r&.	c #A5D5EF",
"s&.	c #70D0F8",
"t&.	c #6BCEF8",
"u&.	c #1E8CDE",
"v&.	c #1F88DE",
"w&.	c #5EBBEF",
"x&.	c #88DCFA",
"y&.	c #99D2F2",
"z&.	c #A7C1E3",
"A&.	c #284683",
"B&.	c #001554",
"C&.	c #00328C",
"D&.	c #001A5D",
"E&.	c #001655",
"F&.	c #000E3E",
"G&.	c #00092C",
"H&.	c #010C12",
"I&.	c #0D4A70",
"J&.	c #052034",
"K&.	c #003C8B",
"L&.	c #0050B3",
"M&.	c #002C87",
"N&.	c #002C86",
"O&.	c #002166",
"P&.	c #001135",
"Q&.	c #001236",
"R&.	c #023169",
"S&.	c #011E4B",
"T&.	c #01295D",
"U&.	c #001636",
"V&.	c #003A7C",
"W&.	c #044D9A",
"X&.	c #093C72",
"Y&.	c #003879",
"Z&.	c #011733",
"`&.	c #031C3E",
" *.	c #04438F",
".*.	c #101111",
"+*.	c #000C27",
"@*.	c #02275D",
"#*.	c #021D44",
"$*.	c #011737",
"%*.	c #03377B",
"&*.	c #033577",
"**.	c #033779",
"=*.	c #001027",
"-*.	c #022250",
";*.	c #022C61",
">*.	c #013474",
",*.	c #011533",
"'*.	c #094583",
")*.	c #022552",
"!*.	c #042452",
"~*.	c #010C1C",
"{*.	c #0F0500",
"]*.	c #250C00",
"^*.	c #260D00",
"/*.	c #260C00",
"(*.	c #270C00",
"_*.	c #300E00",
":*.	c #531A00",
"<*.	c #722600",
"[*.	c #712500",
"}*.	c #AA3900",
"|*.	c #022A56",
"1*.	c #021D3E",
"2*.	c #00080F",
"3*.	c #041A32",
"4*.	c #08203A",
"5*.	c #074A72",
"6*.	c #066199",
"7*.	c #025197",
"8*.	c #000823",
"9*.	c #001C6E",
"0*.	c #002881",
"a*.	c #003592",
"b*.	c #001B5A",
"c*.	c #001447",
"d*.	c #010F3C",
"e*.	c #034898",
"f*.	c #4093D6",
"g*.	c #90D1F2",
"h*.	c #91DDFB",
"i*.	c #5DB5E9",
"j*.	c #1475D1",
"k*.	c #1A7DD9",
"l*.	c #47C2F6",
"m*.	c #47C1F7",
"n*.	c #93C8E8",
"o*.	c #B0C4D8",
"p*.	c #353F46",
"q*.	c #020E12",
"r*.	c #177BA3",
"s*.	c #54A7CB",
"t*.	c #C6ECF8",
"u*.	c #A9E7FC",
"v*.	c #47C5F8",
"w*.	c #39BDF7",
"x*.	c #0771D5",
"y*.	c #0872D7",
"z*.	c #39ACEC",
"A*.	c #5CD4FB",
"B*.	c #A0E4FC",
"C*.	c #F1FAFC",
"D*.	c #609DD0",
"E*.	c #5493D0",
"F*.	c #2B5EA7",
"G*.	c #002D87",
"H*.	c #00195D",
"I*.	c #001959",
"J*.	c #000D3B",
"K*.	c #09304B",
"L*.	c #1877B6",
"M*.	c #041524",
"N*.	c #00336F",
"O*.	c #004391",
"P*.	c #034691",
"Q*.	c #032554",
"R*.	c #033472",
"S*.	c #010E1F",
"T*.	c #001A42",
"U*.	c #00102B",
"V*.	c #011534",
"W*.	c #032E5C",
"X*.	c #053263",
"Y*.	c #062850",
"Z*.	c #00204C",
"`*.	c #020B18",
" =.	c #062957",
".=.	c #010B1F",
"+=.	c #C5C6C6",
"@=.	c #E6E6E5",
"#=.	c #080807",
"$=.	c #020F26",
"%=.	c #002964",
"&=.	c #030718",
"*=.	c #022657",
"==.	c #022048",
"-=.	c #03336F",
";=.	c #0455B0",
">=.	c #010F25",
",=.	c #00163A",
"'=.	c #03316E",
")=.	c #064490",
"!=.	c #032755",
"~=.	c #0A386D",
"{=.	c #021836",
"]=.	c #022F68",
"^=.	c #07428A",
"/=.	c #041E3C",
"(=.	c #150200",
"_=.	c #220900",
":=.	c #062B50",
"<=.	c #0D63B4",
"[=.	c #0C74B7",
"}=.	c #0D89D8",
"|=.	c #012B57",
"1=.	c #00051C",
"2=.	c #001560",
"3=.	c #002178",
"4=.	c #001963",
"5=.	c #071F5E",
"6=.	c #508FBA",
"7=.	c #75C5E5",
"8=.	c #3EAAE1",
"9=.	c #8EE1FC",
"0=.	c #61D5FC",
"a=.	c #35A2E3",
"b=.	c #0158C1",
"c=.	c #0765C9",
"d=.	c #26B6F8",
"e=.	c #36BAF9",
"f=.	c #ACE6FB",
"g=.	c #D7F3FA",
"h=.	c #498DAC",
"i=.	c #0F6287",
"j=.	c #021218",
"k=.	c #040F13",
"l=.	c #0B2430",
"m=.	c #0D2631",
"n=.	c #0F2732",
"o=.	c #112932",
"p=.	c #1D2E34",
"q=.	c #233D45",
"r=.	c #46B4DA",
"s=.	c #51C2F0",
"t=.	c #63BAEA",
"u=.	c #53B2E7",
"v=.	c #2292DE",
"w=.	c #2192E0",
"x=.	c #0358C0",
"y=.	c #0456BE",
"z=.	c #1F88D8",
"A=.	c #2FABEB",
"B=.	c #57B9EE",
"C=.	c #93CFF3",
"D=.	c #C8EBF9",
"E=.	c #97B5D8",
"F=.	c #275BAA",
"G=.	c #134FA7",
"H=.	c #28649F",
"I=.	c #2B83CE",
"J=.	c #0A3A8B",
"K=.	c #001A5B",
"L=.	c #041A2A",
"M=.	c #10517F",
"N=.	c #0E3E6A",
"O=.	c #030E1F",
"P=.	c #010E21",
"Q=.	c #052B5C",
"R=.	c #062B5D",
"S=.	c #083167",
"T=.	c #09366F",
"U=.	c #09346A",
"V=.	c #083263",
"W=.	c #053064",
"X=.	c #010A17",
"Y=.	c #021733",
"Z=.	c #0C4A96",
"`=.	c #0C4C9D",
" -.	c #0B4C9C",
".-.	c #0B4B99",
"+-.	c #0B4B9D",
"@-.	c #0A4C9F",
"#-.	c #0C54A9",
"$-.	c #0E58B0",
"%-.	c #0E52A1",
"&-.	c #104C97",
"*-.	c #0F4B96",
"=-.	c #0E4D9A",
"--.	c #0E4F9E",
";-.	c #1151A1",
">-.	c #1352A1",
",-.	c #0D4C95",
"'-.	c #072A56",
")-.	c #0F4E9B",
"!-.	c #1254A0",
"~-.	c #1154A0",
"{-.	c #1254A1",
"]-.	c #1355A2",
"^-.	c #1354A1",
"/-.	c #1253A0",
"(-.	c #12539F",
"_-.	c #12529F",
":-.	c #11519D",
"<-.	c #11539E",
"[-.	c #1054A2",
"}-.	c #0F54A5",
"|-.	c #0E51A0",
"1-.	c #0F4D96",
"2-.	c #0D4991",
"3-.	c #0C488C",
"4-.	c #0E4A90",
"5-.	c #082D5C",
"6-.	c #052146",
"7-.	c #1150A3",
"8-.	c #0F4FA1",
"9-.	c #0E509E",
"0-.	c #10519C",
"a-.	c #11519C",
"b-.	c #12519C",
"c-.	c #13539E",
"d-.	c #1455A1",
"e-.	c #1456A4",
"f-.	c #1255A5",
"g-.	c #1053A1",
"h-.	c #10509B",
"i-.	c #105099",
"j-.	c #10509A",
"k-.	c #0F519E",
"l-.	c #0F52A1",
"m-.	c #1152A0",
"n-.	c #0A3469",
"o-.	c #104383",
"p-.	c #1354A2",
"q-.	c #13519D",
"r-.	c #114F97",
"s-.	c #104D93",
"t-.	c #114C90",
"u-.	c #114A8C",
"v-.	c #0F498C",
"w-.	c #0F498D",
"x-.	c #0F4A8E",
"y-.	c #0F4A90",
"z-.	c #0E4A91",
"A-.	c #0D488E",
"B-.	c #0D478A",
"C-.	c #0D4789",
"D-.	c #053060",
"E-.	c #3F4043",
"F-.	c #707478",
"G-.	c #94A8B7",
"H-.	c #A1B4C0",
"I-.	c #6A6D6E",
"J-.	c #393B3B",
"K-.	c #072F5F",
"L-.	c #08366E",
"M-.	c #02193A",
"N-.	c #1256AB",
"O-.	c #1356A5",
"P-.	c #12549E",
"Q-.	c #11519A",
"R-.	c #11529D",
"S-.	c #10519B",
"T-.	c #11509A",
"U-.	c #12519B",
"V-.	c #13529C",
"W-.	c #13519C",
"X-.	c #13529A",
"Y-.	c #14529B",
"Z-.	c #14539D",
"`-.	c #16539C",
" ;.	c #15539D",
".;.	c #15549E",
"+;.	c #15559E",
"@;.	c #15559F",
"#;.	c #14549D",
"$;.	c #135198",
"%;.	c #114E94",
"&;.	c #0F4B91",
"*;.	c #0D4B91",
"=;.	c #0E4F9B",
"-;.	c #0A4C96",
";;.	c #0B3670",
">;.	c #13519B",
",;.	c #134E94",
"';.	c #124D90",
");.	c #114D91",
"!;.	c #114D92",
"~;.	c #114D93",
"{;.	c #134D92",
"];.	c #134C8F",
"^;.	c #144E90",
"/;.	c #144F90",
"(;.	c #124E90",
"_;.	c #114C8F",
":;.	c #114D90",
"<;.	c #124E94",
"[;.	c #135197",
"};.	c #134D90",
"|;.	c #062343",
"1;.	c #16529E",
"2;.	c #1758A8",
"3;.	c #1556A4",
"4;.	c #15549F",
"5;.	c #14519C",
"6;.	c #13509A",
"7;.	c #15519B",
"8;.	c #15529B",
"9;.	c #14529D",
"0;.	c #11519E",
"a;.	c #1154A6",
"b;.	c #1257AA",
"c;.	c #0A4C94",
"d;.	c #01172E",
"e;.	c #072F65",
"f;.	c #0D4081",
"g;.	c #0B4183",
"h;.	c #0C4588",
"i;.	c #0C458C",
"j;.	c #0B438B",
"k;.	c #0A4287",
"l;.	c #0B4184",
"m;.	c #0C3D7B",
"n;.	c #0D3D7B",
"o;.	c #0B3B77",
"p;.	c #0A3873",
"q;.	c #083368",
"r;.	c #093164",
"s;.	c #031022",
"t;.	c #011C41",
"u;.	c #062141",
"v;.	c #08305B",
"w;.	c #093F73",
"x;.	c #01070D",
"y;.	c #051E31",
"z;.	c #113D5B",
"A;.	c #3488BD",
"B;.	c #08548C",
"C;.	c #01142E",
"D;.	c #001140",
"E;.	c #0B2D72",
"F;.	c #17549E",
"G;.	c #023FA4",
"H;.	c #234A8E",
"I;.	c #335790",
"J;.	c #8CBADA",
"K;.	c #B3E7FB",
"L;.	c #97D8F7",
"M;.	c #99D6F7",
"N;.	c #53AEE6",
"O;.	c #2B90DA",
"P;.	c #1C78CF",
"Q;.	c #004AB4",
"R;.	c #0451B6",
"S;.	c #158BDD",
"T;.	c #1B8CDD",
"U;.	c #59B3EA",
"V;.	c #71C1EE",
"W;.	c #4EB9E8",
"X;.	c #47B6E2",
"Y;.	c #224452",
"Z;.	c #1A2B34",
"`;.	c #0E2430",
" >.	c #0A2231",
".>.	c #092232",
"+>.	c #082233",
"@>.	c #144659",
"#>.	c #35A8D7",
"$>.	c #3EACDB",
"%>.	c #46B2DE",
"&>.	c #50B7DF",
"*>.	c #82CAE2",
"=>.	c #88CFE5",
"->.	c #8AE1FA",
";>.	c #5BC4F0",
">>.	c #0171CF",
",>.	c #0053BF",
"'>.	c #0051C1",
")>.	c #002E98",
"!>.	c #002990",
"~>.	c #004BB2",
"{>.	c #015FC9",
"]>.	c #0675D7",
"^>.	c #0F93EA",
"/>.	c #8ED6F6",
"(>.	c #C4EFFC",
"_>.	c #D5EFFA",
":>.	c #A3D5EF",
"<>.	c #8CD0EE",
"[>.	c #7BE3FB",
"}>.	c #66C6EA",
"|>.	c #174FA7",
"1>.	c #041C32",
"2>.	c #1875C4",
"3>.	c #051C35",
"4>.	c #053D7B",
"5>.	c #032857",
"6>.	c #021125",
"7>.	c #020E1F",
"8>.	c #010D1E",
"9>.	c #010D20",
"0>.	c #031226",
"a>.	c #031225",
"b>.	c #021123",
"c>.	c #021838",
"d>.	c #052E65",
"e>.	c #072E61",
"f>.	c #083064",
"g>.	c #083166",
"h>.	c #083165",
"i>.	c #083163",
"j>.	c #083063",
"k>.	c #04182E",
"l>.	c #05234C",
"m>.	c #04234C",
"n>.	c #04234B",
"o>.	c #042148",
"p>.	c #032044",
"q>.	c #032146",
"r>.	c #042349",
"s>.	c #021429",
"t>.	c #020E20",
"u>.	c #010F21",
"v>.	c #010F22",
"w>.	c #021124",
"x>.	c #021227",
"y>.	c #011021",
"z>.	c #010C1B",
"A>.	c #020B1B",
"B>.	c #010A18",
"C>.	c #010814",
"D>.	c #010813",
"E>.	c #909496",
"F>.	c #CDD4D7",
"G>.	c #293B4A",
"H>.	c #101E28",
"I>.	c #E8EAEA",
"J>.	c #848786",
"K>.	c #010914",
"L>.	c #010B1A",
"M>.	c #010B19",
"N>.	c #010B18",
"O>.	c #010A16",
"P>.	c #010A14",
"Q>.	c #041937",
"R>.	c #082C5D",
"S>.	c #072A57",
"T>.	c #062A55",
"U>.	c #072A55",
"V>.	c #072956",
"W>.	c #072A58",
"X>.	c #092E5F",
"Y>.	c #082E5F",
"Z>.	c #072E5E",
"`>.	c #062B5B",
" ,.	c #020C19",
".,.	c #01275B",
"+,.	c #02132A",
"@,.	c #020B15",
"#,.	c #0D5096",
"$,.	c #093360",
"%,.	c #0C558D",
"&,.	c #31A1EA",
"*,.	c #65A1C8",
"=,.	c #1E64AD",
"-,.	c #3BACE9",
";,.	c #0A61CE",
">,.	c #B1DBF4",
",,.	c #D3ECFA",
"',.	c #F3F9FC",
"),.	c #56BAF2",
"!,.	c #17A0EE",
"~,.	c #0865C4",
"{,.	c #003BA9",
"],.	c #0036A0",
"^,.	c #002D8F",
"/,.	c #003398",
"(,.	c #0052BF",
"_,.	c #0054C0",
":,.	c #0272D3",
"<,.	c #027BDB",
"[,.	c #54BEF1",
"},.	c #8AE2FB",
"|,.	c #7CC5E0",
"1,.	c #7BC0DD",
"2,.	c #44A4D8",
"3,.	c #319AD9",
"4,.	c #2A98D9",
"5,.	c #2798DA",
"6,.	c #124F72",
"7,.	c #0A2D38",
"8,.	c #1E6A85",
"9,.	c #216A84",
"0,.	c #287694",
"a,.	c #2EA5DD",
"b,.	c #46B3E8",
"c,.	c #4AB4E9",
"d,.	c #39A0E4",
"e,.	c #288CDA",
"f,.	c #035ABB",
"g,.	c #0051B2",
"h,.	c #003EA1",
"i,.	c #003C9E",
"j,.	c #00399A",
"k,.	c #003A9A",
"l,.	c #003898",
"m,.	c #024AAB",
"n,.	c #076ACE",
"o,.	c #45A7E6",
"p,.	c #5FC0F3",
"q,.	c #84D4F8",
"r,.	c #ADEBFC",
"s,.	c #B5ECFB",
"t,.	c #45BDF7",
"u,.	c #37ADEE",
"v,.	c #4895D0",
"w,.	c #498DC3",
"x,.	c #0E5A8D",
"y,.	c #094374",
"z,.	c #011643",
"A,.	c #010A12",
"B,.	c #082E4D",
"C,.	c #08325F",
"D,.	c #072D56",
"E,.	c #000F28",
"F,.	c #041531",
"G,.	c #05142E",
"H,.	c #04132A",
"I,.	c #051D3B",
"J,.	c #062246",
"K,.	c #06356C",
"L,.	c #0A3D78",
"M,.	c #0A386C",
"N,.	c #083569",
"O,.	c #08396F",
"P,.	c #042A58",
"Q,.	c #05305F",
"R,.	c #0A4D9A",
"S,.	c #0D55A8",
"T,.	c #0D4F9C",
"U,.	c #0B4E9E",
"V,.	c #0B52A7",
"W,.	c #0C55AF",
"X,.	c #0D57B0",
"Y,.	c #0E57B0",
"Z,.	c #0E58AE",
"`,.	c #083469",
" '.	c #47778D",
".'.	c #7FBEDC",
"+'.	c #6B8089",
"@'.	c #66787F",
"#'.	c #89C4E6",
"$'.	c #4B6F85",
"%'.	c #000D21",
"&'.	c #062852",
"*'.	c #0D4E9A",
"='.	c #115BB2",
"-'.	c #1355A3",
";'.	c #10519E",
">'.	c #0E468A",
",'.	c #0E3E78",
"''.	c #0F3D76",
")'.	c #0F3F79",
"!'.	c #0C3973",
"~'.	c #073469",
"{'.	c #05254D",
"]'.	c #01193A",
"^'.	c #05336B",
"/'.	c #020B1A",
"('.	c #062D5D",
"_'.	c #08386F",
":'.	c #051F39",
"<'.	c #173A5B",
"['.	c #416972",
"}'.	c #416F79",
"|'.	c #0E5FAA",
"1'.	c #166BC4",
"2'.	c #173A77",
"3'.	c #023C6E",
"4'.	c #09579C",
"5'.	c #2583C7",
"6'.	c #2EAAE6",
"7'.	c #59BDEF",
"8'.	c #74A7E1",
"9'.	c #ABE4F9",
"0'.	c #A8E4FA",
"a'.	c #86C8F2",
"b'.	c #7ABAEB",
"c'.	c #2C8BD7",
"d'.	c #0C73CC",
"e'.	c #0449A5",
"f'.	c #003D9D",
"g'.	c #0040A7",
"h'.	c #0042AD",
"i'.	c #0153BB",
"j'.	c #0257C0",
"k'.	c #2D84D5",
"l'.	c #469CE0",
"m'.	c #47AEEA",
"n'.	c #47A9E3",
"o'.	c #2482C5",
"p'.	c #1C6CA3",
"q'.	c #175E84",
"r'.	c #155E81",
"s'.	c #093041",
"t'.	c #001826",
"u'.	c #0A7BC2",
"v'.	c #088ADF",
"w'.	c #078AE1",
"x'.	c #0061CD",
"y'.	c #004BB8",
"z'.	c #002987",
"A'.	c #002884",
"B'.	c #004EA9",
"C'.	c #0054B4",
"D'.	c #003999",
"E'.	c #002686",
"F'.	c #00389E",
"G'.	c #004DBF",
"H'.	c #0583E4",
"I'.	c #069BF3",
"J'.	c #30B8F5",
"K'.	c #67DDFC",
"L'.	c #73DEFC",
"M'.	c #28A5F3",
"N'.	c #2DABF4",
"O'.	c #84E1FA",
"P'.	c #87E6FB",
"Q'.	c #14ADF2",
"R'.	c #1085D6",
"S'.	c #023297",
"T'.	c #0E508F",
"U'.	c #0E59A2",
"V'.	c #02101F",
"W'.	c #010D25",
"X'.	c #000A1A",
"Y'.	c #0651A5",
"Z'.	c #0E67CA",
"`'.	c #126AD2",
" ).	c #136BD6",
".).	c #1572DC",
"+).	c #1A75DD",
"@).	c #1C74DC",
"#).	c #1A72D9",
"$).	c #176ED5",
"%).	c #146CCF",
"&).	c #136CD2",
"*).	c #1069D2",
"=).	c #085FC6",
"-).	c #094D9E",
";).	c #093F81",
">).	c #093B78",
",).	c #073E80",
"').	c #042248",
")).	c #000F25",
"!).	c #052738",
"~).	c #2F5D77",
"{).	c #ABD4E3",
"]).	c #9DE6FA",
"^).	c #185275",
"/).	c #082638",
"().	c #072A54",
"_).	c #0B407F",
":).	c #10488C",
"<).	c #0F498B",
"[).	c #0F4688",
"}).	c #0F4383",
"|).	c #0E4283",
"1).	c #0C4388",
"2).	c #0A3D81",
"3).	c #043370",
"4).	c #022659",
"5).	c #04326B",
"6).	c #1073DA",
"7).	c #136DD4",
"8).	c #1361C5",
"9).	c #125DC0",
"0).	c #115DC1",
"a).	c #125FC4",
"b).	c #0E52AE",
"c).	c #021642",
"d).	c #04254A",
"e).	c #0E5CB2",
"f).	c #03162E",
"g).	c #011334",
"h).	c #2776BD",
"i).	c #79DDF4",
"j).	c #84E7FA",
"k).	c #1256AC",
"l).	c #002C8E",
"m).	c #001457",
"n).	c #0779C9",
"o).	c #139DED",
"p).	c #4CC8F9",
"q).	c #2FBCF7",
"r).	c #78D6FA",
"s).	c #C7F2FD",
"t).	c #73DDFB",
"u).	c #58D1F8",
"v).	c #1D99E9",
"w).	c #007CE4",
"x).	c #0058C7",
"y).	c #004BB9",
"z).	c #00369D",
"A).	c #003695",
"B).	c #0053B3",
"C).	c #0049A8",
"D).	c #002885",
"E).	c #002988",
"F).	c #00298A",
"G).	c #00298D",
"H).	c #0141B0",
"I).	c #014FC3",
"J).	c #037BDD",
"K).	c #047AD9",
"L).	c #035CB4",
"M).	c #002957",
"N).	c #001019",
"O).	c #084E7A",
"P).	c #065387",
"Q).	c #045082",
"R).	c #003775",
"S).	c #002A69",
"T).	c #001952",
"U).	c #003582",
"V).	c #0044A6",
"W).	c #003B9E",
"X).	c #00369A",
"Y).	c #003EA8",
"Z).	c #0047B7",
"`).	c #0267C8",
" !.	c #0575D3",
".!.	c #1B86D5",
"+!.	c #409BD7",
"@!.	c #489CD5",
"#!.	c #0E8BE6",
"$!.	c #1793E6",
"%!.	c #4BA6DF",
"&!.	c #4CA5DC",
"*!.	c #0E7ED0",
"=!.	c #0D68C0",
"-!.	c #01389E",
";!.	c #001C53",
">!.	c #001233",
",!.	c #072448",
"'!.	c #0A4078",
")!.	c #095098",
"!!.	c #0B4D96",
"~!.	c #0B4B94",
"{!.	c #094A90",
"]!.	c #09478B",
"^!.	c #0A4584",
"/!.	c #083D74",
"(!.	c #042F5E",
"_!.	c #043163",
":!.	c #043164",
"<!.	c #053265",
"[!.	c #032854",
"}!.	c #042954",
"|!.	c #083265",
"1!.	c #09356B",
"2!.	c #0B386C",
"3!.	c #0B3566",
"4!.	c #0A3260",
"5!.	c #0A3261",
"6!.	c #093161",
"7!.	c #083160",
"8!.	c #052C59",
"9!.	c #012249",
"0!.	c #072C41",
"a!.	c #010F1A",
"b!.	c #252A2B",
"c!.	c #ABCBD4",
"d!.	c #B5E9F7",
"e!.	c #0A1216",
"f!.	c #031D3F",
"g!.	c #0A3568",
"h!.	c #0A3466",
"i!.	c #082F60",
"j!.	c #072D5C",
"k!.	c #072D5E",
"l!.	c #082C5E",
"m!.	c #021F4A",
"n!.	c #072D5B",
"o!.	c #072B59",
"p!.	c #092D5C",
"q!.	c #092E5D",
"r!.	c #092F5E",
"s!.	c #082F5D",
"t!.	c #072E5B",
"u!.	c #082F62",
"v!.	c #08315F",
"w!.	c #000A27",
"x!.	c #001F47",
"y!.	c #002B68",
"z!.	c #145EB0",
"A!.	c #3F93C5",
"B!.	c #4294C4",
"C!.	c #073176",
"D!.	c #001E68",
"E!.	c #002472",
"F!.	c #002D7C",
"G!.	c #0562C0",
"H!.	c #0974D5",
"I!.	c #1F8BDE",
"J!.	c #26ABF4",
"K!.	c #40B2F3",
"L!.	c #59B6EE",
"M!.	c #399AD8",
"N!.	c #328FCF",
"O!.	c #116EC4",
"P!.	c #0062C3",
"Q!.	c #0046AC",
"R!.	c #003DA5",
"S!.	c #003AA0",
"T!.	c #0038A0",
"U!.	c #003EA6",
"V!.	c #0048AC",
"W!.	c #003C95",
"X!.	c #001852",
"Y!.	c #001850",
"Z!.	c #001853",
"`!.	c #001855",
" ~.	c #002C7C",
".~.	c #00378F",
"+~.	c #054B8A",
"@~.	c #074A81",
"#~.	c #053667",
"$~.	c #011834",
"%~.	c #001A4E",
"&~.	c #0052B6",
"*~.	c #0049B1",
"=~.	c #0041AB",
"-~.	c #003FA7",
";~.	c #00369C",
">~.	c #002F91",
",~.	c #002B8E",
"'~.	c #007EDD",
")~.	c #0078DB",
"!~.	c #0046B4",
"~~.	c #013AA5",
"{~.	c #003797",
"]~.	c #0043A7",
"^~.	c #0044A8",
"/~.	c #00368C",
"(~.	c #001149",
"_~.	c #00041A",
":~.	c #00122F",
"<~.	c #032A46",
"[~.	c #919191",
"}~.	c #77797A",
"|~.	c #4C5052",
"1~.	c #677071",
"2~.	c #D1DFE2",
"3~.	c #E4F5F8",
"4~.	c #3E5157",
"5~.	c #3F4F53",
"6~.	c #616768",
"7~.	c #6F7171",
"8~.	c #333739",
"9~.	c #010E22",
"0~.	c #08356F",
"a~.	c #08336A",
"b~.	c #083367",
"c~.	c #08366B",
"d~.	c #08366D",
"e~.	c #08366C",
"f~.	c #052347",
"g~.	c #000B2B",
"h~.	c #001B66",
"i~.	c #001D68",
"j~.	c #00267D",
"k~.	c #003892",
"l~.	c #0055BC",
"m~.	c #0056BD",
"n~.	c #0042A3",
"o~.	c #000730",
"p~.	c #000C3D",
"q~.	c #0048B2",
"r~.	c #003AA5",
"s~.	c #00339E",
"t~.	c #044BB8",
"u~.	c #1293EF",
"v~.	c #0E89E9",
"w~.	c #006FD9",
"x~.	c #0038A6",
"y~.	c #003199",
"z~.	c #002E92",
"A~.	c #002A8F",
"B~.	c #0044AA",
"C~.	c #005DC5",
"D~.	c #004CB0",
"E~.	c #00061C",
"F~.	c #000929",
"G~.	c #002666",
"H~.	c #003DAB",
"I~.	c #004FB7",
"J~.	c #00348F",
"K~.	c #002777",
"L~.	c #002680",
"M~.	c #002682",
"N~.	c #0066C2",
"O~.	c #0165C7",
"P~.	c #0049B4",
"Q~.	c #0041A9",
"R~.	c #00358C",
"S~.	c #00328B",
"T~.	c #001B68",
"U~.	c #001043",
"V~.	c #0C4365",
"W~.	c #041624",
"X~.	c #03121C",
"Y~.	c #031526",
"Z~.	c #041627",
"`~.	c #041728",
" {.	c #041727",
".{.	c #041828",
"+{.	c #031727",
"@{.	c #031524",
"#{.	c #041523",
"${.	c #041723",
"%{.	c #041623",
"&{.	c #031724",
"*{.	c #041826",
"={.	c #051A27",
"-{.	c #051B28",
";{.	c #051B27",
">{.	c #041B28",
",{.	c #051B29",
"'{.	c #051926",
"){.	c #051B25",
"!{.	c #051A25",
"~{.	c #071B27",
"{{.	c #071C29",
"]{.	c #061A28",
"^{.	c #031423",
"/{.	c #020F1E",
"({.	c #020E1A",
"_{.	c #030F1F",
":{.	c #040F1E",
"<{.	c #030F1D",
"[{.	c #020F1D",
"}{.	c #030F1E",
"|{.	c #03101F",
"1{.	c #010C1A",
"2{.	c #010E1B",
"3{.	c #020E1C",
"4{.	c #010E1D",
"5{.	c #1F2022",
"6{.	c #E0ECF3",
"7{.	c #DCEFF7",
"8{.	c #C7E7F2",
"9{.	c #C3E7F4",
"0{.	c #D0F2FA",
"a{.	c #CEF3FB",
"b{.	c #96DEF2",
"c{.	c #A5E0F3",
"d{.	c #D5EDF5",
"e{.	c #E0F0F6",
"f{.	c #5C6E73",
"g{.	c #010D1C",
"h{.	c #020E1B",
"i{.	c #04101E",
"j{.	c #03101E",
"k{.	c #030E1C",
"l{.	c #030F1C",
"m{.	c #04111E",
"n{.	c #04121F",
"o{.	c #041220",
"p{.	c #051625",
"q{.	c #051927",
"r{.	c #061925",
"s{.	c #061923",
"t{.	c #051822",
"u{.	c #071B24",
"v{.	c #081D26",
"w{.	c #081E28",
"x{.	c #071E29",
"y{.	c #071D29",
"z{.	c #061C28",
"A{.	c #061B26",
"B{.	c #051924",
"C{.	c #051A26",
"D{.	c #061B27",
"E{.	c #051825",
"F{.	c #021523",
"G{.	c #031623",
"H{.	c #041724",
"I{.	c #041725",
"J{.	c #041626",
"K{.	c #031525",
"L{.	c #041525",
"M{.	c #020A0E",
"N{.	c #031420",
"O{.	c #020E17",
"P{.	c #000E37",
"Q{.	c #000F3C",
"R{.	c #001A50",
"S{.	c #002866",
"T{.	c #003C84",
"U{.	c #003B81",
"V{.	c #002C6E",
"W{.	c #00195B",
"X{.	c #00175B",
"Y{.	c #000F44",
"Z{.	c #00134F",
"`{.	c #003B98",
" ].	c #002C83",
".].	c #0243AD",
"+].	c #0E73CD",
"@].	c #096DCB",
"#].	c #0063CC",
"$].	c #0035A3",
"%].	c #00309B",
"&].	c #002D85",
"*].	c #002A89",
"=].	c #0047AC",
"-].	c #0061C3",
";].	c #004CA8",
">].	c #002269",
",].	c #002B7D",
"'].	c #0037A1",
")].	c #003CAE",
"!].	c #003BA4",
"~].	c #001C5D",
"{].	c #00041C",
"]].	c #000B2E",
"^].	c #003EA0",
"/].	c #005EBF",
"(].	c #0060C0",
"_].	c #00217F",
":].	c #00185F",
"<].	c #001E65",
"[].	c #00237B",
"}].	c #002179",
"|].	c #00247B",
"1].	c #003490",
"2].	c #00318C",
"3].	c #1897DE",
"4].	c #1983BC",
"5].	c #010D15",
"6].	c #1579C4",
"7].	c #1E98F1",
"8].	c #1C97F0",
"9].	c #1B96F1",
"0].	c #1B97F1",
"a].	c #1B99F2",
"b].	c #1B9BF3",
"c].	c #1C9BF3",
"d].	c #199AF3",
"e].	c #1898F2",
"f].	c #1696F0",
"g].	c #1594EE",
"h].	c #1B9DF0",
"i].	c #21A6F3",
"j].	c #21A4F3",
"k].	c #20A5F4",
"l].	c #20A6F4",
"m].	c #26ADF5",
"n].	c #25ACF3",
"o].	c #23ABF2",
"p].	c #23ACF3",
"q].	c #25AFF6",
"r].	c #25AEF5",
"s].	c #24ADF5",
"t].	c #21ABF4",
"u].	c #1FA9F3",
"v].	c #1EA7F3",
"w].	c #26AFF6",
"x].	c #37BFF9",
"y].	c #36BEF9",
"z].	c #36BEF8",
"A].	c #34B3F8",
"B].	c #31ACF8",
"C].	c #2EAAF9",
"D].	c #2AA6F7",
"E].	c #259FF4",
"F].	c #1B8FEC",
"G].	c #1886E5",
"H].	c #1577DB",
"I].	c #1261B1",
"J].	c #000812",
"K].	c #0776D0",
"L].	c #1072CB",
"M].	c #1B7EDB",
"N].	c #1E85E7",
"O].	c #1F86E7",
"P].	c #2087E7",
"Q].	c #2088E9",
"R].	c #2189E9",
"S].	c #2289EA",
"T].	c #2189EA",
"U].	c #2188EA",
"V].	c #2188E9",
"W].	c #218AEC",
"X].	c #228AEC",
"Y].	c #218BEE",
"Z].	c #228BED",
"`].	c #228BEE",
" ^.	c #2188EC",
".^.	c #1F87EB",
"+^.	c #1C84E8",
"@^.	c #1A83E8",
"#^.	c #187FE5",
"$^.	c #177BE2",
"%^.	c #167AE0",
"&^.	c #1576DC",
"*^.	c #1372DB",
"=^.	c #106FD7",
"-^.	c #0E6BD5",
";^.	c #0C69D1",
">^.	c #0966CE",
",^.	c #0660C9",
"'^.	c #0354BC",
")^.	c #0450B4",
"!^.	c #0853B5",
"~^.	c #07489C",
"{^.	c #0C1215",
"]^.	c #517884",
"^^.	c #416F82",
"/^.	c #205B79",
"(^.	c #357394",
"_^.	c #7EC8E6",
":^.	c #8BD9F8",
"<^.	c #255B76",
"[^.	c #295A72",
"}^.	c #3E6473",
"|^.	c #3D6776",
"1^.	c #1A3239",
"2^.	c #001431",
"3^.	c #034DAD",
"4^.	c #034CAF",
"5^.	c #0655BA",
"6^.	c #0B5FC3",
"7^.	c #0F65CC",
"8^.	c #1067CF",
"9^.	c #0F67D0",
"0^.	c #0F69D1",
"a^.	c #136ED4",
"b^.	c #1671D5",
"c^.	c #1976D9",
"d^.	c #1A7BDE",
"e^.	c #1A7CDF",
"f^.	c #1C80E0",
"g^.	c #2084E5",
"h^.	c #2085E6",
"i^.	c #2186E7",
"j^.	c #1E84E6",
"k^.	c #1C82E5",
"l^.	c #1B80E4",
"m^.	c #1A7FE5",
"n^.	c #197FE5",
"o^.	c #1A80E4",
"p^.	c #2186E8",
"q^.	c #2286E8",
"r^.	c #2085E7",
"s^.	c #2184E6",
"t^.	c #2084E4",
"u^.	c #1D82E5",
"v^.	c #187EE3",
"w^.	c #1274DC",
"x^.	c #0C6FD8",
"y^.	c #0C69CB",
"z^.	c #1C89E7",
"A^.	c #052440",
"B^.	c #021225",
"C^.	c #1473D5",
"D^.	c #187BDC",
"E^.	c #197BDE",
"F^.	c #1E84E5",
"G^.	c #2795EE",
"H^.	c #2C9AF1",
"I^.	c #2D9CF2",
"J^.	c #2AA1F3",
"K^.	c #2BADF5",
"L^.	c #39BAF9",
"M^.	c #42C2F9",
"N^.	c #42C3F9",
"O^.	c #40C1F8",
"P^.	c #3DC0F7",
"Q^.	c #3BBFF7",
"R^.	c #37BBF8",
"S^.	c #36BBF8",
"T^.	c #34BBF8",
"U^.	c #33BCF9",
"V^.	c #33BDF9",
"W^.	c #34BDF9",
"X^.	c #33BBF9",
"Y^.	c #2DB4F6",
"Z^.	c #27B0F5",
"`^.	c #24ACF3",
" /.	c #1EA5F1",
"./.	c #1BA0EF",
"+/.	c #1CA1EF",
"@/.	c #1DA2F0",
"#/.	c #1998EE",
"$/.	c #1891ED",
"%/.	c #1790EC",
"&/.	c #1690EC",
"*/.	c #1992ED",
"=/.	c #1B93ED",
"-/.	c #1D94EC",
";/.	c #1F96EF",
">/.	c #072F4F",
",/.	c #0B3B57",
"'/.	c #209CE3",
")/.	c #1675AC",
"!/.	c #000315",
"~/.	c #000831",
"{/.	c #000B3C",
"]/.	c #002989",
"^/.	c #002886",
"//.	c #002581",
"(/.	c #001C69",
"_/.	c #002482",
":/.	c #00247F",
"</.	c #003591",
"[/.	c #001555",
"}/.	c #000C3E",
"|/.	c #00257D",
"1/.	c #002F95",
"2/.	c #003EA4",
"3/.	c #003BA0",
"4/.	c #001E52",
"5/.	c #001E53",
"6/.	c #00205D",
"7/.	c #001E57",
"8/.	c #001749",
"9/.	c #000D2F",
"0/.	c #000317",
"a/.	c #00194C",
"b/.	c #00225F",
"c/.	c #002765",
"d/.	c #003873",
"e/.	c #00366B",
"f/.	c #000F3F",
"g/.	c #001344",
"h/.	c #001E55",
"i/.	c #001745",
"j/.	c #02090B",
"k/.	c #0D333D",
"l/.	c #103B47",
"m/.	c #11608E",
"n/.	c #0F5276",
"o/.	c #02090D",
"p/.	c #0C4C7A",
"q/.	c #115F97",
"r/.	c #105E97",
"s/.	c #105F99",
"t/.	c #11609A",
"u/.	c #11629B",
"v/.	c #11639C",
"w/.	c #11649C",
"x/.	c #10639C",
"y/.	c #0F629C",
"z/.	c #0F629B",
"A/.	c #0F6099",
"B/.	c #12669B",
"C/.	c #156B9D",
"D/.	c #146A9C",
"E/.	c #13699B",
"F/.	c #166E9D",
"G/.	c #17709D",
"H/.	c #176F9D",
"I/.	c #166E9C",
"J/.	c #146D9B",
"K/.	c #136D9C",
"L/.	c #156C9D",
"M/.	c #1A71A0",
"N/.	c #247DA4",
"O/.	c #237EA5",
"P/.	c #237EA6",
"Q/.	c #2379AA",
"R/.	c #1F74A8",
"S/.	c #1D6FA3",
"T/.	c #1A669A",
"U/.	c #166196",
"V/.	c #0F5791",
"W/.	c #0F518B",
"X/.	c #0E4681",
"Y/.	c #0B3969",
"Z/.	c #02070E",
"`/.	c #044375",
" (.	c #084174",
".(.	c #104F89",
"+(.	c #10528E",
"@(.	c #125792",
"#(.	c #155A96",
"$(.	c #165C99",
"%(.	c #165D99",
"&(.	c #165B97",
"*(.	c #155A97",
"=(.	c #155A98",
"-(.	c #155B99",
";(.	c #165B99",
">(.	c #145A98",
",(.	c #155B98",
"'(.	c #165A98",
")(.	c #155897",
"!(.	c #155796",
"~(.	c #14599A",
"{(.	c #145DA1",
"](.	c #135BA0",
"^(.	c #13599E",
"/(.	c #12579C",
"((.	c #105398",
"_(.	c #0E5094",
":(.	c #0C4C8F",
"<(.	c #0A498B",
"[(.	c #084688",
"}(.	c #074588",
"|(.	c #054289",
"1(.	c #023981",
"2(.	c #03387D",
"3(.	c #063A7D",
"4(.	c #063168",
"5(.	c #1B282B",
"6(.	c #8AC2D4",
"7(.	c #A5DFF4",
"8(.	c #000F22",
"9(.	c #02377A",
"0(.	c #03377E",
"a(.	c #053F85",
"b(.	c #094388",
"c(.	c #0B4589",
"d(.	c #0C4487",
"e(.	c #0C4486",
"f(.	c #0C4589",
"g(.	c #0E4A8F",
"h(.	c #104E93",
"i(.	c #125297",
"j(.	c #14569B",
"k(.	c #15589B",
"l(.	c #175A9B",
"m(.	c #175B9B",
"n(.	c #155896",
"o(.	c #13538F",
"p(.	c #125490",
"q(.	c #11528F",
"r(.	c #105290",
"s(.	c #115391",
"t(.	c #135592",
"u(.	c #165694",
"v(.	c #165794",
"w(.	c #155794",
"x(.	c #165795",
"y(.	c #155692",
"z(.	c #115493",
"A(.	c #0D4E8F",
"B(.	c #073D77",
"C(.	c #11578F",
"D(.	c #041726",
"E(.	c #010A13",
"F(.	c #0B4680",
"G(.	c #0F4D89",
"H(.	c #104F8D",
"I(.	c #135591",
"J(.	c #185D95",
"K(.	c #1B649C",
"L(.	c #1F6CA4",
"M(.	c #1F73A6",
"N(.	c #227AA7",
"O(.	c #267CA7",
"P(.	c #267DA1",
"Q(.	c #277EA1",
"R(.	c #277DA1",
"S(.	c #277CA1",
"T(.	c #247AA0",
"U(.	c #1F759E",
"V(.	c #1E759E",
"W(.	c #1F789F",
"X(.	c #2179A2",
"Y(.	c #227AA2",
"Z(.	c #1E78A0",
"`(.	c #19739E",
" _.	c #166F9B",
"._.	c #166D9B",
"+_.	c #176E9B",
"@_.	c #166E9B",
"#_.	c #126999",
"$_.	c #116597",
"%_.	c #116698",
"&_.	c #106598",
"*_.	c #0E5E95",
"=_.	c #0D5B95",
"-_.	c #0E5C96",
";_.	c #0F5D97",
">_.	c #115D96",
",_.	c #135E99",
"'_.	c #052333",
")_.	c #11618D",
"!_.	c #0D4B6D",
"~_.	c #123B48",
"{_.	c #0E3540",
"]_.	c #020B0D",
"^_.	c #001648",
"/_.	c #00164A",
"(_.	c #001549",
"__.	c #000E36",
":_.	c #001345",
"<_.	c #002057",
"[_.	c #002A64",
"}_.	c #001747",
"|_.	c #001342",
"1_.	c #000C33",
"2_.	c #001D5D",
"3_.	c #00215C",
"4_.	c #00255F",
"5_.	c #001F57",
"6_.	c #001646",
"7_.	c #051C21",
"8_.	c #2C95B3",
"9_.	c #34AFD3",
"0_.	c #01090E",
"a_.	c #010A10",
"b_.	c #01090F",
"c_.	c #010A11",
"d_.	c #010B11",
"e_.	c #010C11",
"f_.	c #030F14",
"g_.	c #041015",
"h_.	c #04101A",
"i_.	c #040F19",
"j_.	c #030E14",
"k_.	c #01080E",
"l_.	c #020B13",
"m_.	c #020B12",
"n_.	c #020A11",
"o_.	c #020910",
"p_.	c #030A11",
"q_.	c #020C18",
"r_.	c #020C17",
"s_.	c #020C16",
"t_.	c #00060D",
"u_.	c #282C2D",
"v_.	c #B8D0D6",
"w_.	c #D3F0F7",
"x_.	c #050707",
"y_.	c #010811",
"z_.	c #000811",
"A_.	c #010912",
"B_.	c #020B16",
"C_.	c #030B14",
"D_.	c #020A0F",
"E_.	c #020A10",
"F_.	c #030A10",
"G_.	c #030B11",
"H_.	c #00070D",
"I_.	c #041016",
"J_.	c #040E12",
"K_.	c #030E12",
"L_.	c #030D13",
"M_.	c #030E13",
"N_.	c #010B10",
"O_.	c #37A8CF",
"P_.	c #2F99BB",
"Q_.	c #072128",
"R_.	c #051C22",
"S_.	c #2C9CBA",
"T_.	c #38B8D9",
"U_.	c #03090B",
"V_.	c #010709",
"W_.	c #010708",
"X_.	c #03080B",
"Y_.	c #040B0D",
"Z_.	c #050E10",
"`_.	c #050D10",
" :.	c #050C0F",
".:.	c #030A0D",
"+:.	c #040A0D",
"@:.	c #040B0E",
"#:.	c #02070B",
"$:.	c #000507",
"%:.	c #0C0C0C",
"&:.	c #2B2E2E",
"*:.	c #BAD1D6",
"=:.	c #CCEEF5",
"-:.	c #020505",
";:.	c #0B0B0B",
">:.	c #02080B",
",:.	c #030B0E",
"':.	c #030A0C",
"):.	c #03090A",
"!:.	c #020809",
"~:.	c #02090A",
"{:.	c #000608",
"]:.	c #01070B",
"^:.	c #04080B",
"/:.	c #31ACD4",
"(:.	c #31A4C4",
"_:.	c #08262C",
"::.	c #08171B",
"<:.	c #4BBAD9",
"[:.	c #5BD2F5",
"}:.	c #5CD0F5",
"|:.	c #5BCDF4",
"1:.	c #5ECFF4",
"2:.	c #64D1F4",
"3:.	c #6FD7F6",
"4:.	c #5DCDF2",
"5:.	c #48BEEC",
"6:.	c #62D3F5",
"7:.	c #74DBF7",
"8:.	c #7EDEF7",
"9:.	c #7DDFF7",
"0:.	c #7BDEF7",
"a:.	c #7BDFF8",
"b:.	c #7EDFF8",
"c:.	c #7CDEF7",
"d:.	c #78DCF7",
"e:.	c #76DCF7",
"f:.	c #75DBF7",
"g:.	c #72D9F7",
"h:.	c #52C6F4",
"i:.	c #46BDF2",
"j:.	c #42BCF2",
"k:.	c #3FB6EE",
"l:.	c #3DAFE6",
"m:.	c #31A1D6",
"n:.	c #747474",
"o:.	c #F0F1F1",
"p:.	c #939494",
"q:.	c #292C2D",
"r:.	c #9FCBD7",
"s:.	c #99DFF2",
"t:.	c #3C3C3C",
"u:.	c #E8EAEB",
"v:.	c #A4A6A7",
"w:.	c #257D9E",
"x:.	c #43BAEB",
"y:.	c #4CC2EF",
"z:.	c #55C9F4",
"A:.	c #61CEF3",
"B:.	c #70D6F6",
"C:.	c #6CD5F6",
"D:.	c #69D5F5",
"E:.	c #6CD6F5",
"F:.	c #77DBF6",
"G:.	c #7DDDF6",
"H:.	c #7EDDF7",
"I:.	c #79DBF6",
"J:.	c #75DAF5",
"K:.	c #72D9F6",
"L:.	c #74D9F7",
"M:.	c #72D7F6",
"N:.	c #5DCEF5",
"O:.	c #4EC5F1",
"P:.	c #4EC4F1",
"Q:.	c #52C8F2",
"R:.	c #52C6F3",
"S:.	c #43B9F0",
"T:.	c #3DB6F0",
"U:.	c #1F6C90",
"V:.	c #276373",
"W:.	c #317286",
"X:.	c #36778B",
"Y:.	c #34758A",
"Z:.	c #337388",
"`:.	c #357487",
" <.	c #3C798A",
".<.	c #37768A",
"+<.	c #337289",
"@<.	c #3C8094",
"#<.	c #448495",
"$<.	c #498595",
"%<.	c #4D8997",
"&<.	c #4E8A99",
"*<.	c #4B8795",
"=<.	c #4A8491",
"-<.	c #498290",
";<.	c #498391",
"><.	c #478290",
",<.	c #447E8E",
"'<.	c #417C8D",
")<.	c #2E7088",
"!<.	c #286B88",
"~<.	c #286C88",
"{<.	c #276784",
"]<.	c #215C7A",
"^<.	c #1B526D",
"/<.	c #01080A",
"(<.	c #041017",
"_<.	c #5E6D72",
":<.	c #C6E3ED",
"<<.	c #899FA8",
"[<.	c #1B272B",
"}<.	c #0B1012",
"|<.	c #2A3031",
"1<.	c #A0CDDA",
"2<.	c #9DE4F7",
"3<.	c #030809",
"4<.	c #0A0909",
"5<.	c #242425",
"6<.	c #444C4F",
"7<.	c #BCDEE9",
"8<.	c #879DA4",
"9<.	c #04141E",
"0<.	c #051620",
"a<.	c #010508",
"b<.	c #020A0D",
"c<.	c #020810",
"d<.	c #164356",
"e<.	c #27657F",
"f<.	c #2E6B82",
"g<.	c #317187",
"h<.	c #377487",
"i<.	c #3D7787",
"j<.	c #3C7687",
"k<.	c #3B7788",
"l<.	c #3F7A8B",
"m<.	c #49808F",
"n<.	c #4B8290",
"o<.	c #498392",
"p<.	c #478292",
"q<.	c #468292",
"r<.	c #478393",
"s<.	c #478294",
"t<.	c #438092",
"u<.	c #3B7789",
"v<.	c #337389",
"w<.	c #2F6F87",
"x<.	c #2F7087",
"y<.	c #2B6C85",
"z<.	c #20607E",
"A<.	c #1C5F7E",
"B<.	c #0F394B",
"C<.	c #030708",
"D<.	c #030607",
"E<.	c #1A4D5D",
"F<.	c #388CAF",
"G<.	c #338AAE",
"H<.	c #3088B7",
"I<.	c #3486B9",
"J<.	c #3B99C8",
"K<.	c #3DAFD7",
"L<.	c #0C303B",
"M<.	c #176F92",
"N<.	c #28A0D8",
"O<.	c #3384D0",
"P<.	c #3592D9",
"Q<.	c #2EA4DD",
"R<.	c #238CBA",
"S<.	c #03141E",
"T<.	c #0D1F26",
"U<.	c #26698C",
"V<.	c #6AC1EA",
"W<.	c #C1DCE2",
"X<.	c #435458",
"Y<.	c #1C2C30",
"Z<.	c #78BED8",
"`<.	c #80D8F8",
" [.	c #393B3C",
".[.	c #D0D4D6",
"+[.	c #B6D6E4",
"@[.	c #3A9DCC",
"#[.	c #1E4B62",
"$[.	c #06202E",
"%[.	c #219CD7",
"&[.	c #26A0DA",
"*[.	c #1D75C5",
"=[.	c #2880CB",
"-[.	c #3DABDB",
";[.	c #22718B",
">[.	c #0E2E39",
",[.	c #329CC0",
"'[.	c #35A6D2",
")[.	c #1D7AD0",
"![.	c #1E71B2",
"~[.	c #2874A0",
"{[.	c #3383AB",
"][.	c #3A8AB0",
"^[.	c #123242",
"/[.	c #040707",
"([.	c #040708",
"_[.	c #1F5F71",
":[.	c #4CBADF",
"<[.	c #49B9E0",
"[[.	c #3CA8DA",
"}[.	c #40A7DD",
"|[.	c #3DA8DC",
"1[.	c #3BADDB",
"2[.	c #0F3440",
"3[.	c #146E93",
"4[.	c #2BA3DE",
"5[.	c #3490D8",
"6[.	c #3092D8",
"7[.	c #2CA5DC",
"8[.	c #248FBC",
"9[.	c #041821",
"0[.	c #0D384F",
"a[.	c #62B8E1",
"b[.	c #C9E9F4",
"c[.	c #50646C",
"d[.	c #151718",
"e[.	c #1F343C",
"f[.	c #49A6D8",
"g[.	c #54BCF5",
"h[.	c #08141B",
"i[.	c #0C1316",
"j[.	c #414B51",
"k[.	c #BFDFED",
"l[.	c #7CCCF0",
"m[.	c #1E678A",
"n[.	c #062634",
"o[.	c #269FD8",
"p[.	c #27A0D8",
"q[.	c #1B78CB",
"r[.	c #2483D0",
"s[.	c #3BACDC",
"t[.	c #23758F",
"u[.	c #0B2D39",
"v[.	c #35A0C6",
"w[.	c #41AEDA",
"x[.	c #2280D1",
"y[.	c #2288CE",
"z[.	c #36A3D6",
"A[.	c #42ADD8",
"B[.	c #4EB6DD",
"C[.	c #194151",
"D[.	c #071B22",
"E[.	c #091D24",
"F[.	c #06151D",
"G[.	c #06131C",
"H[.	c #03131A",
"I[.	c #000A0F",
"J[.	c #020F17",
"K[.	c #020C14",
"L[.	c #020D15",
"M[.	c #03141C",
"N[.	c #031319",
"O[.	c #173B51",
"P[.	c #49A9DB",
"Q[.	c #72BEE4",
"R[.	c #9CBAC7",
"S[.	c #88BAD0",
"T[.	c #53B7F3",
"U[.	c #52B9F7",
"V[.	c #4591BE",
"W[.	c #65A1C2",
"X[.	c #91C1DD",
"Y[.	c #3C9DDF",
"Z[.	c #216FA0",
"`[.	c #03171F",
" }.	c #04171F",
".}.	c #010C16",
"+}.	c #04131B",
"@}.	c #010D10",
"#}.	c #031218",
"$}.	c #04151B",
"%}.	c #03101B",
"&}.	c #07171E",
"*}.	c #1B5471",
"=}.	c #59B8E9",
"-}.	c #75CBF8",
";}.	c #6DCAFA",
">}.	c #55BCF9",
",}.	c #53B8F8",
"'}.	c #50B8F6",
")}.	c #56BBF8",
"!}.	c #54BAF8",
"~}.	c #175683",
"{}.	c #03090C",
"]}.	c #173C57",
"^}.	c #34A1E6",
"/}.	c #36A2E9",
"(}.	c #41ACF6",
"_}.	c #45AEF9",
":}.	c #2B88D8",
"<}.	c #257DC5",
"[}.	c #124875",
"}}.	c #03376C",
"|}.	c #0D4A85",
"1}.	c #3197E3",
"2}.	c #37A5F9",
"3}.	c #011F50",
"4}.	c #00173B",
"5}.	c #05131D",
"6}.	c #1C5C88",
"7}.	c #206AA1",
"                                                                                                                                                                                                                                                                                                                                                                                                                                                                                                                                                                                                                                                                                                                                                                                                                                                                                                                                                                                                                                                                                                                                                                                                                                                ",
"                                                                                                                                                                                                                                                                                                                                                                                                                                                                                                                                                                                                                                                                                                                                                                                                                                                                                                                                                                                                                                                                                                                                                                                                                                                ",
"                                                                                                                                                                                                                                                                                                                                                                                                                                                                                                                                                                                                                                                                                                                                                                                                                                                                                                                                                                                                                                                                                                                                                                                                                                                ",
"                                                                                                                                                                                                                                                                                                                                                                                                                                                                                                                                                                                                                                                                                                                                                                                                                                                                                                                                                                                                                                                                                                                                                                                                                                                ",
"                                                                                                                                                                                                                                                                                                                                                                                                                                                                                                                                                                                                                                                                                                                                                                                                                                                                                                                                                                                                                                                                                                                                                                                                                                                ",
"                                                                                                                                                                                                                                                                                                                                                                                                                                                                                                                                                                                                                                                                                                                                                                                                                                                                                                                                                                                                                                                                                                                                                                                                                                                ",
"                                                                                                                                                                                                                                                                                                                                                                                                                                                                                                                                                                                                                                                                                                                                                                                                                                                                                                                                                                                                                                                                                                                                                                                                                                                ",
"                                                                                                                                                                                                                                                                                                                                                                                                                                                                                                                                                                                                                                                                                                                                                                                                                                                                                                                                                                                                                                                                                                                                                                                                                                                ",
"                                                                                                                                                                                                                                                                                                                                                                                                                                                                                                                                                                                                                                                                                                                                                                                                                                                                                                                                                                                                                                                                                                                                                                                                                                                ",
"                                                                                                                                                                                                                                                                                                                                                                                                                                                                                                                                                                                                                                                                                                                                                                                                                                                                                                                                                                                                                                                                                                                                                                                                                                                ",
"                                                                                                                                                                                                                                                                                                                                                                                                                                                                                                                                                                                                                                                                                                                                                                                                                                                                                                                                                                                                                                                                                                                                                                                                                                                ",
"                                                                                                                                                                                                                                                                                                                                                                                                                                                                                                                                                                                                                                                                                                                                                                                                                                                                                                                                                                                                                                                                                                                                                                                                                                                ",
"                                                                                                                                                                                                                                                                                                                                                                                                                                                                                                                                                                                                                                                                                                                                                                                                                                                                                                                                                                                                                                                                                                                                                                                                                                                ",
"                                                                                                                                                                                                                                                                                                                                                                                                                                                                                                                                                                                                                                                                                                                                                                                                                                                                                                                                                                                                                                                                                                                                                                                                                                                ",
"                                                                                                                                                                                                                                                                                                                                                                                                                                                                                                                                                                                                                                                                                                                                                                                                                                                                                                                                                                                                                                                                                                                                                                                                                                                ",
"                                                                                                                                                                                                                                                                                                                                                                                                                                                                                                                                                                                                                                                                                                                                                                                                                                                                                                                                                                                                                                                                                                                                                                                                                                                ",
"                                                                                                                                                                                                                                                                                                                                                                                                                                                                                                                                                                                                                                                                                                                                                                                                                                                                                                                                                                                                                                                                                                                                                                                                                                                ",
"                                                                                                                                                                                                                                                                                                                                                                                                                                                                                                                                                                                                                                                                                                                                                                                                                                                                                                                                                                                                                                                                                                                                                                                                                                                ",
"                                                                                                                                                                                                                                                                                                                                                                                                                                                                                                                                                                                                                                                                                                                                                                                                                                                                                                                                                                                                                                                                                                                                                                                                                                                ",
"                                                                                                                                                                                                                                                                                                                                                                                                                                                                                                                                                                                                                                                                                                                                                                                                                                                                                                                                                                                                                                                                                                                                                                                                                                                ",
"                                                                                                                                                                                                                                                                                                                                                                                                                                                                                                                                                                                                                                                                                                                                                                                                                                                                                                                                                                                                                                                                                                                                                                                                                                                ",
"                                                                                                                                                                                                                                                                                                                                                                                                                                                                                                                                                                                                                                                                                                                                                                                                                                                                                                                                                                                                                                                                                                                                                                                                                                                ",
"                                                                                                                                                                                                                                                                                                                                                                                                                                                                                                                                                                                                            .  +  @  #                                                                                                                                                                                                                                                                                                                                                                                                                                                                                                                                                                                                                          ",
"                                                                                                                                                                                                                                                                                                                                                                                                                                                                                                                                                                                                         $  %  &  *  =                                                                                                                                                                                                                                                                                                                                                                                                                                                                                                                                                                                                                          ",
"                                                                                                                                                                                                                                                                                                                                                                                                                                                                                                                                                                                                         $  -  ;  >  ,                                                                                                                                                                                                                                                                                                                                                                                                                                                                                                                                                                                                                          ",
"                                                                                                                                                                                                                                                                                                                                                                                                                                                                                                                                                                                                         '  )  !  ~  {                                                                                                                                                                                                                                                                                                                                                                                                                                                                                                                                                                                                                          ",
"                                                                                                                                                                                                                                                                                                                                                                                                                                                                                                                                                                                                         $  ]  ^  /  (                                                                                                                                                                                                                                                                                                                                                                                                                                                                                                                                                                                                                          ",
"                                                                                                                                                                                                                                                                                                                                                                                                                                                                                                                                                                                                _  :  <  [  }  |  1  2  3  4  5                                                                                                                                                                                                                                                                                                                                                                                                                                                                                                                                                                                                                 ",
"                                                                                                                                                                                                                                                                                                                                                                                                                                                                                                                                                                                             6  7  8  9  0  a  b  c  d  e  f  g  h  i                                                                                                                                                                                                                                                                                                                                                                                                                                                                                                                                                                                                           ",
"                                                                                                                                                                                                                                                                                                                                                                                                                                                                                                                                                                                          j  k  l  m  n  o  p  q  r  s  t  u  v  w  x  $                                                                                                                                                                                                                                                                                                                                                                                                                                                                                                                                                                                                        ",
"                                                                                                                                                                                                                                                                                                                                                                                                                                                                                                                                                                                       y  z  A  B  C  i  D  E  F  G  H  I  J  K  L  M  N  O                                                                                                                                                                                                                                                                                                                                                                                                                                                                                                                                                                                                     ",
"                                                                                                                                                                                                                                                                                                                                                                                                                                                                                                                                                                                    P  Q  R  S  T  U  U  '  V  W  X  Y  Z  U  `   . .. +. @.                                                                                                                                                                                                                                                                                                                                                                                                                                                                                                                                                                                                    ",
"                                                                                                                                                                                                                                                                                                                                                                                                                                                                                                                                                                                 $  #. $. %. &. *. =. U  '  -. ;. >. ,. '. ). '. !. ~. {. ]. ^. /.                                                                                                                                                                                                                                                                                     (. _. :. <. [. }. /.                                                                                                                                                                                                                                                                                     ",
"                                                                                                                                                                                                                                                                                                                                                                                                                                                                                                                                                                              |. 1. 2. 3. 4. 5. 6. 7. U  8. 9. 0. a. b. c. d. e. f. g. h. i. j. k.                                                                                                                                                                                                                                                                                  Z  l. m. n. o. p. q. /.                                                                                                                                                                                                                                                                                     ",
"                                                                                                                                                                                                                                                                                                                                                                                                                                                                                                                                                                              r. s. t. u. v. w. x. y. z. A. B. C. D. '  Z  E. F. G. H. I. J. K. L. /.                                                                                                                                                                                                                                                                               Z  M. N. O. P. Q. R. !. Z                                                                                                                                                                                                                                                                                   ",
"                                                                                                                                                                                                                                                                                                                                                                                                                                                                                                                                 S. T. U. Z                                   V. W. X. i  '  Y. Z. `.  + .+ ++ @+ #+ $+ U  %+ &+ *+ =+ -+ ;+ >+ ,+ /.                                     '+ )+ !+                                                                                                                                                                                                                                     ~+ {+ ]+ ^+ /+ (+ _+ :+                                                                                                                                                                                                                                                                                  ",
"                                                                                                                                                                                                                                                                                                                                                                                                                                                                                                                              <+ [+ }+ |+ 1+                                  2+ 3+ 4+ '  6  i  5+ 6+ 7+ 8+ 9+ 0+ a+ b+ ++ c+ d+ e+ U  U  f+ g+ h+ i+                               j+ k+ l+ m+ n+ <+                                                                                                                                                                                                                                  o+ p+ q+ r+ s+ t+ i  7+ u+ v+ w+ x+ .                                                                                                                                                                                                                                                                    ",
"                                                                                                                                                                                                                                                                                                                                                                                                                                                                                                                              <+ y+ z+ A+ B+ C+ D+                   E+ F+ G+ H+ I+ J+ K+ L+ v. `  U  M+ N+ O+ P+ Q+ R+ S+ T+ =. -+ c+ U+ V+ W+ X+ K+ Y+ E+ $                 <+ Z+ `+  @ .@ +@ @@ `                                                                                                                                                                                                                                   I  #@ $@ %@ &@ *@ =@ -@ ;@ >@ ,@ '@ )@ P                                                                                                                                                                                                                                                                 ",
"                                                                                                                                                                                                                                                                                                                                                                                                                                                                                                                              !@ ~@ {@ ]@ ^@ /@ (@             $  _@ :@ <@ [@ }@ |@ 1@ 2@ 3@ 4@ 5@ 6@ 7@ 8@ 9@ 0@ a@ b@ c@ d@ e@ f@ g@ h@ i@ j@ k@ l@ m@ n@ o@ E+          I  p@ q@ r@ s@ t@ u@ v@ <+                                                                                                                                                                                                                                     w@ x@ y@ z@ A@ B@ C@ D@ E@ F@ G@ H@ I@                                                                                                                                                                                                                                                                ",
"                                                                                                                                                                                                                                                                                                                                                                                                                                                                                                                              !@ J@ K@ L@ M@ N@ O@ !@          P@ Q@ R@ S@ T@ U@ V@ W@ X@ Y@ Z@ `@  # .# +# @# ## $# %# &# *# =# -# ;# ># ,# '# )# !# ~# {# ]# ^# =.       !+ /# (# _# :# <# [# }#                                                                            |# =.                                                                                                                                                       1# 2# 3# 4# 5# 6# 7# 8# 9# 0# a# b# c# d# e#                                                                                                                                                                                                                                                          ",
"                                                                                                                                                                                                                                                                                                                                                                                                                                       f# g# h# i# j# k# l# m#          n# o# p# q# r# s#                                        t# u# v# w# x# y# z# A#    =. B# |. C# D# E# F# G# H# I# J# K# L# M# N# O# P# Q# R# S# T# U# #  V# W# X# Y# Z# `#  $ .$ +$ _@ B# =. B# @$ #$ $$ %$ &$ *$ =$ -$ ;$                            '. Z        Z  Z  >$ ,$ '$ )$ !$ ~$       {$ ]$ ^$ ^$ /$ ($ _$ :$                                                                                                                                        Z  <$ [$ }$ |$ 1$ 2$ 3$ 4$ 5$ 6$ 7$ 8$ 9$ 0$ a$ =.    =. b$ c$ d$ e$ =.                                                                                                                                                                                                                                  ",
"                                                                                                                                                                                                                                                                                                                                                                                                                                    Z  f$ g$ h$ i$ j$ k$ l$ m$       Z  n$ o$ p$ q$ r$ s$                         '. Z  I  Z           t$ u$ v$ w$ x$ y$ <+                z$ A$ B$ C$ !. <+ U  U  U  $+ D$ E$ F$ G$ H$ M# =. U  U  U  Z  I$ J$ K$ <+             =. L$ M$ N$ O$ P$ Q$ R$ S$             T$ U$ V$ Z        Z  W$ ).       <+ X$ Y$ Z$ `$  % .% +%    =. @% #% $% %% &% *% =% o+ =.                                                                                                                                     Z  -% ;% >% ,% '% )% !% ~% {% ]% ^% /% (% _% :% <% [% }% |% 1% 2% 3%                                                                                                                                                                                                                                     ",
"                                                                                                                                                                                                                                                                                                                                                                                                                     4% 5% 6%    =. =. 7% 8% 9% 0% a% b% c% @$          d% e% f% g% h% <+                         i% j% k% l% Z        m% n% o% p% q% r% s% t% Z              u% v% w% x% B# U  U  y% z% A% B% C% D% E% 7+ t# F% G% U  /. H% I% J% /.             I  K% L% M% N% O% P% Q% R% S% -+ T% U% V% W% X% :$          Z              /. Y% f% Z% `%  & Z        !@ .& +& @& #& @& $& L$ =.    I  %& !@                                                                                                                            && *& =& -& ;& >& ,& '& )& !& ~& {& ]& ^& /& (& _& :& <& [& }& |&                                                                                                                                                                                                                                     ",
"                                                                                                                                                                                                                                                                                                                                                                                                                  <+ 1& 2& 3& I                                                                                   4& 5& 6& 7& 8& 9& =. =. Z  0& a& b& c& d& e& Z              L# f& g& h& i& U  j& k& l& Z  U  7+ =. U  U  m& n& o& <+ R% p& q& r& <+             X$ s& t& u& v& w& x& Z  U  y& T$ z& A& B& C& D& '.                                                                                  E& F& G& B#                                                                                                                      Z  H& I& J& K& L& M& N& O& P& Q& R& S& T& U& V& W& X& Y& Z& `& 7+ 7+                                                                                                                                                                                                                                     ",
"                                                                                                                                                                                                                                                                                                             * .* +* +* @* #* $* $* %* &* ** =* =* -* %* &* ;* ;* &* &* >* @* ,* >* >* '* '* '* )* !* ~* {* {* ]* ^* /* (* _* :* <* [* }* |* 1*             B# 2* 3* 4* Z     %& 5* 6* Z  7* 8* 9* Z              0* a* b* c* d* e* f* g* Z  h* i* j* k* l* m* X$ =.    =. =. n* o* p* q* r* _+ s* t* u* v* w* x* y* z* B# A* B* C* D* E* F* G* H* z$       =. =. I* J* K* L* M* N* O* =. P* Q* R* S* T* U* V* W*                ). X* W$          s# Y* Z* `*  = .=                += @= #= $= %= &= *= l% == -= ;= >= ,= '= )= #* #* != ~= ~= != != #* #* != {= ;= ,* >* ]= ^= /= (= '* _= := <=    :$ [= Z                    }= |= `  1= 2= 3= 4= 5= 6= 7= 8= 9= 0= a= b= c= d= e= f= g= h= i= j=                                                                                                                                                                                                                                           ",
"                                                                                                                                                                                                                                                               <+ k= l= m= t# n= o= 1+                      p= q= r= s= t= u= v= w= x= y= z= A= B= C= C= D= E= E= D= F= G= H= I= J= K= L= M= N= O= P= Q= R= S= T= U= V= W= X= Y= Z= `=  - .- +- @- ).    =. -+ #- $- %- M$ :$ &- *- =- -- ;- >- ,- '- '.             )- !- ~- {- ]- ^- /- '. U  s# @- (- _- :- s$          =. !. <- [- }- |- 1- j+ 2- 3- c+ 4- 5- 6- 7- U  I  8- &. 9- 0- a- b- c-             Z  d- e- f- g- h- !@ Z  U  i- j- k- l- m- K% !@                Z  n- o- p- q- r- s- t- u- v- w- x- y- z- =.       <+ A- B- C- D- E- F- G- H- I- J- K- L- M- N- O- P- Q- R- S- T- u= U- V- V- Q- T- S- W- X- Y- Z- `-  ; .; +; @; #; $; %; &; *; /.             /. =; -; ;; >; ,; '; ); !; ~; {; ]; ^; /; (; _; :; <; [; }; |; 1; 2; 3; !@ Z                                                                                                                                                                                                                                      ",
"                                                                                                                                                                                                                                                               4; 5; 6; `+ 7; 8; 9; 0; a; b; X$             c; d; e; f; g; h; i; j; k; l; m; m; n; o; p; q; r; r; s; t; u; v; w; x; y; z; A; B; C; D; E; F; G; H; I; J; K; L; M; N; O; P; Q; R; S; b;       I  ~@ T; U; += !@ V; W; X; Y; Z; `;  > .> +> @> #> ). Z  Z  $> %> &> *> => -> ;> >> L$ !@ ,> '> )> !> ).                ~> {> ]> ^> /> (> U  y& _> :> <> [> U  U  }> |> 1> 2> 3>                   9& 4> 5> 6> 7> I  8> @> 9> 0> a> b> c> X$ Z     )- h- d> e> f> g> h> i> j> k> l> m> n> o> p> q> r> s> Z           /. t> u> v> w> x> y> z> A> B> C> D> E> F> G> H> I> J> K> L> L> M> N> O> P> Q> R> S> T> U> V> W> X> Y> Z> `>  , ., `  +, @, #, $, ;$          <+ %, &, ;$ *, =, -, ;, >, ,, ', ), !, ~, {, ], ^, /, (, _, :, <, [, }, Z                                                                                                                                                                                                                                         ",
"                                                                                                                                                                                                                                                               Z  |, 1, 2, j+ 3, 4, 5, 6, 7, 8, ).             <+ <+ <+ <+       z$ <+ <+                                                 z$ <+ <+ Z           Z  <+             Z  Z  Z  <+ `                    <+ /.          I  9, 0, a, b, c, d, e, f, g, h, i, ).    Z  Z  Z  '. j, k, l, Z        Z  m, n, o,                /. c+ p, q, r, s, t, u, 6. v, w, x, y, z, A, B, C, D, E, =.                '. F, G, Z        O* H, I, J, c. '. Z           K, L, M, N, O, P, Q, R, S, T, U, V, W, X, :$ <+                            Z           Z  Z  z$ <+ <+ <+ z$          Z  <+ Z        Z  Z                             <+ -+ -+ <+          t# Y, Z, a%       B# <+ `,  ' !+ .' +' @' ). /. #' S% =. U  M# $' %' &' *' =' -'    =. /.                                                                                                                                                                                                                                              ",
"                                                                                                                                                                                                                                                                           <+ ;' >' ,' '' )' !' Z                                                                                                                                                                                   W$ ~' {' ]' ^' /' (' _' :' ;> <' Z                 [' }' |' Z           V, 1' 2'                      3' 4' 5' 6' 7' 8' 9' 0' a' b' c' d' e' f' g' h'                         X* '.          s$ i' j' k'                   2' l' m' n' o' p' q' r' s' t' u' '. )- v'                                                                                                                                                    w' x' +=       H. y' z' A' j+ B' C' D' E' '. F' G' H' /. =. I' J' K' L' M' N'                                                                                                                                                                                                                                                       ",
"                                                                                                                                                                                                                                                                                                                                                                                                                                                                                                                                                                                          I  O' P' Q' R' S' T' U' V' W' X' Y' Z' `' v*                                                                                                                                                                                                                                                                                      ) .) +) @) -- #) $) %) <' '. &) *) =) j+          7+ 7+ =.                                                                                                                                                                                                                                                          ",
"                                                                                                                                                                                                                                                                        -) ;) 3-                                  i  >)                                                                                                                                                                                                                                                                         -+ ,) ') )) !) ~) {) ]) ^) /) ()                                        =.                                                                                                                                                                                                                                           B# i  _) :) <) [) }) |) 1) 2) 2' '. 3) 4) 5) 6)                                                                                                                                                                                                                                                                            ",
"                                                                                                                                                      7) 8) 9) 0) a) b) c) d) b) 0) e) f) g) g) h) i) j) k) e) e) a) l) m) m) 0) n) o) d) b) b) p) q) r) <+       =. !. s) t) u) <+          v) w) x) y) z) A) B) C) D) E) F) b) G) 9) H) I) J) K) <+ L) M) N) H) O) c) P) Q) b) G) G) R) b) P) P) S) T) O) f) U) U) y) y) f) c) d) V) V) S) O) T) W) X) Y) Z) `) S) U) S)  !  ! .! .! +! @! #! $! %! .! &! *! *! .! =! =! N) -! -! T) `)  !  ! `) W) ;! >! ,! '! )! !! ~! {! ]! ^! /! (! _! :! U  U  B# <! [! }! |! 1!                   '. Z  2! 3! 4! 5! 6! 7! 8! 9! 0! a! 0! 0! b! c! d! 6! e! f! g! h! 6! @! i! j! k! l! m! j! i! n! o! B#          <+ p! q! r! j) s! t! u! v! w! s! x! x! y! F) Q) c) c) V) -! z! A! B! C! D! E! F! y) G! H! I! J! G! -! K! K! K! +! +! L! M! N! 3- O! P! Q! R! j! S! S! T! f) U! #! V! W! X! Y! Z! `!  ~ .~ +~ @~ #~ $~ %~ &~ *~ =~ l! -~ -~ ;~ >~ ,~ '~ )~ y) y) T) N) y) y) c) G) G) G) G) G) G) d) G) y) O) -! N)  ! V) !~ +! ~~ t#                                                                                                                                                                   ",
"                                                                                                                                                .= {~ ]~ ^~ /~ (~ _~ :~ <~ [~ }~ |~ 1~ 2~ 3~ 4~ 5~ 1~ 6~ 7~ 8~ 9~ 0~ 0~ a~ b~ b~ c~ d~ e~ b~ f~ g~ h~ i~ j~ k~ `  U  Z  l~ m~ n~ <+ =. v* o~ p~ q~ r~ s~ f~ t~ u~ v~ w~ x~ y~ z~ 2~ A~ B~ C~ D~ E~ F~ G~ H~ I~ J~ K~ L~ M~ N~ O~ P~ Q~ R~ Q~ S~ S~ s~ T~ U~ V~ W~ X~ Y~ Z~ `~  { .{ S~ +{ @{ #{ ${ %{ &{ *{ ={ -{ ;{ >{ ,{ '{ ){ !{ ~{ {{ ]{ ^{ /{ /{ ({ _{ :{ :{ <{ ~{ [{ }{ |{ 1{ 2{ T~ 3{ 4{ 5{ 6{ 7{ 8{ 9{ 0{ a{ b{ c{ d{ e{ f{ g{ h{ i{ j{ '. U  U  '  k{ l{ m{ n{ L$             Z  b; b; o{ p{ q{ r{ s{ t{ u{ v{ w{ x{ y{ z{ A{ B{ C{ 7{ D{ E{ F{ G{ 6{ 6{ H{ 7{ D{ I{ J{ K{ L{ M{ N{ O{ >) P{ Q{ R{ S{ T{ U{ V{ W{ X{ W{ Y{ Z{ `{ `{ `{  ] .] +] @] 0~ #] $] %] &] *] =] -] ;] >] ,] '] )] !] ~] {] ]] ^] /] /] (] _] :] <] [] }] |] 1] 2] 3] 4] 5] 6] 7] 8] 9] 0] a] b] s# Z  s$ c] d] e] f] g] Y! h] i] j] k] l] m] n] o] p] q] r] s] t] u] v] w] A~ x] u] y] 0~ z] A] B] y] 2~ B] C] D] E] F] G] H] E] I] J] K] L] M] N] O] P] Q] R]                                                                                                                                                 ",
"                                                                                                                                             <+ S] T] U] r- d. V] Z! W] X] O* 9, 9, Y] Z] Y] X] `]  ^  ^ .^  ^ .^ .^ +^ @^ #^ +^ $^ $^ $^ %^ &^ $^ *^ =^ -^ ;^ >^ Z  U  U  I  U  U  U  ,^ '^ )^ !^ &^ +^ .^ .^ .^ .^ #^ #^ ~^ $^ $^ @^ @^ {^ ]^ ^^ /^ (^ _^ :^ <^ [^ }^ [^ <^ |^ 1^ 2^ 3^ 3^ 3^ 2^ $^ $^ $^ $^ ~^ ~^ 2^ 4^ 5^ 5^ 5^ 2^ 2^ 6^ <^ 6^ |^ 7^ 8^ 9^ 0^ a^ 5^ 1^ 4^ |' |' [' b^ c^ d^ e^ !> ;> .^ ;> ;> #^ ~^ ~^ ~^ #^ ~^ #^ #^ f^ $^ $^ ;> [' 6^ 7^ !' -- g^ 4> h^ i^ G, W, j^ !> _! 4> 9, G, s# k^ l^ m^ n^             V, m, h^ h^ h^ W, j^ 9, 9, h^ !> m, l' l' b^ g^ _! 4> 4> d^ g^ l' g^ g^ g^ o^ p^ p^ o^ f^ 4> q^ 4> r^ s^ t^ u^ v^ w^ x^ y^ z^ A^ B^ v. C^ D^ E^ E^ B^ C^ v* v* C^ F^ F^ U+ G^ H^ I^ J^ K^ L^ M^ N^ h' O^ P^ D^ E^ Q^ O^ C^ Y! Y! @$ R^ R^ P^ G^ !. S^ T^ R^ Q^ >> O^ P^ U^ O^ O^ R^ !@ I  I  '. U  X$ #^ V^ W^ X^ Y^ I  Z  Z  I  :$ R^ Z^ R^ C^ v* t# @$ `^ 3- Y! P^ G^ G^ G^ G^ P^ P^ @$ v* _+ _+ !. !. !. !. !. $; v* -+ -+ !. v.  / ./ +/ @/ #/ $/ %/ &/ */ j+                                                                                                                                           ",
"                                                                                                                                             <+ =/ -/ v' W, ;/ >/ ,/ '/ )/ !/ ~/ {/ !/ ]/ ^/ // (/ _/ :/ </ [/ }/ }/ </ |/ </ </ 1/ 2/ 3/ 4/ 5/ 6/ 7/ 8/ 9/ 0/ a/ b/ c/ u^ U  U  /. >^ d/ e/ f/ l' g/ // h/ i/ j/ h/ i/ k/ l/ m/ n/ o/ p/ }^ q/ r/ s/ t/ u/ _! v/ w/ x/ y/ z/ y/ A/ y/ B/ C/ l/ D/ D/ D/ E/ F/ 1/ 1/ 1/ G/ H/ I/ x/ y/ l/ ~/ k/ :/ J/ K/ 7^ -- L/ M/ N/ O/ z/ B/ l/ 1/ P/ _/ Q/ k/ k/ :/ l/ l/ R/ 1/ l/ R/ (/ // S/ (/ _/ T/ U/ V/ m/ W/ X/ Y/ Z/ `/  ( .( +( @( #( $( %( &( *( =( -( l' :!                         X* b^ m, +^ ;( >( ,( '( (/ </ 1/ P/ P/ P/ _/ _/ P/ P/ P/ P/ )( ~/ P/ :/ 1/ </ </ :/ </ F/ !( ~( [' {( ]( ^( /( (( _( :( <( [( }( |( 1( 2( 3( 4( 1( 5( 6( 6( 7( 4( 3( 8( 9( 0( a( b( c( d( r- O* V] e( f( g( h( i( j( k( l( l( k( e@ m( n( o( p( ;$ q( r( s( t( u( v( w( x( w( x( w( i( y( z( v( A( z( B( C( D( E( h  =  F( _  _  _  G( H( I( I( J( K( @- L( M( N( O( H( P( P( Q( w( P( P( P( R( O( P( x( S( S( T( S( P( U( x( V( Y! W( X( Y( Z( `(  _ ._ +_ @_ #_ <+                                                                                                                                        ",
"                                                                                                                                             <+ $_ %_ U  &_ *_ =_ -_ ;_ >_ ,_ '_ '_ '_ )_ !_ !_ ~_ ~_ '_ {_ >_ >_ >_ ]_ ]_ >_ ]_ ]_ ^_ /_ (_ __ :_ <_ p^ o^ [_ }_ |_ 1_ 2_ i& |# $; 3_ 4_ t' |' <( 5_ 6_ 7_ 8_ 8_ 9_ 8_ >_ ,_ 0_ a_ a_ b_ c_ <^ X/ d_ e_ f_ g_ h_ i_ )_ ]_ >_ ]_ (_ j_ k_ ]_ 8_ ^_ l_ l_ m_ n_ >_ >_ o_ )_ )_ p_ q_ 7_ ]_ ]_ ]_ r_ s_ t_ :^ !> u_ v_ w_ )_ '_ ~_ )_ !_ !_ '_ ,_ o_ >_ ]_ ]_ 0_ ;_ ;_ 0_ 0_ )_ !_ '_ ,_ x_ !_ )_ )_ ,_ y_ z_ A_ B_ C_ D_ E_ F_ G_ H_ I_ J_ J_ K_ L_ M_ N_ d-                         :! e^ &_ O_ P_ Q_ R_ S_ )_ >_ '_ r_ )_ !_ T_ U_ V_ )_ r_ '_ '_ '_ '_ '_ ]_ 8_ ]_ 8_ 9_ ]_ W_ X_ 0^ Y_ Z_ `_  : .: V] C^ D^ C^ +: @: #: $: %: &: *: =: -: ;: >: ,: ': ): !: ~: {: C^ P^ ]: Z] Z] ^: /: (: _: :: <: [: }: |: 1: 2: 3: 4: 5: 6: 7: 8: g] 9: 8: 0: a: b: c: d: d: c: c: e: f: g: h: i: j: k: l: m: n: o: o: p: q: r: r: p: s: t: u: v: w: x: y: z: A: B: B: C: D: E: F: G: H: I: }: J: J: K: }: F: E: L: M: N: O: P: Q: -+ U  V, l' R: m, S: T: U: V: I  Z                                                                                                                                      ",
"                                                                                                                                             <+ W: X: R% Y: Z: <^ `:  < .< +< @< @< +< +< +< +< +< #< $< @< +< +< +< +< %< %< +< &< *< =< =< -< ;< >< ,< O* '< )< !< ~< {< /. U  t# ]< ^< -- [' /< (< _< +< +< +< +< +< #< @< :< << [< }< |< }^ e_ 1< J, e_ z_ 2< 3< << 4< @< %< +< +< +< +< %< %< +< +< +< +< +< +< +< +< 5< #< #< @< @< =< 6< 7< 8< 9< ]^ <^ 0< a< b< :< :< =< @< @< @< +< $< $< @< @< @< *< @< @< @< *< *< @< +< %< %< c< :< << d< e< $~ f< !  g< :< @< @< +< +< +< +< #< h< i< j< e( 2'                         h- 1' ;/ k< l< m< %< +< +< #< #< @< *< @< @< @< @< +< +< +< +< 5< 5< +< +< +< +< 5< =< n< o< p< !> <^ q< r< s< t< Y! F+ u< v< w< x< y< z< A< B< C< D< E< F< G< G< z< H< I< J< K< L< M< R^ N< X] O< P< Q< R< S< T< U< V< W< X< Y< Z< `<  [ .[ +[ @[ #[ b( B^ $[ %[ &[ *[ =[ -[ ;[ ;[ >[ ,[ '[ )[ ![ ~[ {[ $  ][ ^[ /[ ([ _[ :[ <[ [[ }[ |[ 1[ 2[ 3[ 4[ 5[ 6[ 7[ 8[ 9[ 0[ a[ )[ b[ c[ b[ d[ e[ T< T< f[ )[ g[ T< b[ h[ i[ j[ k[ l[ m[ n[ B# ;$ %^ o[ p[ 9, W$ q[ r[ U  <+                                                                                                                                     ",
"                                                                                                                                             <+ s[ t[ _+ :( u[ v[ w[ x[ y[ z[ %< +< +< +< +< +< +< +< +< +< +< +< +< +< +< +< +< +< +< +< A[ +< i< B[ C[ D[ |' E[ F[ G[ H[ I[ Z  I  J[ K[ L[ M[ N[ O[ @< @< @< $< +< $< +< @< @< +< :< P[ Q[ 1< R[ S[ E[ T[ U[ V[ W[ 4< +< +< +< +< +< +< +< +< +< +< +< +< +< +< +< +< +< +< %< %< +< +< %< @< :< X[ Y[ Z[ `[  } +< +< +< +< +< +< +< +< +< +< %< +< &< &< +< +< +< +< +< +< +< +< +< $< $< +< @< a< .} +} @} W[ 5< +< @< @< $< $< $< +< @< @< a< #} $} &_ '.                      2' c^ %} &} *} =} -} @< @< @< %< +< +< %< +< +< +< +< +< +< +< +< +< +< +< +< +< +< %< @< z[ ;} z_ >} ,} '} :( A^ 6  )} !} ~} {} ]} ^} /} (} (} (} /} _} _} (} :} <} [} /} }} |} 1} 2} 3} A^ 4} Q^ 5} 6} 7} 8} 9} 0} a} b} c} d} e} f} g} h} i} j} k} l} m} n} o} p} 0} q} r} s} (} t} u} v} w} x} y} z} A} B} C} D} b} b} E} u} [} F} v} v} G} H} I} /. J} K} L} M} u} N} O} [} b} b} b} N} N} P} P} P} Q} Q} u} b} N} R} S} T} U} V} W} Q: X} N_ Y} Z} `}  | .| I  <+                                                                                                                                     ",
"                                                                                                                                             <+ +| @| Z  @- #| 1^ $| %| &| *| +< +< +< +< +< +< +< +< +< +< +< +< +< +< +< +< +< +< +< +< +< @< 4< d< =| -| ;| >| ,| '| )| !| ~| $; {| ]| !' ^| /| (| 4< @< $< $< %< $< +< +< +< +< @< _| :| <| e_ X/ )' [| U[ }| || @< 1| +< +< +< +< +< +< +< +< +< +< +< +< +< +< +< +< +< %< %< %< +< +< +< @< 2| 3| Z[ 4| 5| 5< +< +< +< 1| 1| +< +< +< +< +< +< $< $< %< %< +< +< +< +< +< +< 1| 1| 1| 6| +< &< 7| 8| 9| 0| a| @< @< $< @< @< $< +< b| c| d| e| f| &_ ). Z                    2' g| o, h| i| j| a| @< @< @< %< +< +< +< +< +< +< +< +< +< +< +< +< +< +< +< +< 1| +< @< h< k| l| m| R[ 4^ y: n| o| p| q| r| s| (} /} /} /} /} t} /} _} _} (} (} (} t} t} (} t| u| v| w| x| y| R% z| A| B| C| D| D| M} E| E| M} (} _} F| G| H| I| J| j} K| L| M| N| s} :} M} <} <} (} M} D| O| P| Q| R| S| T| U| V| W| c} [} X| Y| Z| `| N}  1 .1 +1 @1 #1 $1 %1 &1 *1 M} u} Q} E| E| E} E} u} X| X| X| X| Q} Q} [} b} N} =1 s} -1 ;1 >1 ,1 '1 Z  )1 !1 ~1 {1 ]1 Z  <+                                                                                                                                     ",
"                                                                                                                                             <+ ^1 /1 Z  :! (1 l' _1 :1 <1 [1 A[ +< +< +< +< %< 1| +< +< +< +< +< +< 1| 1| +< +< +< +< +< +< %< %< +< }1 |1 11 21 31 41 51 61 71 81 91 01 -- a1 /| {# :< $< +< +< %< %< +< +< +< %< c< b1 c1 d1 e1 e1 e_ E[ f1 g1 || =< 1| +< +< +< +< +< +< +< +< +< +< +< +< +< 1| +< +< +< +< +< %< +< 1| +< @< h1 i1 7^ j1 k1 @< +< +< 1| 1| 1| 6| +< +< %< %< %< %< %< %< %< +< +< +< +< +< 1| 1| 1| 1| 1| %< :< l1 %^ m1 n1 o1 c| +< +< +< +< +< 1| p1 q1 r1 s1 t1 i^ W$ '.                   r- !' 9, u1 v1 w1 x1 c| +< +< +< +< +< +< +< +< +< +< +< +< 1| +< +< +< +< +< 1| 1| +< +< $< y1 a^ z1 31 @^ A1 B1 C1 D1 E1 (} <} M} /} F1 G1 G1 G1 F1 F1 F1 F1 F1 /} /} *1 M} M} H1 I1 J1 K1 L1 A} M1 N1 O1 P1 Q1 R1 /} S1 t} M} F1 T1 U1 V1 W1 ); Z! J| X1 Y1 Z1 `1  2 .2 +2 <} <} :} (} z< @2 #2 $2 M< ;$ %2 &2 *2 =2 R} E| X| -2 X| X| /} ;2 >2 ,2 =. '2 )2 !2 ~2 {2 :} *1 *1 *1 X| *1 X| X| Y| *1 *1 ]2 X| X| X| X| b} b} E} E} ^2 /2 (2 _2 /. U^ ~1 @- :2 <2 Z  <+                                                                                                                                     ",
"                                                                                                                                             <+ [2 }2 I| |2 12 22 32 42 52 62 72 @< +< +< +< %< +< +< +< +< +< 6| 6| 1| +< +< +< +< %< %< +< +< +< +< +< +< 82 92 02 f^ @> a2 b2 c2 d2 z1 [^ e2 f2 g2 %< %< +< +< +< %< %< +< +< #< @< =< b< h2 2^ i2 e1 j2 f1 k2 || :< +< 1| +< +< +< +< +< +< +< +< +< +< +< 1| +< +< +< +< +< +< +< +< +< +< @< l2 i1 [^ m2 n2 @< %< +< 1| +< +< +< +< +< %< %< %< %< %< +< +< +< +< +< +< +< +< +< +< +< 1| %< :< o2 6^ p2 q2 r2 s2 +< +< +< %< %< h< t2 u2 v2 w2 g| c^ h- ).                   7/ x2 u/ 7^ y2 z2 A2 B2 +< +< +< +< +< +< +< +< +< +< +< +< +< +< +< +< +< +< 1| 1| 6| +< +< C2 g] Z] 7/ Z! D2 E2 F2 G2 q} +2 (} F1 H2 I2 J2 I2 K2 t} /} G1 H2 L2 /} t} *1 E| X| Q} W| M2 N2 O2 P2 I| Q2 R2 S2 T2 R1 M} E| X| E| r| U2 V2 W2 X2 ,% Y2 Z2 `2  3 .3 +3 @3 #3 r} b} b} :} F1 $3 %3 &3 *3 =3 I  -3 ;3 >3 ,3 '3 b} [} b} b} E} )3 !3 ~3 {3 .= ]3 ^3 /3 (3 _3 D| ]2 :3 Y| *1 *1 *1 *1 ]2 ]2 ]2 Y| ]2 ]2 X| X| u} u} b} c} v} <3 [3 }3 |3 13 Y! :! 23 33 I  <+                                                                                                                                     ",
"                                                                                                                                             Z  43 53 63 73 ;/ b; 0& 83 93 03 a3 *< +< +< +< +< %< %< %< +< +< +< +< 1| +< +< +< 5< +< +< +< b3 +< +< +< +< h< i< c3 N_ _! d3 e3 f3 g3 o^ h3 i3 j3 << +< 6| +< +< +< #< #< %< %< %< +< *< n< k3 6^ u' l3 m3 n3 o3 p3 z[ &< %< $< &< +< +< +< +< +< +< +< +< +< +< +< +< $< +< +< 6| +< +< +< %< q3 r3 s3 [^ L[ t3 @< #< +< +< +< %< %< +< +< +< +< %< %< +< +< +< +< +< +< +< +< +< +< +< +< 1| +< +< u3 i2 v3 w3 x3 n< :< $< @< #< +< A[ _< y3 z3 A3 c^ 4> B3 W$                   p^ x2 m, u/ C3 D3 E3 =< +< @< %< +< +< +< +< 1| +< +< 1| 1| 6| +< +< +< +< +< %< %< 1| +< +< F3 G3 +^ H3 I3 J3 K3 L3 D| M} /} F1 /} /} G1 M3 N3 O3 P3 Q3 R3 S3 S1 t} *1 *1 :3 T3 ]2 Q} s| U3 V3 {: 8> $  W3 X3 j[ M2 Y3 E} E} <} Z3 `3  4 .4 +4 @4 #4 O< X} Q^ 13 $4 %4 .2 '3 b} E} M} s} &4 *4 =4 -4 8> I| y: ;4 >4 ,4 '4 '4 c} c} N} b} )4 !4 ~4 c+ G^ {4 ]4 ^4 /4 (4 s| E| X| *1 *1 u} E| ]2 _4 T3 T3 T3 :4 ]2 Z| [} O} [} <4 u} O} O} P} T2 [4 }4 |4 I* 14 24 Z  <+                                                                                                                                     ",
"                                                                                                                                                   '. 34 44 f^ X* U  ). 54 64 74 5< 5< +< +< +< %< +< 1| +< +< &< +< +< +< 5< +< 5< +< +< +< +< %< @< @< 4< m< :< 84 4^ X/ E[ 94 04 a4 b4 c4 d4 || @< +< %< %< +< +< +< +< +< +< $< $< @< @< e4 f4 {( g4 h4 i4 j4 k4 b< c| @< @< *< +< +< +< +< +< +< +< +< +< +< +< +< $< +< +< +< $< +< +< +< @< l4 m4 <^ n4 o4 @< +< +< +< +< +< +< %< $< @< 5< %< %< %< +< +< +< +< +< +< +< +< +< +< *< +< &< =< p4 W] u/ q4 r4 d< h< $< +< A[ 6| +< g2 s4 t4 u4 b^ v4 w4 x4                   ,| 1< e^ y4 z4 A4 B4 :< @< @< %< +< +< 1| b3 b| +< b| +< +< b| +< +< +< +< 5< 5< @< 5< &< +< C4 {^ @^ D4 E4 F4 G4 O| D| /} G1 G1 L2 G1 H4 I4 J4 K4 L4 M4 N4 O4 P4 Q4 *1 *1 R4 S4 :3 *1 M2 T4 U4 V4 W4 y: P@ X4 Y4 M2 Y3 E} <} M} -1 Z4 `4 >)  5 .5 2^ +5 9: W4 I| @5 #5 $5 E} E| t} t} s} %5 &5 *5 P@ =5 =5 -5 ;5 >5 ,5 =1 a} N} [} b} E} '5 )5 !5 y& j} I| E+ ~5 {5 ]5 +2 E| X| *1 X| X| X| ^5 /5 (5 (5 /5 _5 :5 _4 X| u} u} Z| <5 `| O} O} [5 }5 |5 |# U  15 25 <+ <+                                                                                                                                     ",
"                                                                                                                                                      35 45 55 65 U  Z  75 85 95 5< #< @< @< @< +< b| b| 05 a5 b5 c5 d5 e5 f5 g5 b< @< #< +< +< $< @< @< +< #< A[ h5 a^ q/ X/ i5 j5 k5 g^ $^ l5 m5 5< %< %< %< +< +< b3 +< +< +< @< @< @< A[ n5 o5 {( b4 x& H3 p5 q5 r5 s5 t5 u5 v5 w5 x5 y5 z5 =< +< +< +< @< @< $< +< A5 B5 C5 D5 E5 F5 G5 H5 I5 J5 K5 X] 9, L5 M5 N5 O5 O5 P5 Q5 D5 R5 S5 T5 z[ @< $< %< +< +< +< +< U5 V5 W5 W5 X5 Y5 Z5 `5  6 .6 +6 `} ;/ g| @6 i< @< +< +< +< +< %< g2 #6 $6 b^ %6 |^ 5^ &6                   7/ x& |' *6 t1 P< =6 @< %< +< %< #< #< #< 5< -6 ;6 Z5 >6 ,6 '6 )6 !6 ~6 {6 ]6 ^6 /6 (6 _6 :6 <6 [6 X] }6 |6 16 26 (} /} G1 K2 I2 36 46 56 66 76 86 96 06 a6 b6 c6 R1 G1 Q4 *1 ]2 ]2 d6 e6 f6 g6 V4 U^ y: #  h6 Y4 i6 u} M} (} (} -1 Z4 j6 k6 l6 m6 r- n6 +5 q- I| o6 #5 p6 E} *1 :3 d6 <} q6 r6 s6 t6 Z2 Z2 ,% u6 v6 w6 '4 b} u} <5 u} E} x6 y6 z6 _+ A6 B6 <! W3 C6 D6 E6 E} X| *1 X| /} F6 G6 H6 I6 J6 K6 L6 M6 N6 O6 t} E| u} u} u} u} u} P6 Q6 R6 L$ I  S6 T6 U  Z                                                                                                                                      ",
"                                                                                                      U6 V6 W6 L$                                     X6 Y6 Z6 ;/ y4 i^ y: `6 m5 +< &< @< @< +< A[ b| b|  7 .7 +7 @7 #7 $7 %7 &7 *7 =7 @< @< @< +< +< 1| +< +< +< -7 .^ -- S[ ;7 >7 ,7 22 7/ '7 _< :< +< A[ A[ A[ 6| +< %< $< $< +< 6| A[ A[ )7 !7 ~7 8^ x& {7 ]7 ^7 /7 (7 _7 :7 <7 [7 }7 |7 17 27 +< &< @< #< #< +< %< 37 47 57 67 77 87 87 97 07 a7 X] 7/ B3 b7 c7 d7 e7 f7 g7 h7 g7 i7 j7 k7 c| 1| 1| +< $< $< @< l7 m7 n7 o7 p7 q7 r7 s7 t7 u7 v7 w7 B3 4> c^ x7 m< @< 1| +< +< +< b3 g2 y7 >> l' z7 o^                            W$ A7 B7 ]: 8: C7 @< +< +< +< @< @< #< A[ D7 E7 F7 G7 G7 H7 I7 J7 K7 L7 M7 N7 O7 P7 Q7 R7 S7 T7 {^ U7 V7 W7 X7 (} Y7 Y7 S1 G1 Z7 `7  8 .8 +8 @8 #8 $8 %8 &8 *8 =8 -8 X| X| E| E| *1 ;8 >8 ,8 p( B6 t6 P@ '8 )8 (} -2 d6 *1 M} !8 ~8 {8 (> l| ]8 I  @- ^8 O< U+ /8 (8 _8 E} *1 Q4 :8 <8 [8 }8 |8 t6 h3 18 e( 28 38 w6 '4 [} Q} X| u} u} 48 58 68 q- h3 78 _+ W3 88 u| E6 E} :3 R4 :3 S1 98 08 a8 b8 c8 c8 d8 e8 f8 g8 -2 b} b} N} [} u} Z| K2 h8 i8 L$ c. )1 j8 y& 7+                   /. k8 l8 Q  i                                                                                                     ",
"                                                                                                      m8 n8 o8 6              Z  p8 q8 r8             m% s8 t8 q/ 22 u8 Q: v8 p3 +< +< +< +< +< +< z[ b< w8 x8 y8 z8 .7 A8 A8 B8 C8 D8 b< @< $< &< +< +< 5< 5< +< E8 4^ S[ E[ F8 G8 H8 !> I8 J8 b< +< 6| 6| A[ +< 6< K8 z[ c< @< +< +< %< a< L8 M8 N8 u' u' ~^ O8 P8 Q8 R8 S8 T8 U8 V8 W8 X8 Y8 z[ @< $< $< $< +< +< %< Z8 `8  9 .9 +9 @9 #9 $9 %9 &9 *9 %} 9, =9 -9 ;9 >9 ,9 '9 )9 !9 ~9 {9 ]9 c| +< @< @< $< @< +< b3 ^9 /9 (9 _9 :9 <9 [9 }9 |9 19 29 c^ m, g| 39 m< @< +< +< +< +< A[ m5 49 @4 l' 59 !^                            s# 69 79 :( ,% 89 :< @< @< +< %< 1| +< @< 99 09 a9 b9 c9 _7 d9 e9 f9 g9 h9 i9 j9 k9 l9 m9 n9 !> x4 ,% o9 p9 q9 &1 t} S1 S1 I2 r9 s9 t9 u9 v9 v9 w9 x9 y9 z9 A9 B9 C9 D9 *1 *1 M} M} e6 E9 ,8 V4 B6 y: #  F9 G9 t} E| E| M} M} -1 H9 I9 J9 {^ K9 !@ `} L9 M9 _+ N9 O9 P9 E} t} Q4 X| a} Q9 R9 S9 B^ h3 T9 <( U9 V9 ,5 '4 b} u} Z| E| E| )4 W9 68 J| *^ N< R% X9 Y9 Z9 q} '3 X| X| *1 i6 `9  0 .0 +0 b8 b8 b8 @0 #0 $0 %0 &0 [} [} [} u} E| M3 *0 i8 L$ 65 0^ =0 I     8- -0 ;0 Z        '  >0 ,0 '0 /.                                                                                                    ",
"                                                                                                      )0 !0 ~0 =.             !+ {0 ]0 ^0                [= /0 (0 !' 4> #~ _0 p3 +< +< +< +< +< +< =< *< :0 <0 [0 }0 |0 10 }0 20 30 40 c| +< +< +< $< $< @< @< +< 50 5^ S[ e_ 60 70 [' 80 90 00 +< +< @< %< @< c| a0 b0 .< &< $< @< c< @< :< a3 c0 d0 S[ R[ X] e0 f0 g0 h0 i0 j0 k0 l0 m0 n0 o0 _< @< $< $< 1| 6| +< b| p0 q0 r0 s0 t0 u0 v0 w0 x0 y0 z0 A0 '. i{ B0 C0 D0 E0 F0 G0 H0 I0 J0 K0 :< %< @< @< $< +< b3 b3 L0 M0 N0 41 O0 7> P0 Q0 R0 S0 T0 c^ ;/ e^ U0 m< @< +< +< +< +< +< g2 49 X} b^ V0 q^                            s# W0 X0 W] ,% Y0 :< %< $< +< +< +< 6| @< Z0 `0  a .a +a @a #a $a %a &a *a =a -a ;a >a ,a 'a d- x4 )a !a ~a ;1 {a *1 ]2 Q4 [5 ]a ^a /a (a |& =. 7+ =. =. U  M# _a :a <a E} -2 [a }a t} |a 1a 2a q- U+ P@ 3a T2 /} X| X| X| *1 4a 5a 6a 7a {^ 8a X$ d( 9a M9 i  0a aa ba E} M} t} X| a} ca da ea R% #4 $^ fa U9 ga ha R} '3 u} E| E| E| 48 y6 ia ja &^ N< R% ka la ma na a} u} E| E| i6 oa pa qa ra sa ta ta ua va wa xa ya [} P} Q} X| X| za Aa Ba i  B3 Ca Da       Ea Fa Ga I        /. Ha Ia Ja                                                                                                       ",
"                                                                                                                              Z  Ka La Ma                M$ /0 Na !' d^ A6 Oa i< +< +< +< +< +< +< @< @< Pa 31 h^ B3 r- 9, 4> Qa Ra Sa b< +< +< +< $< $< @< @< %< Ta [6 q/ Ua Va Wa Xa Ya Za `a +< c< c< c< h<  b .b +b @b A[ b3 $< @< %< +< :< #b $b v4 31 x4 %b &b *b =b ;/ 2' V, V, b; -b ;b m< @< +< +< 1| 5< 5< @< >b ,b 'b <' )- W$ `} )b !b ~b {b B3 U  ]b ^b /b (b 9, :! '. c. h] _b :b :< @< @< $< +< 6| +< 5< <b [b ;$ '. ). }b H0 |b 1b 2b 3b e^ B3 B3 4b i< #< +< +< +< +< +< g2 y7 X} u/ 5b 7/                            s# 6b 7b N< a( 8b :< +< $< +< #< %< #< n< 9b 0b ab h^ `} }b B3 B3 d( 2' :! b; 31 bb cb db e& eb B3 fb gb hb (4 &1 F1 S1 Q4 [5 H< ib jb kb ++ U  Z  Z  U  U  lb mb nb ob pb qb rb sb tb ub vb V4 >> U+ B. wb xb /} X| E| E| M} yb 5a zb 7a 18 Ab !@ k' Bb M9 i  N9 Cb Db E} E| M} E| N} Eb Fb Gb R% X] $^ Hb Ib Jb Kb R} b} u} E| u} u} 48 W9 ia J| @^ Z] R% ka Lb Q9 Mb '4 u} X| X| t} Nb Ob Pb Qb lb lb lb Rb Sb Tb Ub Vb E| u} X| X| Y| Wb Xb i8 i  B3 Yb Zb       `b  c .c                                                                                                                            ",
"                                                                                                                                                         +c @c #c H0 4> A6 $c i< +< +< +< $< $< +< @< :< %c p^ &_ B3 x4 d( d- g^ &c *c _< +< +< %< &< +< +< 5< +< =c +^ X/ -c ;c >c S[ ,c x7 'c )c @< @< +< 5< !c ~c {c ]c c| A[ +< #< $< @< :< ^c /c q/ X/ x4 U  Z  )- c. v' c. v' (c i^ _c :c :< +< %< %< @< 5< #< %< ;  <c A6 :! b; c. ). '. U  U  U  U  U  U  '. '. '. ). )- X* 2' d- [c }c :< %< %< %< +< @< @< @< |c 1c Z! 65 2c b; c. v' c. )- v' V, 2' 9, 3c i< @< +< +< +< +< +< g2 y7 X} b^ 4c q^                            s# 5c 6c Z] p( 8b :< b3 +< +< %< @< @< n< 7c 8c 9c y4 u8 G, <' b; b; 2c :! 2' @- &6 `} B3 i^ }b b; <! 0c ac bc s} G1 cc cc cc &0 dc ec fc Z  s$ gc `} @- !@ |# hc ic jc kc lc mc nc oc pc qc X} @~ @[ 5[ rc sc t} E| *1 *1 M} 4a tc uc J9 T9 vc wc xc yc O< B# zc Ac Bc E} E| *1 E} q} Cc Fb s6 <! !> 2^ ^: Dc Ec Fc Gc Hc E} E} E} E} 48 58 z6 J| G3 Z] R% ka Ic Q9 Mb '4 u} Q} [} Jc Kc Lc Mc U  U  U  U  U  #' Nc Oc Pc Y| X| ]2 ]2 X| P4 h8 Qc i  i^ Rc Sc                                                                                                                                           ",
"                                                                                          Tc Uc s#                                                       +c Vc Wc o, d^ B6 Xc .6 +< +< +< $< $< +< @< @< Yc S[ f_ l' e^ d( X* )b Zc `c << h<  d $< &< +< +< 5< A[ .d 2^ )b +d @d E[ g^ #d $d || c< +< A[ A[ A[ %d &d *d =d M5 :< @< #< +< +< z[ -d ;d v4 7^ 7/ '. )- c. )- ). )- 2' u8 u8 >d ,d n< &< %< %< @< +< +< +< 'd )d e( 2' !d X* )- )- ). ). U  X$ )- '. '. Z  Z  Z  v' eb ~d 2' {d }c :< %< +< +< +< @< @< $< ]d ^d c( W, /d d- ). c. v' v' (c }b j^ b^ (d m< @< +< +< +< +< +< m5 y7 <( [' _d #>                            W$ :d <d X] -5 [d :< +< %< +< +< +< +< %< 7c }d |d i^ eb G, eb eb G, b^ 1d 2d 3d u8 B3 B3 i^ 9, d( U+ 4d 5d 6d (} /} Q4 Q4 S1 7d 8d 9d 0d ad j} q- A6 b( bd =. cd dd ed fd gd hd hd id jd kd ld N_ ,% P  md nd (} *1 *1 *1 M} 4a od pd qd rd sd  a td ud U^ >) vd wd xd E| Q4 Q4 E} yd zd Ad Bd R% 4> 2^ ^: Cd Dd Ed 0} a} b} E} E} E} Fd Gd !5 Hd Id @~ R% ka Jd Kd Mb =1 [} O} N} W| Ld Md Nd U  Z  U  U  7+ Od Pd Oc Qd X| Q} X| X| X| M3 Rd Sd :+ }b Td Zb                                        ~$ Ud Vd                                                                                           ",
"                                                                                       Z  Wd Xd %&                   Z                                   Yd Zd `d H0 e^ B6 $c m5 +< +< +< +< +< +< $< :<  e 31 f_ [' b^ r- X* .e +e @e =< 6| %< $< +< +< +< @< :< #e X] H0 $e %e [| k' &e *e -} 1| A[ =e A[ b3 -e ;e >e ,e _< #< #< %< +< A[ @< 'e )e p^ w4 ~7 .^ W] I0 4> ~^ !e ~e {e r- ]e ^e n< $< +< %< +< +< +< b3 'd /e (e B3 _e :e <e *6 [e }e 3^ |e v[ x4 `} `} @- #4 1e 2e f_ :! {d 3e =< +< +< +< +< +< +< +< 4e 5e L( l' 6e :e Z] n6 d^ }e n4 '} b^ h^ 3c 7e @< +< %< %< %< +< m5 8e X} -- 9e @>                            W$ 0e ae X] p( [d q3 +< %< +< +< b3 A[ +< be ce de ee fe ge he ie je ke le me ne i^ B3 `] 2^ f_ 9, k6 oe pe qe M} Y3 Y3 E| u} G} re se te ue ve we xe I  U  U  U  ye ze Ae Ae Be Ce De Ee Fe <_ .^ B^ e# Ge He M} *1 t} Q4 F1 Ie Je Ke Le 8> !@ bd j} j} i  J9 Me Ne Oe E} *1 *1 u} q} zd Pe Bd R% h^ ~^ ^: Qe Re Se R} '3 b} E} E} u} Te Gd Ue Hd Id g] R% X9 Ve Q9 We S} N} O} N} G} Xe Ye Nd '. I* !@ U  =. Ze `e  f .f [} [} [} [} P} _4 Rd Sd :+ 65 +f @f                                        #f $f %f                                                                                           ",
"                                                                                          &f *f o+       /.          Z                                   =f -f ;f !' 4> B6 $c m5 +< +< +< A[ A[ A[ @< n< >f g^ _! _! [' X/ ,f 'f )f c| +< +< A[ +< $< @< #< =< =< }/ W] u/ ~' {( X/ !f ~f :< +< A[ +< @< :< {f ]f ^f /f (f :< A[ A[ +< #< =< c< )f _f :f <f [f }f |f 1f 1f 2f 3f 4f 5f 7/ 6f 7f 8f %< +< +< A[ A[ b3 b3 !  <c y& 9f 0f af bf cf df ef ff gf hf if jf kf kf lf mf nf of b; [c pf 4< 1| +< +< +< %< +< +< qf rf V] sf tf uf vf vf wf xf yf zf [f h^ Af {f c< +< +< b3 +< b| g2 Bf Cf -- Df #>                            s# Ef Ff X] a( K0 :< +< +< +< +< +< +< c< c< :< :< i< Gf Gf 7e i< i< i< $. << Hf If Jf Kf Lf Mf M[ 5[ Nf Of Pf G} <} E| M} -2 Qf Qf O} Y7 Rf Sf Tf Uf @1 U  U  U  U  U  U  U  U  U  U  /. =. %^ T9 P^ Vf Wf Xf (} *1 t} /} Yf Zf R1 `f  g .g +g @g #g $g %g &g *g =g -g <} *1 ]2 u} '3 ;g >g ,g R% 9, +^ A6 'g )g !g a} E} u} Qf Qf Qf ~g {g ]g Hd Id @~ R% X9 ^g /g 0} R} b} b} N} G} (g _g :g bd <g J| W$ Z  |# [g }g |g N} [} [} [} 1g 2g 3g Sd i  2' 4g 5g          6g 7g 8g 7+          /.    Z  9g 0g ag                                                                                           ",
"                                                                                                   _+ bg cg dg '                                         eg fg gg H0 4> B6 hg i< +< +< +< +< +< +< 5< *< ig jg kg lg mg mg ng og pg -} *< 1| 1| +< c< @< 5< qg rg sg 9, r/ tg d_ 31 ug vg @< #< @< c< @< :< i< wg xg yg zg Ag p1 @< @< @< #< :< Bg Cg Dg Eg Lf Fg Gg Hg Ig 21 Jg Kg Lg 0& Mg Ng c< +< +< +< @< @< +< +< 'd Og Pg Qg Rg Sg Tg m6 Ug Vg Wg Xg Yg Yg Zg `g  h .h +h xf @h #h $h %h @< +< %< %< +< +< +< +< qf ce Hb &h *h =h -h ;h >h ,h 'h )h !h &_ Af {f c< +< +< +< +< A[ g2 ~h X} -- {h q^                            I* ]h ^h X] -5 /h c< +< +< b3 +< +< +< %< %< %< +< +< &< $< #< @< @< @< :< << (h i2 _h :h Ug <h :e *. [h }h |h Z7 M} E| E} b} b} N} =1 1h 2h 3h 4h 5h 6h 7h 8h 9h 0h K| i+ Z  Z  '. Z  U  U  ah  a bh ch dh eh :} E| t} /} F1 Yf Yf fh gh hh ih jh kh kh lh mh nh M2 M2 (} t} S1 t} M} oh ph qh 6  B3 Y] U^ 'g rh sh r} E} <} M} E| X| ~g th uh s# vh @~ R% ka wh Kd R} a} u} u} [} u} xh yh :g X$ Y^ Hd 8> i+ zh Ah Bh Ch Dh v} Eh Eh Fh :4 Gh i8 :+ 2c +f Hh Z  =. I  Ih Jh Kh       =. U+ Lh Mh Nh /. =.                                                                                              ",
"                                                         Oh Ph Qh 7;                         <+ Rh Sh Th Uh Vh Wh                Xh Yh 8-                eg Zh `h H0 e^ B6  i i< +< +< +< +< +< %< 5< 5< +< @< @< @< z[ @< @< @< .i =< @< $< c< 4< << +i @i #i $i e^ %i z7 &i +d e_ *i =i m< g< c< c< @< +< +< -i ;i >i ,i 'i )i =< %< +< +< @< a| !i ~i %^ ^8 {i 8a Z  U  U  J| ]i ^i X] >d /i 4< +< +< +< @< @< %< +< !  (i _i :i <i [i W$                         Z  Z  Z  ah }i |i h] 1i %h :< $< $< +< +< +< +< +< qf 2i k} 3i 4i -h I  U  U  Z  5i 6i 7i ]: 8i 9i @< +< +< %< %< b| g2 0i X} 1^ ai q^                            I* bi 0f X] -5 ci :< +< +< b3 +< +< +< %< %< %< %< %< +< +< %< %< $< %< =< << di 7^ ei Y: fi gi hi =. ii ji ki li Y| E| '4 N} =1 mi ni oi pi qi ri !8 si ti ui vi wi xi yi >) Z  Hd h- s$ Z  zi Qg A^ ch Ai Bi <} u} t} t} t} /} t} t} X| u} E| Q} [} c} =1 v} G} Jc E| t} S1 K2 t} M} Ci Di Ei 8. d( W] P^ Fi Gi sh '3 E} E| *1 E| E| ~g {g Hi :$ e2 @~ '  ka Ii Ji a} E} -2 -2 u} Jc Ki Li Mi Z  '. I  K| Ni Oi Pi Pf Qi Ri Si Ti mi Ui Vi Wi Sd :+ 2c +f Xi Yi Zi `i  j .j +j       i  @j #j $j %j &j                            I  *j =j -j                                                          ",
"                                                         ;j >j ,j 'j Z                       :$ )j !j ~j {j ]j S. z$             ^j /j (j                =f _j :j H0 ;/ B6 <j i< +< +< %< +< +< %< +< +< +< +< +< +< +< +< *< @< 5< +< $< $< +< =< t2 [j }j |j 1j u8 %i 59 2j x2 q/ 3j 4j n< %< +< +< 1| A[ +< 5j k/ _i 6j 7j 8j c| 6| A[ A[ $< @< c< 9j 0j m| aj bj Z  U  U  Z^ cj dj `] ej ,d c< &< &< +< $< %< +< +< ;  fj A6 gj hj ij !@                                  ah jj Kf #h 1i %h :< $< $< %< +< %< %< +< kj lj Hb mj nj oj Z  U  U  U  |i nj pj qj rj i< @< +< $< %< %< +< g2 sj X} 1^ tj ;>                            I* bi vf #4 ,% K0 :< +< +< A[ %< $< &< %< %< %< %< %< %< +< +< %< $< %< @< m< uj [^ ei vj wj xj yj Yi |& zj Aj Bj Cj d} Dj F} d} mi ni Ej Ej Fj Ej Ej Gj Hj Ij Jj Kj Lj Mj Nj *. j} _i Z! I* Oj Pj Qj J9 Rj Sj M2 E| t} t} /} S1 S1 S1 S1 t} *1 X| u} b} b} E} E} E| E| t} t} Y7 t} M} Tj Uj Vj i  `} Z! _+ Wj Xj sh c} u} X| *1 *1 X| Fd Yj Hi :$ e2 @~ '  Zj `j  k E} u} X| X| b} D| .k +k @k #k $k %k $k &k *k =k Dj ni -k ;k >k ,k 'k )k !k ~k y& !d {k ]k I  ^k /k (k _k /.    |# B. :k <k [k }k |k                            u^ 1k 2k 3k                                                          ",
"                                                         4k 5k 6k 7k Z                       I  8k 9k 0k ak bk I           Z  X$ ck dk Z+                =f ek fk gk W, B6 hk i< +< +< 1| 1| +< 1| +< +< +< 1| +< +< 1| +< +< +< +< %< +< 5< ik jk kk lk mk nk b^ <' G, ok 4c g^ ;/ pk qk =< A[ A[ +< rk =e sk tk uk Y! O8 vk wk &< A[ %< %< +< +< A[ xk i2 |^ yk zk q( !@ U  Z^ Ak Bk .^ k: ,d m< @< $< %< +< 1| 1| 6| ;  <c B6 oj Ck Dk I                                   z_ Ek ]8 Fk [c %h @< +< +< +< %< @< @< =< Gk lj gc mj Hk Ik Z  U  U  U  Jk Kk pj Hb Lk i< @< %< @< *< Mk .< (| 49 <( *6 _d ;>                            I* Nk 4f X] Q^ Ok b< Pk Qk Rk Rk Sk Tk Uk Uk ik Vk Wk 72 p1 p1 p1 p1 p1 Xk Yk Zk `k %6 r- &6  l  a Le .l +l @l #l $l %l &l *l =l e} mi ni -l oi ;l >l ,l 'l )l !l ~l {l ]l ^l /l (l _l :l U^ <l [l C^ J9 }l |l i6 E| M} t} Q4 *1 E| E| X| X| u} b} b} N} a} a} '3 Y3 s| G} W| 1l E| Jc D1 2l 3l i  &6 ]: Q: 4l 5l 6l O} [} X| ]2 X| u} 48 7l 8l :$ 9l >/ $  Zj 0l al E} [} u} u} N} -g bl cl dl el fl gl hl il jl kl ll ml 'k 'k nl ol pl Dh ql i8 rl 65 sl .j R^ tl ul vl          =. -+ wl xl yl zl Al                            Bl Cl Dl El                                                          ",
"                                                         Fl Gl Hl =+                                  Z  :! b;                                           Il ek Jl g| u8 U^ hk m< b3 +< 6| +< +< +< +< +< +< +< +< +< 1| +< 1| 1| b3 %< @< Kl Ll Ml Nl Ol Pl *6 X* y4 Ql ,} Rl 7/ `] Sl Tl s2 A[ +< @< :< _< Ul Vl Wl L( Xl Yl Zl $< %< %< +< +< #< +< `l  m 7^ .m +m @m W$ U  Z^ #m $m #4 k: /i 4< +< 5< =< =< -} .< .i %m fj A6 oj &m Dk I                                   l| yf *m b; [c %h @< 5< .i p1 b< =m -m K8 ;m 2i Hb 3i >m ,m Z  U  U  U  Jk Kk 'm b( )m m5 -} p1 72 Xk !m ~m b1 y7 X} [' {h {m                            s# ]m X0 Z] a( ^m /m (m _m :m :m :m :m <m (m Tk [m }m Xk Xk }m |m |m }m 1m 2m 3m p^ z1 d( ). 4m T7 C^ S% .+ 5m 6m 7m 8m 9m 0m am ,k bm -l cm dm Fj >l ml em fm )l gm hm im jm km lm mm nm /. qj ]: y& Le om pm E| b} a} b} u} b} '4 b} u} u} b} N} N} '4 R} R} R} 0} 0} re re We S} qm rm sm ~4 @1 J| ]: ;$ tm um vm O} [} [} Q} u} N} wm xm ]g 8> ym zm >) Zj Am Bm u} b} b} b} '4 R} Cm 46 Dm Em Fm Gm H< t| Hm fm )l Im Jm Jm Km pl pl Vi Lm Mm #~ Nm Om Pm    Yi Z  X$                ). c.                                     Z  Qm Rm Sm                                                          ",
"                                                                                                                                                         Il Tm Um c^ u8 #~ hk :< +< +< +< 5< 5< +< +< +< +< +< +< +< +< +< b3 +< +< b3 rk Vm Wm Xm Ym Zm `m  n j^ )b +d E[ .n .^ +n @n #n 5< #< @< n< $n $n %n &n *n G, [e =n -n ;n 5< #< @< #< #< b3 >n ,n m| 'n W0 )n &6 U  Y! !n ~n .^ {n ]n @< +< ^n /n Qk (n _n Vm :n fj A6 <n [n !n !@                                  l| }n *m X* [c |n =< 1n 2n b0 3n 4n 5n }m 6n 7n ]: 3i Hk 8n Z  U  U  U  9n 0n an q- bn cn dn Sk en 2n fn gn hn in X} [' 4c {m                            s# jn kn X] z@ ln =m 5n gn mn nn Wm on pn qn rn sn rn rn rn tn (m 5n un vn wn xn !' Y_ &^ :+ Hb &^ 6^ 8> 7+ Be yn zn An Bn Cn Dn En Fn ,k ,k 'k 'k Gn Gn 'l Hn Hn In In Jn Kn Ln Mn Nn On Pn ). !@ >) Qn Rn Sn Tn Hm Un Vn Wn Xn Yn Zn We Si We We d} We `n  o .o Mb `n .o  o +o @o #o $o %o &o @1 h- *o #~ =o -o ;o Si =1 v} N} '4 =1 >o ,o 'o '. ld #[ >) Zj )o !o b} b} b} b} a} S} ~o {o ]o ]o ^o Ej /o 'l Hn fm )l (o (o (o Fn Fn _o :o <o [o }o )- |o 1o                                                                                                                                           ",
"                                                                                       B# B#                                                             =f 2o Um m, u8 P^ 3o m< +< %< -} 4o .< 5o 6< +< +< +< rk rk +< #< #< %< %< %< ^n 6o 7o 8o 9o K8 0o ao l| |e bo d_ S[ <^ co do :< 8f :< @< 6< /m b< eo fo g4 2' W] go ho l7 #< +< +< +< +< @< g2 io Z] 7^ jo ko k' U  Hd 3i lo +^ mo ]n @< ^n no oo po qo Wm sn >b fj k} @h ro Jk !@                                  z_ so to uo vo wo n< 3n :m (m oo _n :m xo Gk yo ]: zo Ao W/ Z  U  U  U  Bo Co ij O^ Do Eo Fo Go Ho Io Jo ~m Ko y7 @4 b^ Lo {m                            s# Mo No Z] Oo Po =m Io mn mn un :m :m un 5n Pk 5o Qo Vk Ro Ro ik Vk So To Uo Vo w4 ok %^ L$ U  x4 )' X$ U  =. 7+ Wo Xo Yo Zo `o  p .p nl nl pi pi /o 'l ml ,l ml Hn In +p @p #p $p *4 %p &p *p Y! k6 =p -p ;p Yn >p >p ,p ,p 'p )p !p ~p {p ]p nl pi ^p /p (p _p :p <p >l [p }p |p 1p 2p 3p 4p *. I* ]: C^ 5p 6p 7p mi d} v} =1 `n `n >o 8p 9p Z  Z2 Hb >) Pn 0p ap c} c} O} O} N} S} Mb Ri bp  1 Fj Gj cp Hn dp Im Im (o (o (o (o ep fp gp hp ip jp ). kp lp                                           =. /. /.                                                                                        ",
"                                                                              /. mp np op pp qp #                                                        =f 2o rp ~d 65 P^ j( sp Tk <m mn tp tp tp Io rn po po up vp wp xp yp zp Ap Ap Bp Cp Dp Bp Ep pn Fp Gp Hp Ip q/ 31 v4 @^ Jp Kp ik Io un Lp (m Mp rk Np Op r- b; !@ Pp Qp Rp Sp (n Tp (n rn _n Up Vp Wp |^ Xp yk Yp U  Hd Zp `p g^  q .q Ro +q 7o @q ~m :m mn 5n !  #q 'b -h $q 3i !@                                  f1 jj ]8 #h _b :b dn nn %q qo _n Io un &q *q yo <g =q -q ;q Z  U  U  U  ]i >q ,q H3 'q )q Ep !q ~q ~m {q po m5 49 @4 l' ]q O*                            s# B7 ^q  ^ 8: Kp /q on un (q (q _q :q <q [q }q |q 1q 2q 3q 4q 5q 6q 7q 8q 9q 0q d( 1^ wc aq 4^ }^ bq cq h^ V, 7+ ye dq eq fq gq hq iq jq kq lq mq nq oq pq 'p qq rq sq tq uq uq uq vq wq xq yq @1 J9 zq Aq Bq Cq Dq Eq oq Fq Gq Hq Iq Jq Kq Lq Mq Nq Oq Pq Qq Rq Sq Tq Dq Uq Vq Wq Xq Yq Zq `q #' X$ :! I   r .r +r @r #r (o $r %r &r *r =r -r U  P^ Y! *. Zj ;r H} >r !p Yn >p ,r ,r 'r Yn Xn em Hn In gm )r !r ~p ~r {r {r ]r ^r /r (r _r :r <r b; }b [r }r                                        /. |r 1r 2r op 3r                                                                                  ",
"                                                                              6  4r ]d 95 hn 5r 6r Ib |. =.                                              7r 8r 9r 0r <' Q: J( g2 Rk %q %q _m _m ar qo fn br cr dr er fr gr hr ir jr Cp Cp Cp kr Dp Dp Ap Fo Uo Uo lr v[ 31 31 mr nr be .i ar or (q nn pr K8 qr rr sr jp !. G^ tr K8 ur ~q vr wr xr yr zr 7f Ar z_ b4 Br Cr |# Hd Dr Er .^ ej ,d Fr Gr Hr _m _n un un sn !  Ir _i @h -q 3i !@                                  ah Jr ]8 uo Kr Lr Mp Mr tp ar Io mn ~q up Nr Or <g mj Pr W/ Z  U  U  U  Qr Rr Sr Tr Ur Vr Wr Xr !m qo fn ar b1 Yr ^: -- V0 {m                         I  s$ Mo Zr $^ P< `r  s kr ~q un :q %q %q <q .s +s @s #s $s %s &s *s *s =s -s ;s >s u8 !' 'n ,s 's )s !s ,7 |' h- U  U  U  |# Od ~s {s ]s ^s /s (s _s :s <s [s }s ~p |s 1s uq 2s uq 3s 4s 5s 6s Mc *. *. i& 7s 8s 9s 0s hm Eq as bs cs ds es fs gs %8 %8 hs is js ks ls ms ns Uq os ps qs Yq rs ss #' ). :! I   r ts us vs ws xs xs ys zs As Bs Cs U  P^ ;$ #' Qn Ds As ms Es Dq Fs Gs Fs #r 'r Im ^r ^r pq Hs Is Js Ks Js Js Ls ~r Ms Ns Os Ps Qs Rs 65 p[ Ss Ts Z                                F+ Ib Us Vs $n $n :< Ws Yi                                                                               ",
"                                                                              i  Xs Ys Zs `s  t .t +t @t /.                                              #t $t %t !d 2c Q: J( d< Rk _m _m ar ~m _n rn Go &t *t =t -t ;t >t ,t 't )t !t ~q ~t kr kr {t ]t ^t /t (t _t @^ d^ ;> :t <t [t b0 }t kr |t Dp Ap 1t 2t Hp 3t Q_ Q_ 6_ 4t 6o Ep Bp Bp Xr Ap Ap 5n 5t 6t 7t [6 8t 9t U  I* 0t at #4 bt .q ct dt et qo ft gt ht it jt kt k} lt mt nt !@                                  ot cf pt W$ qt rt st or tt or Mr ut vt wt xt yt ]: =h zt At Z  U  U  U   h Bt *m l} Ct Dt Et 7o Ft Gt Ht It Jt Kt 9l S[ 9e q^                W$ Lt }^ w4 b4 e_ cq gc @[ Mt Nt Ot ]t Jo un Pt Qt 6o Rt St Tt ,| cq Ut b4 j{ v[ Vt k* Wt Xt b^ 31 Yt Zt `t T[ 8^ o^ <g bd '. '. '. U  =.  u .u +u @u #u $u %u &u *u =u -u ;u >u 'r ,u 'u 'u Vq )u !u ~u Mc i& i& Mc {u ]u ^u /u (u (u qs :p _u :u <u [u %8 gs gs }u |u 1u 2u 3u 4u 5u 6u 7u Dq 8u 9u 0u au #' '. h* 8> bu cu du eu fu gu hu iu ju ku lu Cs U  P^ ;$ *. Qn mu nu ou pu qu ru /u iu su tu uu vu wu xu yu }s {p zu _o _o w} Au Bu Cu Du Eu Fu Gu <^ Hu Iu Ju                                  Ku Lu Mu Nu Ou Pu n< o@                                                                                  ",
"                                                                              y& Qu Ru Su Tu Uu no hn Vu /.                      H. H. <+                Wu Xu Yu 0r <' j} j( m< b0 ar Jo :m Wm (q Zu `u  v 1j .v +v @v #v $v %v &v *v kr Wr =v =v Hr -v ]t tn A[ ;v :e d^ 8g >v ,v |m 'v Bp Cp xp )v !v kr ~v {v {v ]v c| ^v wt /v Wr Ap (v vr (v Dp Hr _v :v <v Yp [v }v X$ J| |v 1v Z] 2v ,d Fr Pt 3v un _m 4v 5v 6v 7v 8v ]: 9v 0v mj !@                                  ud av bv V, cv dv ev fv Dp vr gv hv iv jv kv lv #[ bi mv nv Z  U  U  U  .h }f Oj [( 'q ov pv qv rv tp sv tv uv vv Z2 X/ z7 !^ Z  Z  Z  '. @- x4 v4 b4 f^ 7/ |' o^ Y! Q^ wv xv Qt Ap !m kr yv zv jv Av Bv =5 c. )- ). ). '. )- Cv Dv Ev Fv 22 22 -- q/ )' |' r- @- Gv -5 #~ bd ). U  U  U  U  U  U  U  U  Hv Iv Jv Kv Lv Mv Nv tq Fs Ov Pv Qv Rv Sv Tv #' i& i& Uv Vv Wv Xv Yv Zv `v  w @r .w +w @w #w $w %w &w *w =w -w ;w >w ,w 'w 0s )w !w ~w {w ]w ^w #' I  &6 8>  r /w (w _w :w <w <w [w }w |w 1w 2w U  Y! !. J9 Zj 3w 4w 5w 6w  w 9s 7w 8w 9w 0w aw bw cw dw ew fw gw hw iw jw kw lw mw nw ow )- 2c d- pw qw rw H^ <+ @$ sw                         tw a< Vk uw vw ww Up xw                                                                                  ",
"                                                                              y& yw zw Aw Bw Cw Dw Ew Fw -+                      Gw Hw Iw                Jw Kw Lw ~d 65 _+ v( _< Bp yv 3v Wm vr ~q Mw Nw Ow Pw ;c +d Qw %e ~' Rw Sw Tw Uw Vw Dp +q Xr Ww Xw (v Yw Zw <^ b^ `w  x .x Ap dt {t +x @x #x it $x Qt %x &x Qt *x =x -x ;x *x >x ,x Pt Dp 'x zv )x !x ~x Xp {x ]x ^x h- |v /x .^ (x _x _v :x <x [x }x |x 1x 2x 3x 4x #h Oj 5x 6x !@                                  ot 7x 'n Y^ vo 8x 9x 0x ax bx _q cx dx ex fx gx hx ix jx Wg Z  U  U  U  kx lx bv mx nx ox px qx rx Xr sx tx ux vx Hb p^ wx )s q( .n x& |' [' l' r- B3 d- :! !> m, n6 |d xx yx zx Ax po +x Bx Cx Dx Ex Fx @4 X* Nm v' )- ). )- Nm eb Gx 2c 2c u8 4> u/ 22 h^ P^ Hx Ix Jx ,% !. Z  Z  /. |# U  U  U  U  U  Kx Lx fq Mx Nx Ox Px Qx Rx Sx Tx Ux Vx Wx Xx Uv i& i& Yx Zx `x  y .y @r +y @y #y $y %y Od =. U  U  U  U  U  7+ &y *y =y -y ;y >y ,y 'y )y !y ~y #' ). &6 I  {y ]y ^y /y (y _y :y <y [y }y |y 1y U  X$ 8> i& Zj 2y 3y 4y 5y zs 6y 7y 8y ;u 9y 0y ay by cy dy ey fy gy hy iy jy ky ly my )- X* 2' !^ ny oy py Z  >^ qy ry X6 `                    sy ty uy vy wy xy yy zy <+                                                                               ",
"                                                                              y& Ay By Cy Dy Ey Fy Gy Hy i+ -+ !.             I  Iy Jy Ky Z              Il Ly My W, 2' Q: Ny 95 Qt Oy 'x nn nn %q Py Qy Ry W, c. Z  Z  Z  U  1' Sy Ty Uy Vy Wy Xy +q Yy hv Zy `y  z #^ -- .z +z (t >x @z {t jv #z $z %z &z $z *z =z -z ;z $x ,x $x #x -z >z qv ,z 'z )z !z ~z {z <^ X/ ]z ^z &6 8t /z +^ bt (z Pu _z :z <z [z }z |z 1z 3x 2z k} Oj 3z 4z !@                                  ot 5z 'n #h $h 6z 7z 8z 9z Ap 0z az bz 2x cz dz *o ix av Ya U  U  U  U  kx if bv /: ez fz gz hz iz jz kz Bx lz mz P< !> nz nz l3 E[ v4 g^ i^ d( 2' x4 lv oz pz X] qz rz sz tz uz vz Gt wz xz yz zz Az Bz Q^ V, b; b; Nm v' )- ). '. Z  '. Cz Dz Ez Fz [e d^ ,% Gz Hz Iz Jz Kz Lz Mz Nz Oz Pz U  U  U  U  U  U  U  Qz Rz Sz Tz Uz Uz Vz vs Wz Xz Yz Zz `z i& i& #'  A .A +A @A uq Qv #A $A aw %A #' U  U  U  U  U  U  =. &y &A *A =A ,y -A ;A >A ,A 'A ~y #' ). &6 I  )A ]y !A ~A {A ]A ^A /A (A _A :A 1y U  X$ '. i& Mi <A [A }A |A ju 1A 2A 3A 4A 5A 6A 7A 8A 9A 0A aA bA cA dA eA fA gA hA iA jA 0r eb kA lA mA Z     nA oA pA qA $;          Z  Z     rA sA tA Cw uA vA wA xA                                                                                  ",
"                                                                                 yA zA AA BA CA DA EA FA GA HA IA JA =.       <+ KA LA t#                MA NA My 1' G, Q: OA PA QA RA SA sn -z TA UA VA WA X* ). '. ). '. '. b; XA YA ZA `A  B .B ,z +B @B #B }m $B n4 4> %B &B *B =B %z >z -B ;B ;B >B >B iv ,B 'B )B !B 'B ~B {B !B ]B >z {B ^B /B (B _B :B <B <_ o, [B }B |B @m 1B 0& mo 2B 3B 4B 5B 6B 7B 8B 9B 0B aB bB hx Oj cB  h I                                   dB eB fB 0r gB hB iB jB kB lB mB nB oB pB qB rB t1 .m sB Z[ U  U  U  U  tB uB vB X} wB xB yB zB AB BB CB DB EB FB 0j d^ 7/ u8 &_ 9, h^ j^ i^ GB HB IB JB KB LB <_ 3^ MB NB OB PB QB RB SB TB UB VB WB XB X} v' Nm b; 2c 2c 2c 2c d- d- YB ZB `B  C .C L( :! V4 +C @C #C $C %C %C &C *C =C -C U  U  U  U  U  U  U  U  ;C >C ,C 'C )C (y !C ~C {C ]C ^C Mc i& i& /C (C _C :C <C [C }C |C 1C 2C 3C S% U  U  U  U  U  U  =. 4C 5C 6C 7C 8C 9C 0C aC bC cC dC #' ). b; Z  {y eC fC gC hC iC iC jC kC lC mC nC U  !@ '. i& Yx oC pC qC rC sC tC uC vC wC xC <u yC zC AC BC CC DC EC FC GC HC IC Z  v' <' W, JC KC LC x%       Z  MC NC I        <+ OC PC QC e# 1! RC SC TC UC VC WC XC                                                                                  ",
"                                                                                       q( YC ZC r- R^ I  !f `C  D .D /.                                  MA +D @D Ql eb Q: #D $D %D 0B &D tp *D =D -D ;D >D G, c. '. '. ). '. U  ,D 'D )D !D ~D {D =v ]D ^D /D (D _D }e G, g/ :D wn <D [D }D |D 1D 2D 3D !B 4D 5D iv 6D 7D 8D 9D |D 0D AB aD bD cD dD eD fD gD hD iD m, b4 bo @- T[ jD h^ kD lD mD nD oD pD .B qD rD sD tD uD <g xc vD  h I                                   9^ wD {x Rs xD yD zD AD BD CD DD ED FD GD HD ID ]: JD if ^8 U  U  U  U  KD LD j2 @4 MD ND OD PD QD RD SD TD UD VD WD XD YD YD ZD `D he  E .E +E @E #E $E %E &E Z! t1 ^: *E =E -E ;E >E ,E 'E )E !E ~E {E ee ]E ]E ^E /E ZD (E _E :E <E [E }E |E 1E 2E W] `} V4 3E 4E 5E 6E 7E 8E 9E 0E aE bE Le Z  U  U  U  U  U  zq cE dE eE fE gE hE iE jE kE lE mE A. i& i& A. nE oE pE qE rE sE tE uE vE wE |# U  U  U  U  U  U  =. xE yE zE AE Qx ju BE CE DE EE FE #' ). s$ <+ GE HE IE JE KE LE ME NE OE PE QE RE U  !@ '. #' SE TE UE VE WE XE YE ZE `E  F .F SE M# S% +F @F U  U  U  U  U  U  )- Nm v' X$ #F $F %F !@                            <+ &F *F =F zq <+ @$ -F ;F >F ,F Z                                                                                      ",
"                                                                                       &6 ;c 'F )F !F ~F $; {F ]F n* =.                                  ^F /F My Ql u8 Q: Ny (F _F :F <F [F }F 5B |F 1F 2F G, )- ). ). )- W$ ]: 3F 4F 5F 9B 6F 7F 8F 9F 0F aF Vm bF Z] V, cF dF eF fF gF hF iF jF kF lF mF nF nF 7z oF pF qF rF sF tF kz uF vF wF xF yF zF AF BF CF vj v4 DF [| {x EF g^ FF GF HF IF JF KF LF vF MF NF OF PF k} h4 QF m6 I                                   }^ RF d_ )- SF TF UF VF WF XF YF ZF `F  G .G +G L( 69 @G ^8 U  U  U  Z  tB #G ,} $G %G &G *G =G -G ;G PD >G ,G 'G )G !G ~G {G ]G ^G /G (G _G :G <G [G }G |G 1G B3 uo 2G 3G 4G 5G 6G 7G 8G 9G 0G aG bG cG dG eG fG gG hG iG jG kG lG mG nG oG pG qG rG s$ V, -4 sG tG uG vG 'C wG xG BE yG zG AG /. U  =. /. U  U  BG CG DG EG FG GG HG IG +A JG KG LG MG |# i& #' NG OG PG QG RG SG TG UG VG WG |# U  U  U  U  U  U  =. XG YG ZG `G  H .H +H @H #H $H ~y #' '. c. U  %H &H *H =H -H ;H >H ,H =H 'H )H !H U  '. Z  i& Yx ~H KG {H ]H ^H /H (H _H :H <H Le Z  '. '. )- )- )- ). '. '. ). (c 0r [H }H |H 1H 2H Z                                3H 4H 5H -+ 6H 7H 8H 9H -> 0H                                                                                        ",
"                                                                                                aH bH cH dH eH <+                                        Zi fH gH gk W, j} e@ hH iH jH kH lH mH nH oH pH qH rH Nm v' v' )- !@ sH tH uH vH wH xH yH zH AH 5G BH CH DH [e t1 EH FH GH HH IH JH KH LH MH NH OH PH QH RH RH SH TH UH VH WH XH YH ZH `H  I .I +I @I #I $I P< ;/ e_ +d {x DF 4> %I &I *I =I -I ;I PD >I JF ,I 'I )I *o j2 !I ~I '.                                  9> {I ,7 '. ]I ^I /I (I _I :I <I [I }I |I 1I 2I L( Df 3I 4I U  U  U  U  )s 5I 6I 4} 7I 8I 9I 0I aI bI cI dI eI fI gI hI iI jI kI lI yp Su mI nI oI pI qI rI sI i^ Y^ P^ tI uI vI wI xI yI zI AI BI CI DI EI FI GI HI II JI KI LI MI MI NI OI PI QI RI t1 2c e# sG SI TI UI VI WI XI +H YI ZI `I  J .J +J @J #J $J %J &J *J =J FG GG -J -J wG GG ;J >J Mc |# i& #' ,J 'J JG )J !J UI TG ~J {J ]J S% U  U  U  U  U  U  =. ^J /J (J @H _J :J =J <J EG [J }J i& Z  '. U  %H |J 1J 2J 3J 4J 5J -H 6J 7J 8J 9J U  Z  U  i& SE 0J aJ bJ cJ dJ eJ fJ  y gJ hJ qd )- )- )- v' Nm (c v' v' Nm Rs !d iJ jJ kJ lJ I                                         -+ mJ nJ oJ pJ qJ    <+                                                                                           ",
"                                                                                                s# rJ sJ tJ uJ vJ wJ `              xJ yJ zJ i  =.       (! AJ Tt e^ d( ;$ BJ CJ DJ vI EJ FJ GJ HJ IJ JJ KJ b; V, X* 2' #h h( LJ MJ NJ OJ PJ QJ RJ SJ 9B TJ UJ VJ WJ V] G^ XJ YJ ZJ `J  K .K +K @K #K $K %K &K *K =K -K ;K >K ,K 'K )K !K ~K {K {K ]K ^K /K (K _K :K e( 7/ v[ <K [K d_ d^ }K |K 1K 2K 3K 0I 4K 5K 6K -E 7K 8K h* <^ LD 9K !@                                  0K aK @m rH bK cK !D 5K 5K dK eK fK gK gz hK iK `} jK kK lK <+ U  U  U  mK Zt .n Z2 nK oK pK 0I :I <I 9G >G yI yI qK =G [I xI rK sK tK uK vK wK xK (B yK zK AK h- sr q- BK CK DK zI EK 9G FK FK GK HK QJ FD IK JK KK LK MK NK OK PK QK RK SK qI TK UK }b X* |4 sG VK WK XK wG YK YK ZK `K  L .L +L @L #L @L $L %L &L *L =L -L ;L )J )J >L ,L VI 'L )L A. |# |# /C !L ~L {L ]L ^L /L (L _L :L <L S% U  U  U  U  U  U  7+ [L }L |L 1L `G 2L 3L 1L 4L 5L 6L S% U  Z  U  7L 8L 9L 0L `G aL ,H TG bL cL dL eL U  '. Z  i& `z fL gL hL iL jL kL lL mL nL oL Le ). c. ). ). c. (c pL Nm ). qL rL sL tL uL Z              vL wL xL yL <+          I  zL AL BL CL DL EL FL                                                                                                 ",
"                                                                                                   I  GL HL IL JL KL ;; /.    =. 6  LL ML NL <+          OL PL QL W, 2' ;$ RL SL TL rD UL VL WL XL YL MK ZL `L  M .M +M @M #M $M %M &M *M =M gK -M ;M >M ,M NK 'M )M !M A} ~M {M ]M ^M ;I /M (M _M :M <M [M }M Wt |M 1M 2M 3M 4M 5M 6M 7M yB ,I =I MF 5K 5K 8M 9M 0M 3j [' l' -- -- -- `} aM bM cM dM eM fM gM fM =I hM iM jM hx )b EF {' bq x4                         Z  q^ kM lM 1< X, mM nM zI oM pM MF =I qM rM sM tM uM m, %e EF Ut !^ U  W$ !^ vM mK R[ wM xM yM zM AM BM CM DM bI bI bI ZF ZF bI eI !K EM FM GM 'E ]D HM IM JM KM LM W] MM NM OM PM [I NF yI zI yI QM zI RM SM FD TM IM UM VM yH WM XM YM ZM `M  N .N +N @N s# X$ 6  #N $N %N >L &N GG GG &N *N =N -N ;N ;N >N ,N 'N 'N )N !N WI ~N {N {N ,L ,L ]N ^N /N (N M# |# |# sG _N :N <N ]L GG -J (L [N }N |N S% U  U  U  U  U  U  7+ 1N 2N 3N 3L 3L 3L 1L 4N 5N 6N 7N |# U  U  U  8N 9N 0N aN bN kE cN dN eN fN gN hN U  Z  U  |# SE iN jN kN @H lN mN nN oN pN qN e# Rs ~d rN sN tN uN vN wN xN yN zN AN BN                t# CN DN EN FN GN =.    <+ !+ HN IN JN KN LN <+                                                                                                    ",
"                                                $  MN NN ON                      PN QN RN SN          TN UN VN WN XN YN ZN t# L$ `N  O .O +O <+          @O #O $O /d }b v* %O &O *O rD =O -O qK ;O >O {K ,O 'O )O !O ~O {O ]O ^O /O yI (O dK ZH _O `F  K 8B :O <O [O L( }O |O 1O 2O 3O -E 9B xH 4O 5O 6O 7O Vt 8O 9O 0O aO bO cO dO eO fO gO -M hO _I =I iO iO jO kO lO mO g^ b^ d^ N< nO oO pO qO rO -I sO sO tO 5K uO vO wO xO yO q/ ]q zO Qw                         s$ +d E[ .^ AO BO CO DO zD rO EO FO MF GO HO IO JO KO LO $^ _! T[ s- *o 9, r/ S[ f^ MO NO OO PO <I [I aI QO bI bI qK bI NF ;M =G NF RO SO TO UO VO .I WO XO YO ZO `O J|  P .P +P @P =G qK yI #P $P $P %P eI SM &P sM *P SO TM =P -P ;P >P ,P 'P )P !P ~P {P d. V, $  3E ]P ^P /P (P &N &N &N GG TG QG _P _P :P IG <P [P }P |P 1P 1P ,L 2P 3P 4P Xz 5P 6P 7P .+ =. |# sG 8P 9P 0P >L -J 'C aP _L bP cP S% U  U  U  U  U  =. 7+ dP eP FG 1L fP 3L 1L fP gP hP iP S% U  U  U  jP kP lP CE @H `G 3L 3L *N mP nP !H U  Z  U  |# SE oP pP qP rP sP wG hL tP uP vP Le pL y4 wP xP yP zP AP BP CP DP 78 EP Z              =. -+ FP GP HP IP JP /. Wh KP LP MP NP OP PP [=          QP RP SP Z+                      5  TP UP /.                                                 ",
"                                             /. VP WP be XP                   I  YP ZP `P  Q -+ =.       I  .Q +Q @Q #Q $Q 8- Wh %Q &Q *Q =Q Z           -Q ;Q )1 >Q ~d G^ ,Q 'Q )Q (I !Q gM ~Q {Q eM ]Q ^Q /Q (Q _Q 9G #P 9G :Q <Q MF =I [Q gK }Q |Q 1Q %z 2Q 3Q Y2 qj 4Q (t 5Q vF 6Q 7Q 8Q _O 9Q 0Q aQ bQ cQ cQ dQ eQ fQ gQ hQ 4> iQ jQ kQ >M >I dK [Q lQ JF mQ nQ oQ pQ Y: 4> ;/ /< qQ rQ sQ 3K tQ uQ _I ~Q _I 2K =G 0G vQ wQ xQ <^ x2 DF [| W$                   =. !> yQ g| B6 zQ AQ BQ CQ DQ EQ FQ JF GQ tO lQ HQ IQ JQ KQ .5 LQ ;/ j^ e^ 65 65 e^ N< MQ NQ OQ 7Q <I PQ ZF QO aI QO bI NF QQ PJ =G -M RQ SQ TQ  K UQ VQ WQ XQ YQ ZQ `Q )a  R .R +R UF zD zI yI yI yI 9G %P @R SJ SJ #R WL $R %R &R *R =R -R fM ;R >R ,R 'R )R W$ Z  zq !R ~R {R ]R ^R /R gE {N {N {N {N (R aC aC {C _R _R !N 1P 1P 1P :R <R [R }R |R 1R 2R 3R =. U  |# /C 4R +A wG -J WI {C !N [N 5R 6R |# U  U  U  U  U  =. 7+ 7R 8R fP 9R kE cN 0R ZG aR bR cR Ze U  U  =. dR eR fR 2L cN AE _J gR hR iR jR kR |# U  U  |# Mc lR mR qP nR oR oR pR qR rR sR Le (c G, tR uR '.                                           vR wR xR yR zR AR BR CR DR ER FR GR I           <+ HR IR JR KR `                 >) LR MR NR OR /.                                              ",
"                                                PR QR RR SR TR UR             I  VR WR XR YR 4* ZR          `R  S .S +S @S #S $S W+ %S &S *S I  =. =. '  =S -S 0^ ;S Rs ;$ >S ,S 'S ]Q )S !S eM ~S eM eM gK vI vI ]K ]K FO {S }I ]S JF EO `H 6K }I ^S /S (S _S :S <S [S }S |S 1S _O 2S EQ 8Q oD 3S 4S 5S 6S 7S 8S r/ <K [K r/ 9S 0S aS bS &P cS 7Q 6Q dS 0I {S wF eS fS gS hS X* %I iS jS kS lS =I mS AM 0I 0I IQ <I nS -E oS pS qS rS ^: '. }b [K s#       =. =. L$ O< x2 c^ h- _+ sS tS uS vS wS cI -E DQ =G 0I 0I 5K -I xS yS zS AS V, v' }b Nm ). 65 BS CS DS ES -E FS GS 6Q DQ 0I HS IS 0I CM CM JS JS KS $R hF KS LS MS NS _M YQ OS PS QS RS SS TS 5B AI )E 5G #P #P #P %P US PD vK VS WS .I VO XS YS ZS `S  T +K xK .T +T @T q- E' #T 7N $T %T &T *T =T -T ;T >T ;T {N TG TG TG {C ,L !N !N :R tE tE -H ,T 'T )T !T ~T {T hA *. Le ]T ^T /T (R (T _T :T *A <T [T }T |T 1T 2T =. U  U  U  3T 4T 5T 6T 7T _R 8T 9T 4P `K  H 0T aT bT zq M# cT dT eT fT cN cN `G @H gT hT uG iT jT kT =. U  #' `z lT mT nT nR oT aN aN pT qT rT -4 c. W$ sT tT                                           '. $> uT vT wT xT yT zT AT BT CT DT B3       ET FT GT HT IT JT KT `              LT MT NT OT PT ^# /.                                              ",
"                                                   QT RT ST TT UT VT Y] i+       @- WT XT YT ZT `T <+ Z     !+ I   U .U +U @U #U $U %U &U *U X$ =. |# =U -U ;U {m v' >U ,U 'U )U !U tQ uQ ~U fM eM )S oM {U MF MF {K ]U 6K {S {S JF JF dK -M qK ^U /U (U _U :U @[ <U [U }U |U 1U VS 2U 0B AI AI 3U 4U 5U 6U n0 4> )- U  U  y& 7U 8U 9U 0U aU >G 2U bU #R JS hM 0G ;I 4S cU dU eU fU gU hU iU hM ZH hM sD jU kU lU 3U 5B sD &P mU nU oU pU ). BN qU zP Z        =. Z  .> rU h* 8> sU tU uU vU wU xU yU @K zU AU AU xH }Q IS 8M BU CU DU P^ )- v' c. '. i  EU FU GU HU 5B aU IU JU KU LU MU NU nS FD OU PU QU RU SU TU UU VU WU XU jF YU ZU `U  V .V +V @V #V $V %V &V PD gO 2U VS VS VS #R *V zU =V (O xI FK -V HJ ;V >V ,V 'V )V !V ;$ ). Yi ~V Kv {V ]V ^V /V (V _V :V :V <V _P _P [V }V |V 1V }V 2V [V [V 3V 4V 5V 6V 7V 8V 9V =. B# Mc 0V aV bV cV dV eV fV gV hV iV jV kV lV mV |# U  U  sG nV oV pV qV rV sV tV tV uV vV wV xV yV zV AV Yx BV CV DV EV *N kE FV lL GV HV IV JV KV LV B# MV NV OV PV _J @H 0L `G QV @H RV SV TV /C '. W$ UV VV '.                                        m, @a WV XV YV ZV `V  W .W +W @W ;; <+ =. v* #W $W %W &W *W =W -W             <+ ;W >W ,W 'W )W                                                    ",
"                                                      j+ !W ~W {W aK ]W VT       '. ^W /W (W _W :W -Q <W [W }W |W 1W 2W 3W 4W 5W 6W 7W 8W 9W U  U  o+ 0W aW bW !@ i+ cW dW eW BI fW gW ~Q _I sO fM _I hW {U MF MF ]U iW jW kW kW ZH ZH cS lW mW nW oW pW qW bQ bh rW sW tW uW vW wW xW yW zW AW BW CW DW EW FW gk )- U  U  /. GW HW IW JW KW LW MW NW OW PW QW RW SW TW UW VW d. WW XW YW ZW `W  X .X +X @X #X $X %X &X *X =X -X ;X >X ,X v' x% 'X )X I              !X ~X s# !@ {X ]X ^X /X (X _X :X <X [X }X |X 1X 2X 3X 4X 5X 6X 7X !@ '. v' Nm v' ;$ 8X 9X 0X aX bX cX dX eX fX gX hX iX jX kX lX mX nX oX pX qX rX sX tX uX vX wX xX yX zX AX BX CX DX EX FX GX HX IX JX KX LX MX NX OX OX PX QX RX SX TX UX VX WX XX YX ZX `X ). ). :+  Y .Y +Y @Y #Y $Y %Y &Y *Y =Y -Y -Y ;Y >Y >Y ,Y 'Y )Y !Y ~Y {Y ]Y ^Y /Y {s (Y _Y :Y U  U  7+ <Y [Y }Y |Y 1Y B} 2Y 3Y 4Y 5Y 6Y 7Y 8Y 9Y U  U  |# 0Y aY bY cY dY eY fY gY hY iY jY kY lY mY nY oY S% pY qY rY sY tY uY vY wY xY yY zY AY BY CY i& DY EY FY GY HY aC YK @H 4N IY JY KY LY MY #  L( NY OY PY Z        =.       u^ ZR d+             m, QY RY SY TY UY VY WY XY YY ZY `Y  Z .Z 5+ +Z @Z #Z $Z %Z 1'             =. ;$ &Z *Z =Z >^                                                       ",
"                                                         '. b; y4 -Z ;Z N_                >Z ,Z 'Z )Z !Z ~Z {Z ]Z ^Z /Z (Z _Z :Z <Z [Z }Z |Z -+ 1Z 0W 2Z O^ '. U  i+ 3Z 4Z 5Z 6Z uQ HQ IS JF pM 7Z rD 5G 8Z 9Z 0Z aZ bZ TD TD cZ AU dZ eZ fZ gZ hZ iZ jZ kZ lZ s$ mZ nZ oZ pZ qZ rZ rZ sZ tZ uZ vZ wZ Wt xZ {b Ql c. U  =. Yi @- yZ zZ AZ BZ CZ CZ DZ EZ FZ GZ HZ IZ JZ sZ >Q U  }b KZ LZ MZ NZ OZ PZ QZ FZ RZ EZ 4M EZ EZ SZ TZ BZ UZ VZ U  |B WZ XZ I              YZ ZZ W$ '. b; `Z  ` .` +` +` @` #` $` l* l* RZ @` %` sZ zZ &` *` Y! '. ). c. c. W$ =` -` uZ ;` >` ,` '` 4M )` !` !` ~` 4M vZ +` tZ tZ {` tZ %` %` SZ ;` DZ ]` ^` /` d( ]: (` _` +` %` EZ $v :` %v <` [` }` }` RZ RZ #` IZ IZ IZ @` @` IZ +` e- |` zZ 1` 2` 3` Hd Z  7+ 4` +Y dA 5` 6` 7` 8` 9` Xo 0` a` a` b` c` Kv d` va Kv e` f` g` h` i` va j` k` 5m =. =. =3 l` m` nc n` o` p` q` r` s` t` /s js u` v` w` U  U  U  7+ x` y` z` A` B` C` ^s D` E` Xo F` G` mc H` I` U  J` K` L` M` N` O` P` Q` R` S` T` U` V` W` U  X` Y` Z` ``   .. .+ .@ .# .# .[N $ .% .& .* .>) Y! = .- .{$             I  ; .> ., .X$ '.    =. 2' ' .) .! .~ .{ .] .^ ./ .( ._ .: .< .[ .} .| .1 .2 .3 .                        c. Nm '.                                                          ",
"                                                         Z  ). (c 4 .@d 5 .6 .7 .8 .   =. Z! 9 .0 .a .b .c .d .e .f .g .h .i .j .k .l .m .n .U  I  o .p .X$ Q: bd q .r .s .>M t .u .v .w .x .y .z .A .B .C .D .E .F .G .H .I .J .K .L .M .N .O .P .Q .R .S .T .). T .U .5> V .W .X .DZ Y .Z .Z .` .<`  ..B0 ...u4 W$ U  U  U  Z  +..@..vZ #..HZ $..%v QZ $v x0 x0 <` @` ;` %..I  X* *a k* &..R0 |M  .. ..|M OZ OZ QZ Z .)` Y .SZ SZ j0 -& *..%& =..-..'.             _' ;..h* U  Z  >..4M EZ }` ` .,..` .l* @` @` 4M RZ RZ RZ ` .'..)..'. U  '. )- )- '. hQ !..+` vZ EZ Z .` .<` }` 4M vZ ;` ;` vZ ~..IZ IZ IZ {..%` %` {` +` uZ ~..]..^..B3 Z^ /..(..#` RZ Z .FZ _..:..:..:.. ..$v <` <` FZ FZ %v ` .Z .EZ Y .SZ ;` ;` SZ ]` <..[..Z  U  =. }..|..1..2..3..4..5..6..b8 7..8..9..@0 0..a..b..b..b..c..@0 +8 B` d..|..e..f..I` U  U  U  u+ g..a8 h..i..j..k..l..m..n..o..p..q..r..s..=. U  U  7+ y9 @0 a..t..k..n..m..u..i..o..v..w..x..y..z..=. A..B..8..C..D..o..a8 #8 E..F..G..DC H..#w U  Be I..J..K..L..M..N..O..P..Q..R..S..T..U..V..|# Z  W..X..Y..=.          Z  Z..`.. +.|' 9, Z  U  )- .+.++.@+.#+.$+.%+.&+.*+.=+.-+.;+.>+.,+.'+.)+.!+.j* I* B#          ~+.{+.t#    '. '.                                                             ",
"                                                                  b; s$ ]+.^+./+.(+.I* D^ Om _+.:+.<+.[+.}+.|+.1+.2+.3+.4+.5+.6+.7+.8+.9+.b; U  t# 0+.a+.I  <+ '. b+.c+.d+.e+.f+.g+.h+.i+.j+.k+.l+.m+.n+.o+.p+.q+.r+.s+.t+.u+.v+.w+.x+.y+.z+.A+.B+.C+.D+.E+.:! U  b; [' F+.G+.Z .` .<` FZ QZ :` H+.H+.I+..v J+.~d U  U  U  U  U  @- K+.$v :` :` L+.L+.:` QZ x0 _.. ..$v $v M+.@F Z  W, N+.O+.3M P+.Q+.R+.R+.R+.|M |M  ..FZ RZ ;` z+.7S i+ @F 8g S+.T+.Z              U+.V+.-W /. /. cq OZ %v ` .}` Z .Z .Z .[` Z .` .` .FZ %v :..W+.@- Z  Z  )- c. ). U  b; k0 X+.)` [` }` }` Y+.Z+.'` Y .Y .Y .vZ ;` +` {` +` {` %` `+.~..@` ~..`+. @.yQ '. !@ 7S .@.,..%v $v $v _.._..@v @v |M :..:..$v x0 [` +@.)` )` )` RZ RZ RZ 4M @@.8O X/ Z  U  U  U  M# #@.#u #u $@.%@.Kv &@.*@.=@.*@.*@.-@.;@.>@.,@.;@.'@.'@.)@.!@.~@.{@.]@.#u =. =. Z  U  U  7+ ^@.)@./@.(@.=@._@.>@.>@.,@.:@.<@.[@.}@.lb =. U  =. Ze |@.1@.,@.2@.2@.:@.,@.3@.3@.4@.5@.5@.6@.4` =. M# 7@.8@.9@.0@.9@.(@.a@.b@.c@.d@.e@.f@.y..g@.=. fq h@.D` i@.j@.k@.l@.m@.n@.o@.p@.q@.r@.s@.t@.S% Z  QL u@.v@.      =.       m% w@.x@.h- W$ U  U  =. W$ y@.z@.A@.B@.C@.D@.E@.F@.G@.H@.I@.J@.K@.L@.M@.H8 [= I        ja N@.O@.P@.Z                                                                    ",
"                                                                     '- Q@.R@.S@.T@.U@.V@.W@.X@.Y@.Z@.`@. #..#.+#.@#.##.$#.%#.&#.*#.=#.u' U  U  !. -#.;#.8> U  U  >#.,#.'#.)#.!#.~#.{#.]#.^#./#.(#._#.:#.{..<#.$` IZ SZ EZ Z .Z .#..+@.[` x0 EZ [#.}#.|#.1#.Z  U  U  U  2#.%v QZ |M OZ .v |M 3#.4#.0, 5#.6#.7#.~d U  U  U  U  U  I* 8#.0, 9#.0#.9O a#.b#.c#.d#.e#.f#.g#.v0 c. =. =. ). h#.i#.j#.k#.l#.d#.m#.2#.n#.^b o#.!b p#.q#.1b o^ U  U  r#.s#.t#.Z              u#.v#.s# U  Z  {m w#.x#.y#.z#./..A#.B#.C#.D#.E#.F#.G#.^b H#.b4 U  U  ). (c Rs v' U  Z  gQ I#.D#.J#.K#.L#.M#.J#.N#.O#.P#.Q#.L#.~b R#.R#.S#.T#.~b U#.V#.P#.W#.X#.Y#.i^ U  U  |' 1b A#.z#.Z#.F#.^b n#.n#.`#.`#.n#. $. $.F#.2#.F#.Z#.p#..$.p#.E#.C#.+$.b#.@$._! U  Z  U  U  U  U  U  U  g@.#$.$$.'@.%$.&$.a@.*$.&@.=$.=$.=@.3@.-$.;$.>$.,$.'$.)$.cd U  U  U  U  U  U  =. !$.~$.{$.]$.^$./$.($._$.:$.<$.n` [$.}$.U  U  U  U  =. |$.1$.2$.3$.4$.5$.q` 6$.7$.8$.9$.0$.Rb |# U  =. a$.b$.c$.d$.e$.9@.*$.f$.g$.g$.g$.h$.y..}..7+ i$.j$.j..6..k$.6..l$.m$.n$.n$.o$.p$.q$.r$.s$.=. Z  t$.u$.%&             =. :+ !. Z  U  U  U  U  =. Z  mZ a, v$.w$.x$.y$.z$.A$.B$.C$.D$.E$.F$.G$.H$.I$.J$.K$.I  |# L$.M$.N$.O$.Z                                                                    ",
"                                                                        M$ P$.BN Q$.R$.S$.T$.U$.V$.W$.X$.Y$.Z$.`$.r%  %..%.+%.@%.#%.$%.41 U  U  t# %%.&%.*%.=%.z$ d- u0 A+.|` %` %` %` {..uZ {..@` EZ '` FZ $v $v $v $v %v QZ QZ <` <` x0 -%.B0 ;%.>%.). U  U  U  U  Z  ,%.g#.'%.)%.R[ d( r- @- '. '. U  '. Z  Z  U  U  '. U  U  U  '. '. U  U  U  U  U  U  U  U  U  Z  U  U  U  U  U  U  U  U  U  U  U  U  U  U  U  U  U  U  U  U  U  U  Z  !%.~%.!-                {%.]%.78 )- U  U  U  U  U  U  U  U  U  U  U  U  U  U  U  U  U  U  Z  )- 9K ^%.V, U  U  U  U  U  U  U  U  U  U  U  U  U  U  U  U  U  U  Z  Z  U  U  U  U  U  U  U  U  U  U  =. U  U  U  U  U  U  U  U  U  U  U  U  U  U  U  U  U  U  U  U  U  U  U  U  U  U  Z  ). b; gk /%.U  U  U  U  =. 7+ =. U  U  =. M# u+ ++ cd lb u+ 7+ 7+ 7+ u+ M# U  U  U  U  ). h- 2c U  U  U  U  U  U  U  U  U  U  U  U  U  U  U  U  U  U  U  U  U  U  U  U  =. 7+ U  U  U  U  |& (%.u+ =. U  U  }.._%..u :%.<%.[%.}%.|%.1%.2%.3%.4%.@u B# 7+ 5%.6%.7%.8%.7%.9%.0%.6%.a%.b%.c%.m..AC d%.=. U  Z  e%.f%.`b             <+ g%.h%.i%.j%.i  L$ *; k%.l%.yQ m%.n%.o%.p%.q%.FZ r%.-%.s%.t%.u%.v%.w%.x%.y%.z%.A%.B%.C%.<+ |B D%.I                                                                       ",
"                                                                              Z  E%.F%.G%.H%.I%.J%.K%.L%.M%.N%.O%.P%.}#.Q%.R%.S%.T%.U%.o, '. U  t# V%.W%.;$ 9& Yi Z  X%.X+.}` uZ tZ tZ tZ tZ SZ Z .<` }` r% Y%.Y%.Z%.`%.r%  &..&.+&.m#.@&.H#.n#.#&.O* U  U  U  U  U  U  Z  ). '. Z  U  U  U  U  U  U  U  U  U  U  U  X$ $&.V, U  U  U  U  U  U  U  U  U  U  U  U  U  U  U  U  U  Z  U  U  U  U  U  U  U  U  U  U  U  U  U  U  U  U  U  U  e_ %&.&&.S$                r#.*&.=&.-&.U  U  U  U  U  U  U  U  U  U  U  U  U  U  U  U  U  U  ). mK ;&.>&.9K W$ U  U  U  U  U  U  U  U  U  U  U  U  U  U  U  U  U  U  U  U  U  U  U  U  U  U  U  U  U  U  U  U  U  U  U  U  U  U  U  U  U  U  U  U  U  U  U  U  U  U  U  U  U  U  U  U  U  !d H0 ,&.'&.!@ '. Z  U  U  U  U  U  U  U  U  U  U  U  U  U  U  U  U  U  U  U  U  Z  Z  )&.]x H8 U  U  U  U  U  U  U  U  U  U  U  U  U  U  U  U  ). U  U  U  U  U  U  U  U  U  U  U  U  U  U  U  U  U  U  U  U  U  U  U  .+ z..!&.yn ~&.{&.]&.^&.cd U  S% /&.(&.c@.c@._&.u..:&.=$.<&.:&.>@.,@.[&.}&.=. =. Z  |&.1&.*;             Z  2&.3&.4&.5&.I  <+ 6&.7&.8&.9&.0&.a&.b&.c&.d&.e&.f&.R+.g&.h&.i&.j&.k&.tA l&.m&.n&.E- o&.<+                                                                               ",
"                                                                           =. '  p&.q&.r&.s&.t&.u&.v&.w&.x&.y&.z&.A&.B&.U .C&.-%.D&.E&.F&.G&.8> @1 H&.I&.J&.I* '. Z  7/ K&.L&.vZ M&.N&.O&.t% gQ }) P&.Q&.T[ j{ q( q( j{ cq ,| 7/ 0& `} `} s$ V, Z  U  U  U  U  U  U  U  U  U  U  U  U  U  U  U  U  U  U  U  U  U  Z  R&.S&.T&.0H U  U  U  U  U  U  U  U  U  U  U  U  U  U  U  u' H8 U  U  U  U  U  U  U  U  U  U  U  Z  Z  Z  Z  U  U  Z  U&.V&.Lt Y!                   r#.W&.X&.!@ Z  U  U  U  U  U  U  U  U  U  U  U  U  U  U  U  U  H8 Y&.Z&.`&. *.!^ U  U  U  Z  Z  Z  Z  Z  Z  U  Z  Z  Z  Z  Z  Z  U  U  $  .*.;5 #T |# '. U  U  Z  +*.). U  U  U  '. '. '. '. Z  Z  '. Z  U  Z  U  U  U  U  U  U  U  U  U  U  U  U  U  U  U  7/ @*.#*.$*.%*.&*.**.4I U  U  U  U  U  U  U  U  U  U  U  U  U  U  U  U  U  !@ =*.-*.;*.>*.,*.'*.@- Z  U  U  U  U  U  U  U  U  U  U  U  U  U  W$ )*.!*.~*.U  U  U  U  U  U  U  U  U  U  U  U  U  U  U  U  U  U  U  U  U  U  U  U  U  U  U  U  U  U  U  =. {*.]*.^*./*.(*._*.:*.<*._$.[*.l..}*.(*.u+ U  U  U@.|*.1*.I*                2*.3*.4*.GN G% 5*.6*.7*.m> 8*.9*.0*.a*.kZ b*.c*.d*.e*.f*.g*.h*.i*.j*.k*.l*.m*.n*.o*.p*.L$                                                                               ",
"                                                                           q*.r*.s*.t*.u*.v*.w*.x*.y*.z*.A*.B*.C*.D*.E*.F*.G*.#` H*.9O I*.J*.8> B# !+ K*.L*.M*.). '. '. N*.O*.u' q/ S[ c^ Z  U  U  U  U  U  U  U  U  U  U  U  U  U  U  U  U  U  U  U  U  U  U  U  U  U  U  U  U  U  U  U  U  U  U  U  U  U  U  U  Z  P*.Q*.R*.S*.'  /. U  U  '. )- c. )- '. '. '. )- L( Y^ c. T*.U*.V, 65 ~d 0r !d d( B3 G, i^ u8 9, h^ ;/ e^ e^ ;/ e^ d^ V*.W*.Z                          X*.Y*.@> g^ _! O* 0& &_ 7/ ;> ;> !> 7/ O* 9, !> _! g^ !> r- ]' Z*.BN `*. =..=.@> o^ |' 31 !' -- l' l' b^ b^ u/ f_ f_ 31 g| jA (c i+ 2( +=.@=.#=.Le '. Z  dB $=.%=.)' v[ |' p^ -- q/ cq X/ !' -- b^ l' d^ d^ d^ d^ d^ 4> !> h^ h^ h^ h^ 9, 9, r- x4 h^ &=.nz *=.S: r#.==.-=.;=.>=.R^ ). '. ). )- )- c. c. c. c. )- )- ). ). s# I* ). h- ,=.'=.)=.!=.8g ~=.|^ Z] `} b; b; b; V, V, W$ )- c. )- W$ Z^ fa {=.]=.^=./=.U  U  U  U  U  U  U  U  U  U  U  U  U  Z  d- ). U  U  U  U  U  U  U  U  U  U  U  U  U  U  U  U  U  U  U  U  U  =. u+ Qb kT (=.]s 9.._=.M# U  U  :=.<=.TN /.                         B# +% [=.}=.|=.b; 1=.2=.3=.<#.4=.5=.6=.7=.8=.l{ 9=.0=.a=.b=.c=.d=.e=.f=.g=.h=.i=.j=.<+                                                                         ",
"                                                         k=.l=.m=.n=.o=.p=.q=.r=.s=.t=.u=.v=.w=.x=.y=.z=.A=.B=.C=.D=.Py E=.F=.G=.H=.I=.J=.K=.Z  U  I  L=.M=.N=.O=.(c ). Z  U  U  U  U  U  U  U  U  U  U  U  U  U  U  U  U  U  U  U  U  U  U  U  U  U  U  U  ). &6 &6 U  U  U  U  U  U  U  U  P=.Q=.R=.S=.T=.T=.U=.V=.W=.X=.Y=.Z=.`=. -..-.+-.@-.#-.$-.%-.&-.*-.=-.--.;-.>-.,-._^ '-.)-.!-.~-.{-.]-.^-./-.(-._-.:-.<-.[-.}-.|-.1-.2-.3-.4-.5-.'.                         =. :$ 6-.7-.8-.9-.0-.a-.b-.c-.d-.e-.f-.g-.0-.h-.i-.j-.k-.l-.m-.n-.EP       !@ o-.p-.q-.r-.s-.t-.u-.v-.w-.x-.y-.z-.A-.B-.C-.D-.:! #h E-.F-.G-.H-.I-.J-.i+    K-.L-.M-.N-.O-.P-.Q-.R-.R-.:-.g-.g-.S-.T-.U-.V-.W-.V-.X-.Y-.Z-.`-. ;..;.+;.@;.#;.$;.%;.&;.*;.=;.-;.Y=.<+       s# '- ;;.>;.,;.';.);.!;.~;.{;.];.];.^;./;.(;._;.:;.<;.[;.[;.};.|;.'.    Yi /. :$ 1;.2;.3;.4;.5;.6;.6;.7;.8;.9;.9;.:-.0;.a;.b;.c;.d;.4g e;.f;.g;.h;.i;.j;.k;.l;.m;.n;.o;.p;.q;.r;.s;.jD t;.s$ U  U  U  U  U  U  U  U  U  U  U  U  U  U  U  U  U  U  U  U  U  U  U  U  U  =. 7+ =. U  [= u;.v;.w;.x;.                           y;.z;.A;.B;.C;.l' D;.E;.F;.G;.H;.I;.J;.K;.L;.M;.N;.O;.P;.Q;.R;.S;.T;.U;.V;.W;.X;.Y;.Z;.`;. >..>.+>.,^ Z                                                        ",
"                                                         @>.#>.$>.%>.&>.*>.=>.->.;>.C& >>.,>.'>.)>.!>.~>.{>.]>.^>./>.(>._>.:>.<>.[>.}>.|>.TZ 2' jp ). ;$ 1>.2>.3>.I  U  U  U  U  U  U  U  U  U  U  U  U  U  U  U  U  U  U  U  U  U  U  U  U  U  U  U  U  U  =*.4>.5>.6>.7>.8>.9>.Na 0>.a>.b>.c>.d>.e>.f>.g>.h>.i>.j>.k>.'. I* W= l>.m>.n>.o>.p>.q>.r>.s>.t>.u>.v>.w>.o{ x>.y>.Z  V] z>.A>.B>.D[ D[ C>.D>.D>.d> d> rJ !- F' 0H r#.&6 I* W$ '.                Z  Z              I* [6 [6 <+.<+.<+.<+.0H #> D>.C>.@> {m 3 .PY PY PY 3 .$> &6 Z           W$ h* h- I* W$ W$ V, I* s$ I* I* I* V, W$ X$ Z     /. E>.F>.G>.H>.I>.J>.$           !@ 78 k' U@.@- @- &6 &6 $> 3 .78 $> $> BN k' k' BN BN $> $> $> $> $> BN r#.-W h* h- s$ h* &6 I  =.             s$ 3 .<+.Yp PY PY PY PY EP EP $> $> EP EP EP PY 3 .0H Yp s#                K>.L>.M>.N>.O>.O>.O>.N>.`*.M>.M>.M>.M>.dH 6>.P>.I  I  Q>.R>.S>.T>.U>.V>.V>.W>.5-.X>.Y>.Z>.`>./W  ,.LN .,.}H +,.;&.0& B3 V, U  U  U  U  U  U  Z  v' v' U  U  U  U  U  U  U  U  U  U  U  U  U  U  z$ @,.#,.$,.                     =. B# I  I  %,.&,.*,.{$ W] j, BZ =,.-,.;,.>,.,,.3n ',.),.!,.~,.{,.],.^,./,.(,._,.:,.<,.[,.},.|,.1,.2,.3,.4,.5,.6,.o+                                                       ",
"                                                         7,.8,.9,.0,.a,.b,.c,.d,.e,.f,.g,.h,.i,.j,.k,.l,.PZ m,.n,.o,.p,.q,.r,.s,.t,.u,.v,.w,.x,.y,.z,.&6 A,.B,.C,.D,.'. U  U  U  U  U  U  U  U  U  U  U  bq E,.9> !^ Xg F,.F,.G,.H,.I,.55 J,.K,.L,.M,.N,.O,.P,.Q,.R,.S,.T,.U,.V,.W,.X,.Y,.Z,.`,.W$ !@ '. Z  Z  Z  '. Z                                                                                                                                                                                                                                                                                   Z   '..'.+'.@'.#'.$'._+                                                                                                                                                                                                                                                             Z                    Z  Z  Z  Z  Z        !@ %'.&'.*'.='.-'.;'.>'.,'.''.)'.,'.!'.~'.{'.]'.^'./'.#> O* {m @> ;> d( U  U  U  U  U  U  Yi Wc ('._'.:'.                     9^ <'.['.}'.|'.1'.2'.(1 3'.4'.5'.6'.7'.8'.9'.0'.a'.b'.c'.d'.e'.`+.EZ f0 f'.g'.h'.i'.j'.k'.l'.m'.n'.o'.p'.q'.r'.s'.`                                                        ",
"                                                                  t'.u'.v'.w'.x'.y'..` z'.A'.0*.B'.C'.D'.E'.F'.G'.H'.I'.J'.K'.L'.M'.N'.O'.P'.Q'.R'.S'.j1 8> U  T'.U'.8>.e> V'.+f Ca t$.#c 4c W'.Ut X'.B>.Y'.Z'.`'. )..).+).@).#).$).%).&).*).=).-).;).>).,).').R^ r#.x4 d( !> [' v4 x& .n )).mK                                                                                                                                                                                                                                                                                                          I  !).~).{).]).^)./).-+ =.                                                                                                                                                                                                                                                                                                          '. ()._).:).<).[).}).|).1).1).2).3).4).5).6).7).8).9).0).a).b).c).Z  Z  Z  Yi Z  Z  Z  d).e).f).i+ =.                   g).h).i).j).k).l).m).)> n).o).p).q).r).s).t).u).v).w).x).y).z).0&.A).B).C).D).E).F).G).H).I).J).K).L).M).!@                                                                ",
"                                                                  N).O).P).Q).R).S).g- T).@a T).U).V).W).X).Y).Z).`). !..!.+!.@!.#!.$!.%!.&!.*!.=!.-!.;!.>!.c^ ,!.'!.)!.!!.~!.{!.]!.^!./!.(!.X*._!.:!.<!.[!.}!.K-.|!.1!.2!.3!.4!.5!.6!.7!.8!.9!.LN Z                                PY 0!.a!.                                                                                                                                                                                                                                                                                                         /. U  -+ b!.c!.d!.e!.B# B# =.                                                                                                                                                                                                                                                                                                          Z                                   &6 f!.g!.h!.i!.j!.k!.l!. =.m!.n!.o!.p!.q!.r!.s!.t!.u!.v!.QL       u8 m0 w!.)..tg x!.y!.z!.A!.B!.C!.D!.E!.F!.G!.H!.I!.J!.K!.L!.M!.N!.O!.P!.Q!.R!.S!.T!.U!.V!.W!.X!.Y!.Z!.`!. ~..~.+~.@~.#~.$~.Z                                                                 ",
"                                                                     I  I  I  )- '. Z  I  '. 8> %~.v& Q!.&~.*~.=~.-~.R!.;~.>~.,~.'~.)~.!~.~~.RZ {~.]~.^~./~.(~._~.I* D[ C>.@> 0H 3 .PY -W       Z  Z                                                                             Z  :~.F%.<~.I                                                                                                                                                                                                                                                                                                  i  5  [~.}~.|~.1~.2~.3~.4~.5~.6~.7~.8~./.                                                                                                                                                                                                                                                                                                                                                                Z  9~.0~.a~.b~.`,.c~.d~.e~.f~.Z        Z  g~.h~.i~.j~.k~.l~.m~.n~.5> &` o~.p~.p% q~.r~.s~.t~.u~.v~.w~.x~.y~.;~.O+.z~.A~.B~.C~.D~.SZ 9W )- '. Z  '. E~.F~.2' Z  Z                                                                       ",
"                                                                              Z           ). J, G~.H~.q% I~.Q!.O+.J~. ~.K~.L~.M~.N~.O~.P~.Q~.z~.FZ R~.U).S~.T~.U~.(1 X/ !> &_                                                                                                       x& V~.@= Z                    Z  W~.X~.$; i  9% e% Y~.Y~.Z~.`~. {. {. {.`~..{.+{.@{.#{.${.%{.&{.*{.={.={.-{.;{.={.={.={.>{.,{.,{.'{.){.!{.1* ~{.{{.]{.<* ^{.|o |o /{.({.Q:    h* [= h& k5 _{.:{.<{.[{.}{.}{.}{.}{.}{.}{._{.|{.|{.|{.|{.}{.k5 5* 2! 1{.1{.2{.3{.3{.4{.e> e> 4{.M>.#> PY 3 .0& '.             <! 5{.6{.7{.8{.9{.0{.a{.b{.c{.d{.e{.f{.'                 s# #> q^ #> k> F' L>.4{.e> g{.z>.h{.k5 3{.h{.3{.<{.i{.j{.}{.}{.}{._{.|{./{.}{._{._{./{.[{.[{.3{.t$.z>.1{.X=.EP BN t# G^ k{.}{.3{.l{.m{.n{.o{.p{.q{.r{.s{.t{.u{.v{.w{.x{.y{.z{.A{.B{.1* C{.D{.'{.E{.`( 0+.`( <* F{.G{.H{.I{.J{.Y* K{.L{.L{.@{.g%  {.N^ i  M{.N{.O{.                                                                                 Z  !@ !@ I  I  !@ !@ !@ Z              c^ P{.Q{.R{.S{.T{.U{.V{.W{.X{.Y{.Z{.`{.Q%. ].2` .].+].@].#].$].%].~..&].*].A~.=].-].;]._#.>].e_ h-       c. v' Z                                                                             ",
"                                                                                          7/ ,].#v <` '].)].!].FZ ~].{].]].pZ BZ _..^]./].(]._].:].y4 B3 <].[].}].|].1].2].+&.Z                                                                                                                                <+ *; 3].4].5].!@ 6].7].8].9].0].a].b].c].b].d].e].f].g].h].i].j].k].l].m].n].o].p].q].r].s].t].u].v].w].x].y].z].A].B].C].D].E].F].G].H].I].-$ J].K].L].M].N].O].P].Q].R].S].T].U].V].U].W].X].W].Y].Z].`]. ^..^.+^.@^.#^.$^.%^.&^.*^.=^.-^.;^.>^.,^.'^.)^.!^.~^.9>             -+ {^.]^.^^./^.(^._^.:^.<^.[^.}^.|^.1^.               '. 2^.3^.4^.5^.6^.7^.8^.9^.0^.a^.b^.c^.d^.e^.f^.g^.h^.i^.j^.k^.l^.m^.n^.o^.k^.p^.q^.q^.r^.h^.s^.t^.u^.v^.w^.x^.y^.z^.A^.B^.C^.D^.E^.F^.G^.H^.I^.J^.K^.L^.M^.N^.O^.P^.Q^.R^.S^.T^.U^.V^.W^.X^.Y^.Z^.`^.o].o].o]. /../.+/.@/.#/.$/.%/.&/.%/.*/.=/.-/.;/.>/.M$ ,/.'/.)/.Z                                                                                                                                            !/.~/.{/.]/.^/.//.(/.u/ !/._/.:/.</.b, _` 2` [/.}/.|/.1/.2/.q~.3/.-` -` Q .1<                                                                                           ",
"                                                                                          &6 N* 4/.5/.6/.F#.7/.8/.9/.0/....a/.P#.b/.c/.d/.e/.f/.9&.V, `} j, g/.J+.Rw h/.}0 i/.'.                                                                                                                   j/.k/.l/.   Z  {$ m/.n/.o/./. p/.q/.r/.s/.t/.u/.v/.w/.v/.x/.y/.z/.A/.B/.C/.D/.E/.E/.F/.F/.F/.F/.G/.H/.I/.J/.K/.L/.M/.N/.O/.P/.Q/.R/.S/.T/.U/.V/.W/.X/.Y/.Z/.d% `/. (..(.+(.@(.#(.$(.%(.&(.*(.*(.=(.=(.-(.;(.>(.=(.,(.'(.)(.!(.~(.{(.](.^(./(.((._(.:(.<(.[(.}(.|(.1(.2(.3(.4(.PY                =. <+ <+ !. 5(.6(.7(.H. -+                         Z  8(.9(.0(.a(.b(.c(.d(.e(.f(.g(.h(.i(.j(.k(.l(.m(.n(.o(.p(.q(.r(.r(.r(.s(.t(.u(.v(.w(.w(.x(.x(.y(.t(.z(.A(.<(.B(.C(.D(.E(.F(.G(.H(.I(.J(.K(.L(.M(.N(.O(.P(.Q(.R(.S(.T(.U(.V(.W(.X(.Y(.Y(.Z(.`(. _.._.+_.+_.@_.#_.$_.%_.&_.*_.=_.-_.-_.;_.r/.>_.>_.,_.y;.!+ '_.)_.!_.I  <+ <+ ~_.{_.]_.                                                                                                                           X* rH >Q ^_./_.(_.__.(c d- :_.(_.<_.[_.}_.|_.1_.^W X!.2_.3_.4_.5_.^_.6_.7> !>                                                                                           ",
"                                                                                             X$ W$ W$ W$ X$ X$ ). ). eb }b h- s$ h- h* -W '- )- '.       X$ X$ ). X$ V, V, X$                                                                                                                      7_.8_.9_.}=       0_.7% /.    X6 a_.b_.a_.c_.d_.7 .d_.d_.d_.d_.d_.d_.d_.+j e_.d_.d_.T$ +j +j T$ T$ T$ T$ T$ +j =U =U f_.f_.g_.h_.i_.j_.b_.k_.X6 Y..VT 8 .<+ Z  :$ j+ x;.k_.d+ KA l_.+c m_.9g m_.m_.m_.m_.m_.n_.n_.n_.n_.o_.p_.%t q_.r_.r_.s_.@,.@,.E(.K>.yX yX d> <+.P$.P$.t_.Z                          -+ u_.v_.w_.x_.*.                            Y! y_.0H z_.y_.A_.A_.yX D[ $O $O B_.r_.s_.h& C_.7* k_.D_.LA a_.o_.o_.o_.o_.n_.n_.n_.n_.n_.9g E_.F_.G_.p_.o_.-W 0_.t# Z  H_.d% d% k_.b_.KA Jw I_.I_.i_.J_.J_.J_.J_.K_.T$ T$ =U L_.M_.K_.=U T$ T$ T$ T$ T$ T$ d_.N_.N_.a_.2H 2H a_.a_.a_.a_.a_.2H c_.j+    j+ 0_.6+    <+ Bl O_.P_.Q_.                                                                                                                                    !@ X$ X$ ).       ). X$ I* h* W$ V, eb y4 X* b; W$ X$ X$ !@ !@ ). Z                                                                                            ",
"                                                                                                                     X* c.                                                                                                                                                                         R_.S_.T_.I  =.                                                                                                                            :+ k^ U_.U_.>^ m% V_.W_.Fl G% 2* X_.Y_.Y_.R] Z_.`_. :..:.+:.@:.+:.#:.`^ ~$ $:.u^ o+ y&                Z  Z  '. Z  Z                             |. i( %:.i& #' |4 &:.*:.=:.-:./.       $  =  ;:.@1 =.                         Z  Z  Z  Z  '. Z                    !+ L$._k >^ >:.,:.@:.Sm Sm j/.':.':.):.):.!:.!:.~:.):.U_.2* .= {:.]:.D_.G_.^:.=3                                                                                                                               <+ }= /:.(:._:.Z                                                                                                                                                                       V, :!                                                                                                                      ",
"                                                                                                                                                                                                                                                                                                      <+ I                                                                                                                                <+ ::.<:.[:.}:.|:.1:.2:.3:.4:.5:.6:.7:.8:.9:.0:.a:.b:.c:.d:.e:.f:.g:.h:.i:.j:.k:.l:.m:.+% B#                                                    i  n:.o:.p:.P@ B# i  q:.r:.s:.v. @1 |# {: t:.u:.v:.$  /.                                                       Z  <+ w:.x:.y:.z:.A:.B:.C:.D:.E:.F:.G:.H:.I:.J:.K:.L:.M:.M:.N:.O:.P:.Q:.R:.S:.T:.U:.t#                                                                                                                                     <+ <+                                                                                                                                                                                                                                                                                                       ",
"                                                                                                                                                                                                                                                                                                                                                                                                                                             Y_.V:.W:.X:.Y:.Z:.`:. <..<.+<.@<.#<.$<.%<.&<.*<.=<.-<.;<.><.,<.'<.)<.!<.~<.{<.]<.^<.:$ Z  j+ /<.I                 Z+ M{.I* x;.(<.f_.t#       i  _<.:<.<<.[<.}<.|4 |<.1<.2<.3<.*. 4<.5<.6<.7<.8<.-+ <+       ;; 9<.0<.I* a<.O{ b<.               <+ 4; [= c<.~| C^ d<.e<.f<.g<.h<.i<.j<.k<.l<.m<.n<.o<.p<.q<.r<.s<.t<.u<.v<.)<.w<.x<.y<.z<.A<.B<.<+                                                                                                                                                                                                                                                                                                                                                                                                                                                 ",
"                                                                                                                                                                                                                                                                                                                                                                                                                                                v* 3- Wh Wh Wh Wh Wh Wh Wh C<.C<.Nh o! n^ n^ C<.z. C<.z. D<.D<.Wh D^ K+ E<.F<.G<.H<.I<.J<.K<.L<.Z           <+ M<.N<.O<.P<.Q<.R<.S<.         T<.U<.V<.W<.X<.<! Y<.Z<.`<.Sm /.  [..[.+[.@[.#[.v*       :$ $[.%[.&[.*[.=[.-[.;[.I           -+ >[.,[.'[.)[.![.~[.{[.][.^[.G^ Wh Wh Wh Wh Wh D<./[.C<.C<.C<.([.([.C<.Wh Wh =+ ;; ;; 3- !+ !+ `                                                                                                                                                                                                                                                                                                                                                                                                                                                     ",
"                                                                                                                                                                                                                                                                                                                                                                                                                                                                                                                  =. /. _[.:[.<[.[[.}[.|[.1[.2[.$; =.       I  3[.4[.5[.6[.7[.8[.9[.<+    =. Z  0[.a[.b[.c[.d[.e[.f[.g[.h[.i[.j[.k[.l[.m[.7%       =. !+ n[.o[.p[.q[.r[.s[.t[.!+             u[.v[.w[.x[.y[.z[.A[.B[.C[.S% =.                                                                                                                                                                                                                                                                                                                                                                                                                                                                                                                   ",
"                                                                                                                                                                                                                                                                                                                                                                                                                                                                                                                        PN D[.E[.F[.G[.{+.H[.G%                I[.J[.K[.L[.M[.N[.3-             D+ O[.P[.Q[.R[.S[.T[.U[.V[.W[.X[.Y[.Z[.(<.               7; `[. }..}..}.+}.@}.               u^ #}.$}.3{.%}.&}.&}.&}.Sm                                                                                                                                                                                                                                                                                                                                                                                                                                                                                                                         ",
"                                                                                                                                                                                                                                                                                                                                                                                                                                                                                                                                                                                                   M{.*}.=}.-}.;}.>}.,}.'}.)}.!}.~}.^{.t#                                                                                                                                                                                                                                                                                                                                                                                                                                                                                                                                                                                                       ",
"                                                                                                                                                                                                                                                                                                                                                                                                                                                                                                                                                                                                      {}.]}.^}./}.(}._}.:}.<}.[}.({.                                                                                                                                                                                                                                                                                                                                                                                                                                                                                                                                                                                                            ",
"                                                                                                                                                                                                                                                                                                                                                                                                                                                                                                                                                                                                         X=.}}.|}.1}.2}.3}.4}.U@.                                                                                                                                                                                                                                                                                                                                                                                                                                                                                                                                                                                                               ",
"                                                                                                                                                                                                                                                                                                                                                                                                                                                                                                                                                                                                            Z  5}.6}.7}.-W                                                                                                                                                                                                                                                                                                                                                                                                                                                                                                                                                                                                                      ",
"                                                                                                                                                                                                                                                                                                                                                                                                                                                                                                                                                                                                               I  0_.9g                                                                                                                                                                                                                                                                                                                                                                                                                                                                                                                                                                                                                         ",
"                                                                                                                                                                                                                                                                                                                                                                                                                                                                                                                                                                                                                                                                                                                                                                                                                                                                                                                                                                                                                                                                                                                                                                                                                                                ",
"                                                                                                                                                                                                                                                                                                                                                                                                                                                                                                                                                                                                                                                                                                                                                                                                                                                                                                                                                                                                                                                                                                                                                                                                                                                ",
"                                                                                                                                                                                                                                                                                                                                                                                                                                                                                                                                                                                                                                                                                                                                                                                                                                                                                                                                                                                                                                                                                                                                                                                                                                                ",
"                                                                                                                                                                                                                                                                                                                                                                                                                                                                                                                                                                                                                                                                                                                                                                                                                                                                                                                                                                                                                                                                                                                                                                                                                                                ",
"                                                                                                                                                                                                                                                                                                                                                                                                                                                                                                                                                                                                                                                                                                                                                                                                                                                                                                                                                                                                                                                                                                                                                                                                                                                ",
"                                                                                                                                                                                                                                                                                                                                                                                                                                                                                                                                                                                                                                                                                                                                                                                                                                                                                                                                                                                                                                                                                                                                                                                                                                                ",
"                                                                                                                                                                                                                                                                                                                                                                                                                                                                                                                                                                                                                                                                                                                                                                                                                                                                                                                                                                                                                                                                                                                                                                                                                                                ",
"                                                                                                                                                                                                                                                                                                                                                                                                                                                                                                                                                                                                                                                                                                                                                                                                                                                                                                                                                                                                                                                                                                                                                                                                                                                ",
"                                                                                                                                                                                                                                                                                                                                                                                                                                                                                                                                                                                                                                                                                                                                                                                                                                                                                                                                                                                                                                                                                                                                                                                                                                                ",
"                                                                                                                                                                                                                                                                                                                                                                                                                                                                                                                                                                                                                                                                                                                                                                                                                                                                                                                                                                                                                                                                                                                                                                                                                                                ",
"                                                                                                                                                                                                                                                                                                                                                                                                                                                                                                                                                                                                                                                                                                                                                                                                                                                                                                                                                                                                                                                                                                                                                                                                                                                ",
"                                                                                                                                                                                                                                                                                                                                                                                                                                                                                                                                                                                                                                                                                                                                                                                                                                                                                                                                                                                                                                                                                                                                                                                                                                                ",
"                                                                                                                                                                                                                                                                                                                                                                                                                                                                                                                                                                                                                                                                                                                                                                                                                                                                                                                                                                                                                                                                                                                                                                                                                                                ",
"                                                                                                                                                                                                                                                                                                                                                                                                                                                                                                                                                                                                                                                                                                                                                                                                                                                                                                                                                                                                                                                                                                                                                                                                                                                ",
"                                                                                                                                                                                                                                                                                                                                                                                                                                                                                                                                                                                                                                                                                                                                                                                                                                                                                                                                                                                                                                                                                                                                                                                                                                                ",
"                                                                                                                                                                                                                                                                                                                                                                                                                                                                                                                                                                                                                                                                                                                                                                                                                                                                                                                                                                                                                                                                                                                                                                                                                                                ",
"                                                                                                                                                                                                                                                                                                                                                                                                                                                                                                                                                                                                                                                                                                                                                                                                                                                                                                                                                                                                                                                                                                                                                                                                                                                ",
"                                                                                                                                                                                                                                                                                                                                                                                                                                                                                                                                                                                                                                                                                                                                                                                                                                                                                                                                                                                                                                                                                                                                                                                                                                                ",
"                                                                                                                                                                                                                                                                                                                                                                                                                                                                                                                                                                                                                                                                                                                                                                                                                                                                                                                                                                                                                                                                                                                                                                                                                                                ",
"                                                                                                                                                                                                                                                                                                                                                                                                                                                                                                                                                                                                                                                                                                                                                                                                                                                                                                                                                                                                                                                                                                                                                                                                                                                ",
"                                                                                                                                                                                                                                                                                                                                                                                                                                                                                                                                                                                                                                                                                                                                                                                                                                                                                                                                                                                                                                                                                                                                                                                                                                                ",
"                                                                                                                                                                                                                                                                                                                                                                                                                                                                                                                                                                                                                                                                                                                                                                                                                                                                                                                                                                                                                                                                                                                                                                                                                                                ",
"                                                                                                                                                                                                                                                                                                                                                                                                                                                                                                                                                                                                                                                                                                                                                                                                                                                                                                                                                                                                                                                                                                                                                                                                                                                ",
"                                                                                                                                                                                                                                                                                                                                                                                                                                                                                                                                                                                                                                                                                                                                                                                                                                                                                                                                                                                                                                                                                                                                                                                                                                                ",
"                                                                                                                                                                                                                                                                                                                                                                                                                                                                                                                                                                                                                                                                                                                                                                                                                                                                                                                                                                                                                                                                                                                                                                                                                                                "};
