/* XPM */
static char * miss_xpm[] = {
"41 41 2 1",
" 	c None",
".	c #6B6B6B",
"                                         ",
"                                         ",
"                                         ",
"         .                               ",
"        ...                              ",
"       ....                              ",
"      .....                              ",
"     .......                             ",
"    ........                             ",
"    ........         ......              ",
"    .........       .........            ",
"     ........       .........            ",
"     .........     ..........            ",
"      ........    ..........             ",
"      .........   .........              ",
"       ......... .........               ",
"       ..................                ",
"        .................                ",
"        ................                 ",
"         ..............                  ",
"         .............                   ",
"          ............                   ",
"          ............                   ",
"           ............                  ",
"          ..............                 ",
"          ...............                ",
"         ...................             ",
"        ......................           ",
"        .......  ................        ",
"       .......     ..................    ",
"      .......        ..................  ",
"      ......            .............    ",
"     ......                 .......      ",
"    .....                                ",
"   .....                                 ",
"   ....                                  ",
"  ...                                    ",
" ..                                      ",
"                                         ",
"                                         ",
"                                         "};
