static char * Explosion_3_xpm[] = {
"40 40 550 2",
"  	c None",
". 	c #E16D2D",
"+ 	c #F36733",
"@ 	c #ED6826",
"# 	c #DC8961",
"$ 	c #D07151",
"% 	c #F6681F",
"& 	c #E46A31",
"* 	c #C49674",
"= 	c #E47028",
"- 	c #E9815E",
"; 	c #C67C4A",
"> 	c #E9663C",
", 	c #E56F20",
"' 	c #F16527",
") 	c #F06A1C",
"! 	c #E67C47",
"~ 	c #F19269",
"{ 	c #E86D27",
"] 	c #EA783B",
"^ 	c #DE9E64",
"/ 	c #EC6E29",
"( 	c #FB6325",
"_ 	c #E56D2B",
": 	c #E86B36",
"< 	c #F76424",
"[ 	c #EA6D25",
"} 	c #F1692D",
"| 	c #EC662D",
"1 	c #F06929",
"2 	c #FB6527",
"3 	c #E66D31",
"4 	c #EB6B28",
"5 	c #EE6829",
"6 	c #F06927",
"7 	c #C52C24",
"8 	c #DD321D",
"9 	c #E86D29",
"0 	c #F56630",
"a 	c #E79670",
"b 	c #B12F34",
"c 	c #D24425",
"d 	c #F56530",
"e 	c #ED6A27",
"f 	c #EE6934",
"g 	c #DC7131",
"h 	c #E27036",
"i 	c #F06922",
"j 	c #EF6A1F",
"k 	c #EE6924",
"l 	c #C23A29",
"m 	c #B92E3A",
"n 	c #C8250F",
"o 	c #EB5B29",
"p 	c #EE552B",
"q 	c #C02C17",
"r 	c #E95D23",
"s 	c #F4691F",
"t 	c #F1682C",
"u 	c #C22C1C",
"v 	c #D93714",
"w 	c #EA6E2A",
"x 	c #CD3614",
"y 	c #C72625",
"z 	c #BE3132",
"A 	c #F25D3F",
"B 	c #F86320",
"C 	c #F6672A",
"D 	c #C92D15",
"E 	c #EA7739",
"F 	c #F96424",
"G 	c #EE6A1C",
"H 	c #D54213",
"I 	c #D03C21",
"J 	c #DA381B",
"K 	c #EB5F20",
"L 	c #EA5F24",
"M 	c #D13B1B",
"N 	c #EE5D2B",
"O 	c #F4691C",
"P 	c #F26727",
"Q 	c #DA421C",
"R 	c #E14B18",
"S 	c #F8662D",
"T 	c #D9441E",
"U 	c #D13824",
"V 	c #CB4610",
"W 	c #F38324",
"X 	c #EF800E",
"Y 	c #EC6D25",
"Z 	c #CB271D",
"` 	c #F38D6B",
" .	c #F56836",
"..	c #F56519",
"+.	c #E96C15",
"@.	c #E57212",
"#.	c #F2672E",
"$.	c #F36722",
"%.	c #EF6E20",
"&.	c #F06822",
"*.	c #F56627",
"=.	c #ED6D1C",
"-.	c #DE6F0B",
";.	c #E2710E",
">.	c #EC701D",
",.	c #F86426",
"'.	c #E86E12",
").	c #E46B14",
"!.	c #E47709",
"~.	c #F7B530",
"{.	c #FC8F27",
"].	c #EE672E",
"^.	c #C52A15",
"/.	c #D03A17",
"(.	c #F26920",
"_.	c #F8A62D",
":.	c #F8A213",
"<.	c #E86B24",
"[.	c #F46529",
"}.	c #EF6A22",
"|.	c #F16A22",
"1.	c #F16725",
"2.	c #F4852F",
"3.	c #FCB120",
"4.	c #FCB51B",
"5.	c #F7A220",
"6.	c #EE6729",
"7.	c #F8A814",
"8.	c #F8B41E",
"9.	c #F8B31A",
"0.	c #E28309",
"a.	c #DE5620",
"b.	c #C92D19",
"c.	c #F05936",
"d.	c #ED6835",
"e.	c #ED7443",
"f.	c #EC7944",
"g.	c #E16541",
"h.	c #DE4729",
"i.	c #DF4724",
"j.	c #F48629",
"k.	c #F19713",
"l.	c #F2961D",
"m.	c #F59814",
"n.	c #F48721",
"o.	c #F2681F",
"p.	c #F7681D",
"q.	c #ED9A3E",
"r.	c #F6D961",
"s.	c #E8A126",
"t.	c #F5971C",
"u.	c #F29A16",
"v.	c #FBB716",
"w.	c #F6C40E",
"x.	c #FABE14",
"y.	c #E27613",
"z.	c #F25620",
"A.	c #DE4A22",
"B.	c #ED6827",
"C.	c #F1691E",
"D.	c #EE6C25",
"E.	c #E87B38",
"F.	c #E86937",
"G.	c #F16729",
"H.	c #E8592F",
"I.	c #C92B1C",
"J.	c #EE5D31",
"K.	c #EE8417",
"L.	c #F9C012",
"M.	c #EDCF16",
"N.	c #EDB43F",
"O.	c #DE7F39",
"P.	c #E87A1E",
"Q.	c #E9AB4D",
"R.	c #FBF1A4",
"S.	c #D6892A",
"T.	c #EC8E14",
"U.	c #ECCA32",
"V.	c #FAC21E",
"W.	c #F5C10D",
"X.	c #FCB01D",
"Y.	c #E18409",
"Z.	c #EB7116",
"`.	c #ED6027",
" +	c #EC6B24",
".+	c #EA6D28",
"++	c #EE6A15",
"@+	c #F46D15",
"#+	c #F76623",
"$+	c #F06B1F",
"%+	c #EF840B",
"&+	c #F3BD24",
"*+	c #FBEC7B",
"=+	c #FEEFA5",
"-+	c #FEE8A3",
";+	c #F2C841",
">+	c #F8D057",
",+	c #FEF298",
"'+	c #EEC139",
")+	c #FBC848",
"!+	c #FEF398",
"~+	c #FCC634",
"{+	c #F2A61A",
"]+	c #E77317",
"^+	c #FEB41F",
"/+	c #F09D25",
"(+	c #F36624",
"_+	c #CC2615",
":+	c #DC462D",
"<+	c #E0432F",
"[+	c #EF6434",
"}+	c #ED8117",
"|+	c #F5BF17",
"1+	c #F2DD43",
"2+	c #EEE674",
"3+	c #F4F5B1",
"4+	c #F3E56B",
"5+	c #FAE47D",
"6+	c #F7F6AA",
"7+	c #F3E568",
"8+	c #F2E679",
"9+	c #FDF3AB",
"0+	c #E8AF34",
"a+	c #F08914",
"b+	c #F26428",
"c+	c #EE9621",
"d+	c #EF8211",
"e+	c #F46722",
"f+	c #CD261C",
"g+	c #CD211B",
"h+	c #BF2A13",
"i+	c #F45B2E",
"j+	c #EB831F",
"k+	c #F9BF18",
"l+	c #FBBD1E",
"m+	c #EECB4A",
"n+	c #FBF399",
"o+	c #FDF39B",
"p+	c #FBF2A8",
"q+	c #F6F7A8",
"r+	c #F5F6AB",
"s+	c #FAF4AB",
"t+	c #FDF0A1",
"u+	c #E28A46",
"v+	c #EE6823",
"w+	c #E5711B",
"x+	c #EA6827",
"y+	c #F7681F",
"z+	c #F36536",
"A+	c #C42C19",
"B+	c #D54022",
"C+	c #F3643D",
"D+	c #D0783F",
"E+	c #F26E2B",
"F+	c #E27434",
"G+	c #E5722E",
"H+	c #EC6C2A",
"I+	c #F06626",
"J+	c #F0642E",
"K+	c #F46728",
"L+	c #EB731F",
"M+	c #EE6D21",
"N+	c #E78816",
"O+	c #F3C61F",
"P+	c #FBE887",
"Q+	c #F5F7A8",
"R+	c #F7F6A4",
"S+	c #FCF1AC",
"T+	c #FAF4A6",
"U+	c #F4F7A7",
"V+	c #F6F3A0",
"W+	c #FAEC9B",
"X+	c #FAE89C",
"Y+	c #DE793B",
"Z+	c #F4672A",
"`+	c #EC6B1E",
" @	c #EF6727",
".@	c #E9682F",
"+@	c #F8642D",
"@@	c #DB782C",
"#@	c #EA7131",
"$@	c #D97F4C",
"%@	c #F1B28B",
"&@	c #EDB283",
"*@	c #ED6921",
"=@	c #F76822",
"-@	c #EB5F2F",
";@	c #DC452A",
">@	c #F46429",
",@	c #F7661B",
"'@	c #F26826",
")@	c #F18B1F",
"!@	c #E5AB27",
"~@	c #EEDD68",
"{@	c #F7F097",
"]@	c #F9F4AC",
"^@	c #F9F4AD",
"/@	c #FAF6AB",
"(@	c #FEF4A3",
"_@	c #F6F5AC",
":@	c #F7DF72",
"<@	c #FCD94C",
"[@	c #F1DA5B",
"}@	c #EBB959",
"|@	c #ED904B",
"1@	c #EF6925",
"2@	c #DE4821",
"3@	c #E76A49",
"4@	c #E17B50",
"5@	c #E86A32",
"6@	c #EC522C",
"7@	c #C62D14",
"8@	c #F15F33",
"9@	c #F5691B",
"0@	c #EE721F",
"a@	c #F1BA28",
"b@	c #F1D052",
"c@	c #FDF29F",
"d@	c #FAF38F",
"e@	c #FEEF93",
"f@	c #F6F5B3",
"g@	c #F7E99E",
"h@	c #F7E599",
"i@	c #FCED81",
"j@	c #F2CF40",
"k@	c #F8C219",
"l@	c #F8C313",
"m@	c #F2E773",
"n@	c #EAB261",
"o@	c #CB2E22",
"p@	c #D3747A",
"q@	c #C96161",
"r@	c #D52D12",
"s@	c #F36D2A",
"t@	c #F26919",
"u@	c #F18412",
"v@	c #F4BB22",
"w@	c #FDE87C",
"x@	c #FAF0AC",
"y@	c #FAF0B2",
"z@	c #ECCB3B",
"A@	c #F5D54A",
"B@	c #FFEDAC",
"C@	c #CF8535",
"D@	c #E68C18",
"E@	c #F3BA31",
"F@	c #F7EE7D",
"G@	c #EDE77A",
"H@	c #F4C515",
"I@	c #E3722E",
"J@	c #EB700C",
"K@	c #F86C1E",
"L@	c #EF6724",
"M@	c #E7692B",
"N@	c #E96B34",
"O@	c #DB6B3A",
"P@	c #ED5526",
"Q@	c #EE6828",
"R@	c #F56528",
"S@	c #EF8320",
"T@	c #FABB1C",
"U@	c #F8D036",
"V@	c #F5BF4F",
"W@	c #E09B4A",
"X@	c #F6B924",
"Y@	c #F8D350",
"Z@	c #FBF4A9",
"`@	c #E1AF40",
" #	c #F79A1D",
".#	c #F08715",
"+#	c #F3C23B",
"@#	c #FCC73B",
"##	c #FCBE11",
"$#	c #F3A71E",
"%#	c #E97717",
"&#	c #D23832",
"*#	c #D53C23",
"=#	c #E94A1B",
"-#	c #EF6C17",
";#	c #E0945E",
">#	c #EE6C23",
",#	c #F0602A",
"'#	c #F25F31",
")#	c #EC6A21",
"!#	c #EF741E",
"~#	c #E4950A",
"{#	c #FAC310",
"]#	c #F5B519",
"^#	c #F89725",
"/#	c #E86E1C",
"(#	c #FA9E25",
"_#	c #F9C83E",
":#	c #FCEF6F",
"<#	c #F2C82B",
"[#	c #FBA42A",
"}#	c #EB6D1A",
"|#	c #F0B118",
"1#	c #FBC20B",
"2#	c #F3C50E",
"3#	c #F4C615",
"4#	c #E48018",
"5#	c #CA2E1D",
"6#	c #CA2215",
"7#	c #D84532",
"8#	c #E48045",
"9#	c #EA7B4C",
"0#	c #DB8B6A",
"a#	c #ED642B",
"b#	c #ED6730",
"c#	c #D0391F",
"d#	c #CA3415",
"e#	c #F06C1D",
"f#	c #FDA32A",
"g#	c #FEBC1D",
"h#	c #FFBB1A",
"i#	c #E88014",
"j#	c #F16B1C",
"k#	c #F56724",
"l#	c #EA6D21",
"m#	c #E89215",
"n#	c #F4C023",
"o#	c #F9C011",
"p#	c #FAA71B",
"q#	c #E86C1D",
"r#	c #FBA91A",
"s#	c #FCC10B",
"t#	c #F9C114",
"u#	c #FBC10A",
"v#	c #F4961D",
"w#	c #F8632E",
"x#	c #CC2525",
"y#	c #E2664B",
"z#	c #E4502B",
"A#	c #F0641D",
"B#	c #EE8A18",
"C#	c #E8931A",
"D#	c #EF9014",
"E#	c #EF701D",
"F#	c #F4651E",
"G#	c #F16826",
"H#	c #F66526",
"I#	c #F1781D",
"J#	c #F0910D",
"K#	c #FCBA14",
"L#	c #FCA127",
"M#	c #EC6D26",
"N#	c #E1641A",
"O#	c #DC751A",
"P#	c #F8871C",
"Q#	c #F38C1A",
"R#	c #E8811C",
"S#	c #F16623",
"T#	c #DC511D",
"U#	c #E6905B",
"V#	c #EB6A27",
"W#	c #EB6B25",
"X#	c #EF6B29",
"Y#	c #F96036",
"Z#	c #EE6824",
"`#	c #F76731",
" $	c #F16A2A",
".$	c #F96333",
"+$	c #F66423",
"@$	c #F06829",
"#$	c #E87018",
"$$	c #F8AE40",
"%$	c #FEA027",
"&$	c #F5692C",
"*$	c #D13217",
"=$	c #D43A25",
"-$	c #F06331",
";$	c #F2652C",
">$	c #F5632C",
",$	c #F76137",
"'$	c #F5672D",
")$	c #E7712D",
"!$	c #F46929",
"~$	c #F26726",
"{$	c #F66721",
"]$	c #C13313",
"^$	c #CF222B",
"/$	c #C12812",
"($	c #F75735",
"_$	c #E55A25",
":$	c #D51D24",
"<$	c #E4602A",
"[$	c #F56625",
"}$	c #F46624",
"|$	c #CD2E1D",
"1$	c #CC231E",
"2$	c #CF1F2E",
"3$	c #EA592C",
"4$	c #F26822",
"5$	c #F75E27",
"6$	c #C5291F",
"7$	c #C82525",
"8$	c #C82520",
"9$	c #EC6730",
"0$	c #F36B25",
"a$	c #E86C34",
"b$	c #E86E26",
"c$	c #F06C1A",
"d$	c #FA6426",
"e$	c #F86525",
"f$	c #E54A27",
"g$	c #ED6527",
"h$	c #C81E29",
"i$	c #F15A24",
"j$	c #F56723",
"k$	c #EE6B25",
"l$	c #CD2617",
"m$	c #BB4743",
"n$	c #EE733D",
"o$	c #EF6A18",
"p$	c #EB6D28",
"q$	c #EC6B35",
"r$	c #F46815",
"s$	c #F3652C",
"t$	c #EF682C",
"u$	c #E17D44",
"v$	c #E38355",
"w$	c #E1825D",
"x$	c #F7622B",
"y$	c #E76E24",
"z$	c #E46235",
"A$	c #EC6232",
"B$	c #F46725",
"C$	c #CB473A",
"D$	c #F47441",
"E$	c #EC6F2D",
"F$	c #DB896A",
"G$	c #E0884A",
"H$	c #E87F5A",
"I$	c #D2916C",
"J$	c #F1662C",
"K$	c #EB6D30",
"L$	c #EF681F",
"M$	c #EB692C",
"N$	c #DD905F",
"O$	c #E48151",
"P$	c #EE6928",
"Q$	c #E66B2E",
"R$	c #EB6E37",
"S$	c #D67C4D",
"T$	c #E96828",
"U$	c #F7C996",
"V$	c #F4A980",
"W$	c #F06B22",
"X$	c #D37F5E",
"Y$	c #CB875E",
"                                                                                ",
"                                                                                ",
"                                                                                ",
"                                                                                ",
"                                                                                ",
"                                                                                ",
"                            .           +                       @               ",
"            # $             % & *       =       -           ; > ,               ",
"                            ' ) !     ~ {       ] ^         / ( _               ",
"                : < [ }     | 1 2 3 4 5 6 7 8 9 0 a   b c d e f g               ",
"                h i j k l m n o p q r s t u v w x y z A B C D                   ",
"                  E F G H I J K L M N O P Q R S T U V W X Y Z                   ",
"                  `  ...+.@.#.$.%.&.*.=.-.;.>.,.'.).!.~.{.].^.                  ",
"                    /.(._.:.<.[.}.|.1.2.3.4.5.6.7.8.9.0.a.b.c.d.e.f.            ",
"                  g.h.i.j.k.l.m.n.o.p.q.r.s.t.u.v.w.x.y.z.A.B.C.D.              ",
"              E.F.G.H.I.J.K.L.M.N.O.P.Q.R.S.T.U.V.W.X.Y.Z.P `. +                ",
"                .+++@+#+$+%+&+*+=+-+;+>+,+'+)+!+~+{+]+^+/+(+_+                  ",
"                    :+<+[+}+|+1+2+3+4+5+6+7+8+9+0+a+b+c+d+e+f+                  ",
"                    g+h+i+j+k+l+m+n+o+p+q+r+s+t+u+v+w+x+y+z+A+B+C+              ",
"          D+E+F+G+H+I+J+K+k L+M+N+O+P+Q+R+S+T+U+V+W+X+Y+Z+`+ @.@+@@@#@$@        ",
"            %@&@*@=@-@;@>@,@'@)@!@~@{@]@^@/@(@_@:@<@[@}@|@1@2@3@                ",
"                4@5@6@7@8@9@0@a@b@c@d@e@f@g@h@i@j@k@l@m@n@J+o@p@                ",
"                  q@r@s@t@u@v@w@x@y@z@A@B@C@D@E@F@G@H@I@J@K@L@M@N@              ",
"                  O@P@Q@R@S@T@U@V@W@X@Y@Z@`@ #.#+#@###$#%#&#*#=#-#;#            ",
"                >#,#'#)#!#~#{#]#^#/#(#_#:#<#[#}#|#1#2#3#4#5#6#7#8#9#            ",
"            0#a#b#c#d#e#f#g#h#i#j#k#l#m#n#o#p#q#r#s#t#u#v#w#x#                  ",
"                  y#z#A#B#C#D#E#F#G#H#I#J#K#L#M#N#O#P#Q#R#S#T#                  ",
"                  U#V#W#X#Y#Z#`# $.$+$@$#$$$%$&$*$=$-$;$>$,$'$                  ",
"                )$!$~${$]$^$/$($_$:$<$[$}$|$1$2$3$4$5$6$7$8$9$0$a$              ",
"                b$c$d$e$    f$g$z.h$i$j$k$l$m$  n$o$p$      q$r$s$              ",
"                t$u$v$w$    x$y$z$  A$B$G.C$      D$E$      F$G$H$              ",
"            I$J$K$          L$M$N$  O$P$Q$          R$            S$            ",
"                            T$U$      V$W$                                      ",
"                            X$          Y$                                      ",
"                                                                                ",
"                                                                                ",
"                                                                                ",
"                                                                                ",
"                                                                                ",
"                                                                                "};
