static char * flame_6_xpm[] = {
"40 40 282 2",
"  	c None",
". 	c #D37B54",
"+ 	c #C44E18",
"@ 	c #C94003",
"# 	c #CA3F05",
"$ 	c #CC663D",
"% 	c #E18A64",
"& 	c #CB4001",
"* 	c #CC3F01",
"= 	c #CE5920",
"- 	c #E18A63",
"; 	c #CC4001",
"> 	c #CE4001",
", 	c #CF3E04",
"' 	c #D0450D",
") 	c #E4A583",
"! 	c #E18A61",
"~ 	c #CD4002",
"{ 	c #CE4004",
"] 	c #CE4107",
"^ 	c #D45E28",
"/ 	c #D87F5C",
"( 	c #DE8050",
"_ 	c #CD4102",
": 	c #D04603",
"< 	c #D14505",
"[ 	c #CD4105",
"} 	c #CF4206",
"| 	c #CF5021",
"1 	c #D03E06",
"2 	c #CE4002",
"3 	c #CF4501",
"4 	c #F6710B",
"5 	c #F26A14",
"6 	c #CC4102",
"7 	c #CF4205",
"8 	c #CC3F05",
"9 	c #CD3F01",
"0 	c #D07E53",
"a 	c #CE4304",
"b 	c #F3710A",
"c 	c #F06F10",
"d 	c #DA5207",
"e 	c #D44906",
"f 	c #CD4104",
"g 	c #D67B4F",
"h 	c #CE4302",
"i 	c #D14803",
"j 	c #F8780A",
"k 	c #F8750D",
"l 	c #E25B09",
"m 	c #CD4203",
"n 	c #DA744B",
"o 	c #DC815B",
"p 	c #D76433",
"q 	c #CF4100",
"r 	c #DF5806",
"s 	c #ED6A08",
"t 	c #F7770A",
"u 	c #F9780A",
"v 	c #F9770E",
"w 	c #F36F0D",
"x 	c #EA640C",
"y 	c #CF4502",
"z 	c #D15116",
"A 	c #D7794D",
"B 	c #D1531E",
"C 	c #D04302",
"D 	c #D74C03",
"E 	c #EA6508",
"F 	c #F9780C",
"G 	c #F9780B",
"H 	c #F9770D",
"I 	c #FA780E",
"J 	c #F5710D",
"K 	c #D04701",
"L 	c #CE4201",
"M 	c #CB4C15",
"N 	c #DF8B68",
"O 	c #CB4107",
"P 	c #CE4108",
"Q 	c #D54C03",
"R 	c #F87410",
"S 	c #F8760C",
"T 	c #F8770B",
"U 	c #F8780C",
"V 	c #F8790C",
"W 	c #F4710C",
"X 	c #D04601",
"Y 	c #CF3F02",
"Z 	c #CC4B15",
"` 	c #DF8A62",
" .	c #CB4000",
"..	c #CD4103",
"+.	c #D84E05",
"@.	c #FA780C",
"#.	c #F5790D",
"$.	c #F29010",
"%.	c #F69212",
"&.	c #F69012",
"*.	c #F6830E",
"=.	c #F3710C",
"-.	c #D04501",
";.	c #D03E05",
">.	c #CC480E",
",.	c #DB8863",
"'.	c #DD8056",
").	c #CB3F01",
"!.	c #D74E06",
"~.	c #FA7A0D",
"{.	c #F77E0D",
"].	c #F2860F",
"^.	c #F9BD2E",
"/.	c #F9C231",
"(.	c #FDB81F",
"_.	c #F99414",
":.	c #F2720D",
"<.	c #D04503",
"[.	c #D03E04",
"}.	c #CF4003",
"|.	c #CD3F04",
"1.	c #D0653A",
"2.	c #D66B3C",
"3.	c #D0511A",
"4.	c #D74E07",
"5.	c #FA7D0D",
"6.	c #F89814",
"7.	c #F1B02D",
"8.	c #F9E393",
"9.	c #FBDF80",
"0.	c #F89313",
"a.	c #F3710E",
"b.	c #D04406",
"c.	c #CE3F02",
"d.	c #CD4003",
"e.	c #D36436",
"f.	c #CE4003",
"g.	c #CC4002",
"h.	c #CE4202",
"i.	c #D64C03",
"j.	c #DC5C06",
"k.	c #F98C13",
"l.	c #F9A91A",
"m.	c #F4C038",
"n.	c #F9F3BD",
"o.	c #FDEBA2",
"p.	c #FDB820",
"q.	c #F89A14",
"r.	c #F37F0C",
"s.	c #D75303",
"t.	c #D24602",
"u.	c #D03F03",
"v.	c #F7700C",
"w.	c #F6880B",
"x.	c #FEBD23",
"y.	c #FCBD22",
"z.	c #F2C03A",
"A.	c #F7F3BC",
"B.	c #FCEAA6",
"C.	c #FABE21",
"D.	c #FBBC22",
"E.	c #FCB320",
"F.	c #F97E11",
"G.	c #ED650E",
"H.	c #D26436",
"I.	c #D14504",
"J.	c #F7710B",
"K.	c #F38C0B",
"L.	c #FDC028",
"M.	c #F8CD4E",
"N.	c #F0DA79",
"O.	c #F5F6C8",
"P.	c #FBEFBB",
"Q.	c #F8D562",
"R.	c #FAC83A",
"S.	c #FCB51D",
"T.	c #FA7F11",
"U.	c #EC6809",
"V.	c #D06536",
"W.	c #CC4103",
"X.	c #D14603",
"Y.	c #F77109",
"Z.	c #FCC12C",
"`.	c #FAE08D",
" +	c #FBF9D1",
".+	c #FDF8D5",
"++	c #FDF7D1",
"@+	c #FDF5C6",
"#+	c #FADA73",
"$+	c #FABB2E",
"%+	c #F88013",
"&+	c #ED6809",
"*+	c #CB4103",
"=+	c #CB4004",
"-+	c #F57109",
";+	c #F48A0F",
">+	c #F9BF2B",
",+	c #FAE091",
"'+	c #FCF9D6",
")+	c #FCF9D4",
"!+	c #FDFAD1",
"~+	c #FDF9CF",
"{+	c #FBF0B8",
"]+	c #F9DD92",
"^+	c #F4861B",
"/+	c #EC6709",
"(+	c #CF6535",
"_+	c #D16030",
":+	c #CA471B",
"<+	c #C73A0B",
"[+	c #EC670A",
"}+	c #EF7D10",
"|+	c #FAB128",
"1+	c #FAD47B",
"2+	c #FAEFB7",
"3+	c #F9F9CC",
"4+	c #FDFAD4",
"5+	c #FCF9D0",
"6+	c #FAF2BD",
"7+	c #F9DC9A",
"8+	c #F27C1E",
"9+	c #E45E0F",
"0+	c #C33A0F",
"a+	c #CB5023",
"b+	c #D37F59",
"c+	c #C16B71",
"d+	c #9F1317",
"e+	c #C83B07",
"f+	c #D64F05",
"g+	c #F57C0C",
"h+	c #F7A218",
"i+	c #F4C033",
"j+	c #F8F2B9",
"k+	c #FEF8CF",
"l+	c #FAF7C5",
"m+	c #FAD566",
"n+	c #F5AF1F",
"o+	c #D6540A",
"p+	c #C33312",
"q+	c #9A1A24",
"r+	c #D19DA4",
"s+	c #BC696B",
"t+	c #B9301D",
"u+	c #BB3110",
"v+	c #CF4F14",
"w+	c #E87E14",
"x+	c #F4A31E",
"y+	c #F9D674",
"z+	c #FBDE83",
"A+	c #FADD7D",
"B+	c #F9B941",
"C+	c #F28F19",
"D+	c #BF3911",
"E+	c #AF2216",
"F+	c #9B1925",
"G+	c #D19DA6",
"H+	c #AD3F50",
"I+	c #A32936",
"J+	c #A72E31",
"K+	c #D0501B",
"L+	c #E66E09",
"M+	c #F1A21D",
"N+	c #F2AE20",
"O+	c #F4AB20",
"P+	c #EB8515",
"Q+	c #E15F15",
"R+	c #AB3134",
"S+	c #A42D37",
"T+	c #A63842",
"U+	c #C6625E",
"V+	c #AE2711",
"W+	c #D1560B",
"X+	c #D75F0A",
"Y+	c #D75B0C",
"Z+	c #BE3B10",
"`+	c #AE362C",
" @	c #8D3134",
".@	c #AA512A",
"+@	c #AF562D",
"@@	c #AE542F",
"#@	c #9B3E37",
"$@	c #8F4350",
"                                                                                ",
"                                                                                ",
"                                                                                ",
"                                                                                ",
"                                                                                ",
"                                                                                ",
"                                                                                ",
"                                                                                ",
"                                                                                ",
"                                                                                ",
"                                                                                ",
"                                                                                ",
"                                    .                                           ",
"                                    +                                           ",
"                                    @ # $                                       ",
"                                  % & * =                                       ",
"                                  - ; > , ' )                                   ",
"                                  ! ; ~ { ] ^ /                                 ",
"                                  ( _ : < [ } |                                 ",
"                                1 2 3 4 5 6 7 8 9 0                             ",
"                                & 6 a b c d e f f g                             ",
"                                ; h i b j k l : m n                             ",
"                            o p q r s t u v w x y z A                           ",
"                            B C D E F j G H I J K L M                           ",
"                        N O P Q R S T U V V F W X Y Z                           ",
"                        `  ...+.@.U #.$.%.&.*.=.-.;.>.,.                        ",
"                        '.)._ !.~.{.].^./.(._.:.<.[.}.|.1.                      ",
"                      2.3.& _ 4.5.6.7.8.9.(.0.a.b.c.d.Y e.                      ",
"                      f.g.h.i.j.k.l.m.n.o.p.q.r.s.t.~ Y e.                      ",
"                      u.d.< v.w.x.y.z.A.B.C.D.E.F.G.~ }.H.                      ",
"                      d.d.I.J.K.L.M.N.O.P.Q.R.S.T.U.~ f.V.                      ",
"                      W._ X.Y.K.Z.`. +.+++@+#+$+%+&+~ d.V.                      ",
"                      *+=+I.-+;+>+,+'+)+!+~+{+]+^+/+*+W.(+                      ",
"                      _+:+<+[+}+|+1+2+3+4+5+6+7+8+9+0+a+b+                      ",
"                        c+d+e+f+g+h+i+j+k+l+m+n+o+p+q+r+                        ",
"                          s+t+u+v+w+x+y+z+A+B+C+D+E+F+G+                        ",
"                            H+I+J+K+L+M+N+O+P+Q+R+S+T+                          ",
"                                  U+V+W+X+Y+Z+`+                                ",
"                                     @.@+@@@#@$@                                ",
"                                                                                "};
