static char * flame_2_xpm[] = {
"40 40 317 2",
"  	c None",
". 	c #C7582F",
"+ 	c #C84008",
"@ 	c #CF8766",
"# 	c #D26E46",
"$ 	c #C5400B",
"% 	c #CD4005",
"& 	c #CF8666",
"* 	c #CF541F",
"= 	c #CB3F03",
"- 	c #CC4007",
"; 	c #CE8666",
"> 	c #CA3F06",
", 	c #CC3F04",
"' 	c #CB4003",
") 	c #CA4106",
"! 	c #CE8362",
"~ 	c #CD3F06",
"{ 	c #CC4006",
"] 	c #CB4007",
"^ 	c #CA4518",
"/ 	c #CD633F",
"( 	c #CC3F05",
"_ 	c #CD4205",
": 	c #CE4408",
"< 	c #CD4007",
"[ 	c #CB4203",
"} 	c #CC5522",
"| 	c #CF4604",
"1 	c #EF6C12",
"2 	c #F37213",
"3 	c #CC4107",
"4 	c #CE4109",
"5 	c #CD5423",
"6 	c #D87547",
"7 	c #CE4704",
"8 	c #F07014",
"9 	c #F87A11",
"0 	c #E45E0E",
"a 	c #DD5312",
"b 	c #CC4B15",
"c 	c #DD8560",
"d 	c #D03F0B",
"e 	c #C9400A",
"f 	c #CE4705",
"g 	c #F07012",
"h 	c #FD810C",
"i 	c #FC7E10",
"j 	c #EC6715",
"k 	c #CC4008",
"l 	c #D46841",
"m 	c #D03F0A",
"n 	c #CB3F08",
"o 	c #CD4603",
"p 	c #EF7012",
"q 	c #FD810D",
"r 	c #FD8011",
"s 	c #EB6614",
"t 	c #CD3F05",
"u 	c #C9420B",
"v 	c #CC572A",
"w 	c #D23D08",
"x 	c #CD3E05",
"y 	c #CE4602",
"z 	c #F06F13",
"A 	c #FE810E",
"B 	c #ED6915",
"C 	c #CC4206",
"D 	c #CB3F04",
"E 	c #CA3F04",
"F 	c #CA410A",
"G 	c #D0723E",
"H 	c #C64008",
"I 	c #CC3E08",
"J 	c #CF4502",
"K 	c #F06F10",
"L 	c #FD810E",
"M 	c #FD8013",
"N 	c #F67812",
"O 	c #D44F09",
"P 	c #CB3F07",
"Q 	c #D0400A",
"R 	c #D35520",
"S 	c #CC4408",
"T 	c #E25D0B",
"U 	c #E35D0A",
"V 	c #E4600A",
"W 	c #F57610",
"X 	c #FC810F",
"Y 	c #F97C0F",
"Z 	c #E8670E",
"` 	c #DE550D",
" .	c #CE4108",
"..	c #DC8B6B",
"+.	c #CD4009",
"@.	c #CD3E07",
"#.	c #D14C07",
"$.	c #FC800E",
"%.	c #FB7F0F",
"&.	c #FC7F10",
"*.	c #FB810D",
"=.	c #FB820E",
"-.	c #FB820C",
";.	c #FD810F",
">.	c #FC8011",
",.	c #F16E11",
"'.	c #CB420B",
").	c #DB8B6D",
"!.	c #E7A388",
"~.	c #D14C06",
"{.	c #FD820F",
"].	c #FD8110",
"^.	c #F68F14",
"/.	c #FBB424",
"(.	c #FC9F1F",
"_.	c #F0700F",
":.	c #C9430D",
"<.	c #DB8B6C",
"[.	c #E59B7F",
"}.	c #CC3F06",
"|.	c #D14B06",
"1.	c #FE8211",
"2.	c #FA840E",
"3.	c #FA870F",
"4.	c #FA870E",
"5.	c #F59612",
"6.	c #FDC123",
"7.	c #FCA622",
"8.	c #FA820F",
"9.	c #EF700E",
"0.	c #DA8B6B",
"a.	c #D24917",
"b.	c #CE420F",
"c.	c #CB3F06",
"d.	c #D14D05",
"e.	c #FA9C16",
"f.	c #F9C121",
"g.	c #FAC122",
"h.	c #FCC020",
"i.	c #FDC01D",
"j.	c #FCA920",
"k.	c #F16F0E",
"l.	c #CA430D",
"m.	c #DA8A6A",
"n.	c #D46F47",
"o.	c #CC3E05",
"p.	c #DC550A",
"q.	c #E6670B",
"r.	c #FC830E",
"s.	c #F99D15",
"t.	c #F8C425",
"u.	c #FBD45D",
"v.	c #FBD364",
"w.	c #FAC21E",
"x.	c #FBB41F",
"y.	c #FB9B15",
"z.	c #F98A0F",
"A.	c #EF710E",
"B.	c #D36737",
"C.	c #D05420",
"D.	c #CB3E06",
"E.	c #CE4605",
"F.	c #EF700C",
"G.	c #FB800F",
"H.	c #F6840E",
"I.	c #F99D12",
"J.	c #F9C42E",
"K.	c #F9E99F",
"L.	c #F9ECA5",
"M.	c #F9BD24",
"N.	c #F9BF1F",
"O.	c #FCB621",
"P.	c #F39313",
"Q.	c #EA710D",
"R.	c #CA4005",
"S.	c #CA4107",
"T.	c #C9430C",
"U.	c #CA4008",
"V.	c #CD4705",
"W.	c #EE7209",
"X.	c #F88A10",
"Y.	c #F8B520",
"Z.	c #FCBA1C",
"`.	c #FAC430",
" +	c #F8EBA0",
".+	c #F9F7C5",
"++	c #F8EEA9",
"@+	c #FDDE6B",
"#+	c #FCBF20",
"$+	c #F8B81D",
"%+	c #F9A318",
"&+	c #F37010",
"*+	c #E15D0A",
"=+	c #C93F09",
"-+	c #CA3F08",
";+	c #CD3E06",
">+	c #CE4505",
",+	c #EE7009",
"'+	c #FA8C10",
")+	c #FBC220",
"!+	c #FBC327",
"~+	c #FAC83F",
"{+	c #FAEDA5",
"]+	c #FCFBCF",
"^+	c #FBF8CD",
"/+	c #FCE585",
"(+	c #F9C129",
"_+	c #FAC022",
":+	c #FDB11A",
"<+	c #FD7D11",
"[+	c #E6640B",
"}+	c #D36844",
"|+	c #EF7009",
"1+	c #F88E10",
"2+	c #F8C324",
"3+	c #F7D663",
"4+	c #FAF4C4",
"5+	c #FBF9CD",
"6+	c #FCFAD1",
"7+	c #FCFAD2",
"8+	c #FCF9CD",
"9+	c #FBEEAF",
"0+	c #FCCE44",
"a+	c #FCB419",
"b+	c #FA7F13",
"c+	c #E7630A",
"d+	c #CB3F05",
"e+	c #D36843",
"f+	c #CD3F07",
"g+	c #EF7109",
"h+	c #F98F0F",
"i+	c #F7D769",
"j+	c #FCF7CE",
"k+	c #FBF9D0",
"l+	c #FBF3B8",
"m+	c #FBCF45",
"n+	c #FCB418",
"o+	c #F97F13",
"p+	c #E8630B",
"q+	c #D26841",
"r+	c #C8410C",
"s+	c #CF4605",
"t+	c #F0700C",
"u+	c #FB8C13",
"v+	c #FAC025",
"w+	c #F8D669",
"x+	c #FCF7C6",
"y+	c #FBFAD2",
"z+	c #FDF9CC",
"A+	c #FBF1B3",
"B+	c #FBCD48",
"C+	c #FCB11C",
"D+	c #F97F16",
"E+	c #CA3F07",
"F+	c #C73F08",
"G+	c #CC6944",
"H+	c #DF8F6A",
"I+	c #CB4107",
"J+	c #D14907",
"K+	c #D75A08",
"L+	c #FB9014",
"M+	c #F9AA26",
"N+	c #F9CE4F",
"O+	c #FBECAB",
"P+	c #FCFAD0",
"Q+	c #FDE78E",
"R+	c #FBC33C",
"S+	c #F99A1E",
"T+	c #F07E15",
"U+	c #D74A0E",
"V+	c #BF360A",
"W+	c #AE312F",
"X+	c #CD4E17",
"Y+	c #CB430A",
"Z+	c #CF4A06",
"`+	c #FA7D0D",
" @	c #F99718",
".@	c #F7BF31",
"+@	c #FBE496",
"@@	c #FBF5BD",
"#@	c #FBF4B9",
"$@	c #FCDE78",
"%@	c #FAB21F",
"&@	c #FA8715",
"*@	c #EF6C11",
"=@	c #C83D08",
"-@	c #B83014",
";@	c #A83C4B",
">@	c #D56A3C",
",@	c #C74206",
"'@	c #CB4607",
")@	c #DD5E0C",
"!@	c #F68A0C",
"~@	c #F8B223",
"{@	c #FAC22C",
"]@	c #F9C22B",
"^@	c #FCA823",
"/@	c #F57B0F",
"(@	c #D7520B",
"_@	c #CD4307",
":@	c #DE9679",
"<@	c #DE9677",
"[@	c #D9764D",
"}@	c #CC4E14",
"|@	c #DD7215",
"1@	c #E58113",
"2@	c #E58114",
"3@	c #DC6B1E",
"4@	c #CB5220",
"5@	c #D98462",
"6@	c #E09879",
"7@	c #9F191D",
"8@	c #BC3911",
"9@	c #CB460D",
"0@	c #CB4710",
"a@	c #B93420",
"b@	c #A02F34",
"                                                                                ",
"                                                                                ",
"                                                                                ",
"                                                                                ",
"                                                                                ",
"                                                                                ",
"                                                                                ",
"                                                                                ",
"                                                                                ",
"                                        .                                       ",
"                                        + @                                     ",
"                                    # $ % &                                     ",
"                                    * = - ;                                     ",
"                                  > , ' ) !                                     ",
"                                  ~ ~ { ] ^ /                                   ",
"                                  ( _ : < [ }                                   ",
"                                  | 1 2 3 4 5                                   ",
"                                6 7 8 9 0 a b c                                 ",
"                              d e f g h i j 3 k l                               ",
"                              m n o p q r s , t u v                             ",
"                              w x y z A r B C D E F                             ",
"                          G H I = J K L M r N O P Q                             ",
"                          R S T U V W L M X Y Z `  ...                          ",
"                        +.@.#.$.%.%.&.*.=.-.;.>.,.'.).                          ",
"                      !.~ , ~.{.].].L ^./.(.*.L _.:.<.                          ",
"                      [.}., |.1.2.3.4.5.6.7.8.L 9.:.0.                          ",
"                    a.b.}.c.d.{.e.f.g.h.i.j.8.X k.l.m.  n.                      ",
"                    }.o._ p.q.r.s.t.u.v.w.x.y.z.A.u B.  C.                      ",
"                    c.D.E.F.G.H.I.J.K.L.M.N.O.P.Q.R.S.T.U.                      ",
"                    c.c.V.W.X.Y.Z.`. +.+++@+#+$+%+&+*+=+-+                      ",
"                    ;+;+>+,+'+)+!+~+{+]+^+/+(+_+:+<+[+P P }+                    ",
"                    ;+;+>+|+1+2+3+4+5+6+7+8+9+0+a+b+c+d+( e+                    ",
"                    f+;+E.g+h+2+i+j+k+7+7+7+l+m+n+o+p+( ( q+                    ",
"                    r+P s+t+u+v+w+x+5+y+7+z+A+B+C+D+[+E+F+G+                    ",
"                      H+I+J+K+L+M+N+O+P+8+Q+R+S+T+U+V+W+                        ",
"                        X+Y+Z+`+ @.@+@@@#@$@%@&@*@=@-@;@                        ",
"                          >@,@'@)@!@~@{@]@^@/@(@_@F                             ",
"                            :@<@[@}@|@1@2@3@4@5@6@                              ",
"                                  7@8@9@0@a@b@                                  ",
"                                                                                "};
