static char * flame_5_xpm[] = {
"40 40 431 2",
"  	c None",
". 	c #D06635",
"+ 	c #DC6335",
"@ 	c #CE561D",
"# 	c #EDB294",
"$ 	c #D13D06",
"% 	c #D3420F",
"& 	c #CD5C28",
"* 	c #DF8E66",
"= 	c #DD7041",
"- 	c #D0470F",
"; 	c #DE8F6E",
"> 	c #CD4001",
", 	c #D13E03",
"' 	c #CE4B14",
") 	c #CE4001",
"! 	c #D13F03",
"~ 	c #D13F06",
"{ 	c #D34D1A",
"] 	c #D76638",
"^ 	c #CE4102",
"/ 	c #CF4003",
"( 	c #D04003",
"_ 	c #D33F03",
": 	c #CF5823",
"< 	c #CE4002",
"[ 	c #D14003",
"} 	c #D14001",
"| 	c #D05723",
"1 	c #CE4101",
"2 	c #D04001",
"3 	c #D04911",
"4 	c #E49473",
"5 	c #D04000",
"6 	c #D14004",
"7 	c #D04005",
"8 	c #D1430A",
"9 	c #D67E59",
"0 	c #D23F01",
"a 	c #D23F03",
"b 	c #D24005",
"c 	c #D14206",
"d 	c #D3460F",
"e 	c #D36434",
"f 	c #D1521D",
"g 	c #CF4201",
"h 	c #D24903",
"i 	c #D54804",
"j 	c #D24103",
"k 	c #CF4104",
"l 	c #D35123",
"m 	c #D04F22",
"n 	c #D34502",
"o 	c #EF6C0A",
"p 	c #F77213",
"q 	c #D24400",
"r 	c #D14203",
"s 	c #D45020",
"t 	c #D14610",
"u 	c #DD7F56",
"v 	c #D34605",
"w 	c #F06E0C",
"x 	c #F97813",
"y 	c #E8620B",
"z 	c #E05309",
"A 	c #D2470F",
"B 	c #E07C53",
"C 	c #D13F04",
"D 	c #D04004",
"E 	c #D06133",
"F 	c #ECAE8E",
"G 	c #D34604",
"H 	c #F06D0B",
"I 	c #FB7D11",
"J 	c #FC7C12",
"K 	c #ED6610",
"L 	c #D14002",
"M 	c #D33E02",
"N 	c #C9572B",
"O 	c #E9AF96",
"P 	c #D0440A",
"Q 	c #D4521C",
"R 	c #D64C11",
"S 	c #D24404",
"T 	c #FD7E12",
"U 	c #FD7E11",
"V 	c #EE670F",
"W 	c #D24104",
"X 	c #D53F05",
"Y 	c #CA5A2C",
"Z 	c #D5673C",
"` 	c #E9AF92",
" .	c #D23F04",
"..	c #D04102",
"+.	c #D14101",
"@.	c #D23F02",
"#.	c #CF4105",
"$.	c #D14506",
"%.	c #F06E0B",
"&.	c #FD7F12",
"*.	c #FD7E10",
"=.	c #EE690D",
"-.	c #D14405",
";.	c #C75B2C",
">.	c #E9A98C",
",.	c #D55723",
"'.	c #E9AC8F",
").	c #D23F05",
"!.	c #D14103",
"~.	c #D14102",
"{.	c #D34203",
"].	c #D04303",
"^.	c #D14605",
"/.	c #F06E0A",
"(.	c #FC7F0F",
"_.	c #FC800F",
":.	c #FC7F0D",
"<.	c #F6760E",
"[.	c #DB5007",
"}.	c #CA5A29",
"|.	c #E9A58A",
"1.	c #D55626",
"2.	c #D97242",
"3.	c #D44703",
"4.	c #E8610C",
"5.	c #E7630A",
"6.	c #E9640B",
"7.	c #F7770D",
"8.	c #FC830E",
"9.	c #F9A314",
"0.	c #FA9512",
"a.	c #F7760D",
"b.	c #DD4F07",
"c.	c #D14B15",
"d.	c #E29370",
"e.	c #DC6E42",
"f.	c #D14B14",
"g.	c #DE8158",
"h.	c #E4A68B",
"i.	c #CD4201",
"j.	c #D04103",
"k.	c #D74D03",
"l.	c #FE7E11",
"m.	c #FD8011",
"n.	c #FC8011",
"o.	c #FB840C",
"p.	c #FB8C13",
"q.	c #FABF1E",
"r.	c #FBA615",
"s.	c #F8740C",
"t.	c #DC4F08",
"u.	c #D24208",
"v.	c #CF4207",
"w.	c #D14304",
"x.	c #D34503",
"y.	c #D04207",
"z.	c #D26232",
"A.	c #D34106",
"B.	c #D14204",
"C.	c #D14104",
"D.	c #D74D04",
"E.	c #FE7F13",
"F.	c #FE8112",
"G.	c #FC8512",
"H.	c #FDA81A",
"I.	c #FEBA1E",
"J.	c #FCC11D",
"K.	c #FBA715",
"L.	c #F7740C",
"M.	c #DD4D08",
"N.	c #D34208",
"O.	c #E0580E",
"P.	c #F36E13",
"Q.	c #DA4D0B",
"R.	c #D36131",
"S.	c #CF4404",
"T.	c #D34205",
"U.	c #D34404",
"V.	c #D44902",
"W.	c #DB5506",
"X.	c #FC7D15",
"Y.	c #F78112",
"Z.	c #F29113",
"`.	c #F1B831",
" +	c #F5C93B",
".+	c #FBC218",
"++	c #FBA813",
"@+	c #F8750D",
"#+	c #DE5408",
"$+	c #D44905",
"%+	c #D64A06",
"&+	c #E36008",
"*+	c #F87611",
"=+	c #DB500B",
"-+	c #D06231",
";+	c #D86E3B",
">+	c #CF4204",
",+	c #D54206",
"'+	c #D74A05",
")+	c #F26E0A",
"!+	c #FB7D0C",
"~+	c #F98010",
"{+	c #F39513",
"]+	c #F3C637",
"^+	c #F8E8A5",
"/+	c #FEF4BA",
"(+	c #FBC21B",
"_+	c #FCA916",
":+	c #FC7E0F",
"<+	c #FD7D0F",
"[+	c #FD7D0E",
"}+	c #FD7C0D",
"|+	c #FD7D0D",
"1+	c #F87610",
"2+	c #D94F0A",
"3+	c #D0622F",
"4+	c #DA6B39",
"5+	c #D24205",
"6+	c #EC6609",
"7+	c #F8780A",
"8+	c #F7880D",
"9+	c #F6A31C",
"0+	c #F1B842",
"a+	c #F7E28F",
"b+	c #FAF2C1",
"c+	c #FEF7B4",
"d+	c #F9B817",
"e+	c #F8A015",
"f+	c #FB880F",
"g+	c #FD7F0F",
"h+	c #F97610",
"i+	c #DA4F0A",
"j+	c #D24D1A",
"k+	c #E1926D",
"l+	c #D96C39",
"m+	c #D14205",
"n+	c #E25A09",
"o+	c #FC7D0C",
"p+	c #F98509",
"q+	c #F4950C",
"r+	c #FDBE25",
"s+	c #F5D469",
"t+	c #FCFAD0",
"u+	c #FCFAD5",
"v+	c #FDF8BB",
"w+	c #F6C832",
"x+	c #F9C424",
"y+	c #FBBB1D",
"z+	c #F89410",
"A+	c #F78511",
"B+	c #FD7F10",
"C+	c #DB4E0A",
"D+	c #D24106",
"E+	c #D04509",
"F+	c #E19673",
"G+	c #DA6A39",
"H+	c #D13F01",
"I+	c #E15A08",
"J+	c #FC8310",
"K+	c #FBA91A",
"L+	c #FAB91C",
"M+	c #FDBF21",
"N+	c #F5D569",
"O+	c #FDFBD2",
"P+	c #FDFBD7",
"Q+	c #FDFAD2",
"R+	c #FDF2BC",
"S+	c #FCE17B",
"T+	c #FBC220",
"U+	c #FCB921",
"V+	c #FCAE1E",
"W+	c #FB7E0F",
"X+	c #FD7F0E",
"Y+	c #F9760F",
"Z+	c #DB4F0A",
"`+	c #D14106",
" @	c #CF4507",
".@	c #E19671",
"+@	c #DB6A39",
"@@	c #FC8510",
"#@	c #FBB118",
"$@	c #FAC324",
"%@	c #F8CE49",
"&@	c #F4DD82",
"*@	c #FBFCD4",
"=@	c #FDFBD5",
"-@	c #FDFBD4",
";@	c #FEF9D3",
">@	c #FAE89E",
",@	c #F6CE45",
"'@	c #FCC529",
")@	c #FDB91E",
"!@	c #F38E0C",
"~@	c #F8880F",
"{@	c #F8760F",
"]@	c #DB4E09",
"^@	c #D04508",
"/@	c #E19572",
"(@	c #D04002",
"_@	c #E15A09",
":@	c #FC850F",
"<@	c #F8CB44",
"[@	c #FDF9CB",
"}@	c #FBFBD0",
"|@	c #FCFBD7",
"1@	c #FEFBD4",
"2@	c #FEFBD2",
"3@	c #FBFAD3",
"4@	c #FBF4B9",
"5@	c #FDCF47",
"6@	c #FBC01B",
"7@	c #FBBB1C",
"8@	c #FCA01B",
"9@	c #F7760F",
"0@	c #DB4F08",
"a@	c #D24105",
"b@	c #D24307",
"c@	c #E29573",
"d@	c #E05A09",
"e@	c #FB850F",
"f@	c #FAB119",
"g@	c #FAFCD2",
"h@	c #FCFCD7",
"i@	c #FDFBD6",
"j@	c #FEFBD5",
"k@	c #FDFCD4",
"l@	c #FCFCD4",
"m@	c #FCF5C0",
"n@	c #FBD04D",
"o@	c #FB9B11",
"p@	c #FD8D16",
"q@	c #F8770F",
"r@	c #DA5106",
"s@	c #D24108",
"t@	c #D34307",
"u@	c #E39573",
"v@	c #D97A4F",
"w@	c #D04D18",
"x@	c #D03F02",
"y@	c #DE570D",
"z@	c #F87D10",
"A@	c #FBA918",
"B@	c #FAC43D",
"C@	c #FBF5BA",
"D@	c #FBF7CB",
"E@	c #FEFBD6",
"F@	c #FDFBD3",
"G@	c #FAF9CA",
"H@	c #FCEFA9",
"I@	c #FCC947",
"J@	c #FCAE24",
"K@	c #FB800C",
"L@	c #FB7B12",
"M@	c #F47010",
"N@	c #D84E07",
"O@	c #D1430E",
"P@	c #D15525",
"Q@	c #D04403",
"R@	c #DA4D05",
"S@	c #F3770D",
"T@	c #F69515",
"U@	c #F9C639",
"V@	c #F7D875",
"W@	c #FDFBD1",
"X@	c #FBE892",
"Y@	c #FAC031",
"Z@	c #F9961A",
"`@	c #F98311",
" #	c #FB7C12",
".#	c #EC6411",
"+#	c #D44604",
"@#	c #D04106",
"##	c #D15E2F",
"$#	c #D76D44",
"%#	c #D35927",
"&#	c #D54305",
"*#	c #EA610F",
"=#	c #F07D13",
"-#	c #FCAE21",
";#	c #F7C450",
">#	c #FCEEA3",
",#	c #FCF6C8",
"'#	c #FCF9CA",
")#	c #FCEBA2",
"!#	c #FCD66B",
"~#	c #FAA71D",
"{#	c #F37E13",
"]#	c #F16E0D",
"^#	c #F16C13",
"/#	c #E45810",
"(#	c #D3450C",
"_#	c #D46137",
":#	c #D78867",
"<#	c #D04711",
"[#	c #D14910",
"}#	c #D85610",
"|#	c #F67B0A",
"1#	c #F1930F",
"2#	c #F3BE2D",
"3#	c #F6E19B",
"4#	c #F8EBA8",
"5#	c #F4BA1A",
"6#	c #F5A21C",
"7#	c #EE710D",
"8#	c #D54A07",
"9#	c #CA3F04",
"0#	c #CF4B0F",
"a#	c #D04A11",
"b#	c #D45E2E",
"c#	c #E8B19C",
"d#	c #E89F7D",
"e#	c #E35706",
"f#	c #E06107",
"g#	c #DF7315",
"h#	c #DE8042",
"i#	c #DF8349",
"j#	c #DC710E",
"k#	c #D05D16",
"l#	c #B63316",
"m#	c #AE2213",
"n#	c #A73224",
"o#	c #D45829",
"p#	c #D15927",
"q#	c #D15926",
"r#	c #D05828",
"s#	c #D2572B",
"t#	c #D2572C",
"u#	c #B84930",
"v#	c #962836",
"w#	c #99273A",
"x#	c #994353",
"                                                                                ",
"                                                                                ",
"                                                                                ",
"                                                                                ",
"                                      .                                         ",
"                                    + @                                         ",
"                                # $ % &                                         ",
"                              * = - ;                                           ",
"                              > , '                                             ",
"                              ) ! ~ { ]                                         ",
"                              ^ / ( _ :                                         ",
"                              < [ ! } |                                         ",
"                              1 2 ! [ 3 4                                       ",
"                              1 5 ! 6 7 8 9                                     ",
"                                0 a b 6 c d e                                   ",
"                                f g h i j k l                                   ",
"                        m         n o p q r s                                   ",
"                        t u       v w x y z A B                                 ",
"                        C D E   F G H I J K L M N                               ",
"                      O 6 [ P Q R S H T U V W X Y     Z                         ",
"                      `  ...+.@.#.$.%.&.*.=.-.c ;.  >.,.                        ",
"                      '.).!.~.{.].^./.(._.:.<.[.}.  |.1.                        ",
"                      2.6 ( 3.4.5.6.7.8.9.0.a.b.c.d.e.f.g.h.                    ",
"                    6 i.j.j.k.l.m.n.o.p.q.r.s.t.u.v.w.x.y.z.                    ",
"                    A.].B.C.D.E.F.G.H.I.J.K.L.M.N.N.O.P.Q.R.                    ",
"                    S.T.U.V.W.X.Y.Z.`. +.+++@+#+$+%+&+*+=+-+                    ",
"                ;+>+C.,+'+)+!+~+{+]+^+/+(+_+:+<+[+}+|+1+2+3+                    ",
"                4+} 5+t.6+7+8+9+0+a+b+c+(+d+e+f+g+g+g+h+i+j+k+                  ",
"                l+2 m+n+o+p+q+r+s+t+u+v+w+x+y+z+A+B+B+h+C+D+E+F+                ",
"                G+H+j.I+J+K+L+M+N+O+P+Q+R+S+T+U+V+W+X+Y+Z+`+ @.@                ",
"                +@0 ( I+@@#@$@%@&@*@=@-@;@>@,@'@)@!@~@{@]@C.^@/@                ",
"                +@0 (@_@:@#@<@[@}@|@=@1@2@3@4@5@6@7@8@9@0@a@b@c@                ",
"                +@@.(@d@e@f@<@g@h@i@=@j@k@l@m@n@)@o@p@q@r@s@t@u@                ",
"                v@w@x@y@z@A@B@C@D@i@E@E@F@G@H@I@J@K@L@M@N@O@P@                  ",
"                    7 Q@R@S@T@U@V@F@E@E@W@X@Y@Z@`@ #.#+#@###                    ",
"                    $#%#&#*#=#-#;#>#,#'#)#!#~#{#]#^#/#(#_#:#                    ",
"                        <#[#}#|#1#2#3#4#5#6#7#8#9#0#a#b#                        ",
"                        c#c#d#e#f#g#h#i#j#k#l#m#n#                              ",
"                              o#p#q#r#s#t#u#v#w#x#                              ",
"                                                                                "};
