static char * Destroyer_xpm[] = {
"40 86 10 1",
" 	c None",
".	c #353535",
"+	c #848484",
"@	c #6A6A6A",
"#	c #5A5A5A",
"$	c #4F4F4F",
"%	c #D4D4D4",
"&	c #7A7A7A",
"*	c #000000",
"=	c #BFBFBF",
"                                        ",
"                                        ",
"                                        ",
"                   .                    ",
"               ....+....                ",
"             ..@@@.+.@@@..              ",
"            .@@@@@.+.@@@@@.             ",
"            .@@@@.+++.@@@@.             ",
"           .@@@@@.+++.@@@@@.            ",
"           .@@@@@.#.+.@@@@@.            ",
"          .@@@@@.+#.++.@@@@@.           ",
"          .@@@@@...#...@@@@@.           ",
"          .@@@@@.+.#.+.@@@@@.           ",
"         .@...@@.+.#.+.@@...@.          ",
"         .@.+.@@.+.#.+.@@.+.@.          ",
"         .@.+.@@.+.#.+.@@.+.@.          ",
"        .$@.+.$@.+.$.+.@$.+.@$.         ",
"        .%@.+.%@.+.%.+.@%.+.@%.         ",
"        .$@.+.$@.+.$.+.@$.+.@$.         ",
"        .@@.+.@@.+.#.+.@@.+.@@.         ",
"       .@@@...@@.+.#.+.@@...@@@.        ",
"       .#.@@@@@.........@@@@@.@.        ",
"       ..&.....&.......&.....+..        ",
"       ..&&&&&&&.$$$$$.&&&&&&+..        ",
"       ..&&&&&&&.$+$$$.&&&&&&+..        ",
"       ..&&&&&&&.$$$$$.&&&&&&+..        ",
"       ...&&&&&..$$$+$..&&&&&...        ",
"       ....&&&...$$$$$...&&&....        ",
"       .........................        ",
"       .+.@@@@@@@.@.@.@@@@@@@.@.        ",
"      ...........................       ",
"      .@@.@.@.@.@.@.@.@.@.@.@.@@.       ",
"      .@@@@@@@@@@@@@@@@@@@@@@@@@.       ",
"      .#.......................@.       ",
"      .#.+++++++++++++++++++++.@.       ",
"    ...............................     ",
"    .+++++.++++#.++++#.++++#.+++++.     ",
"    .+++++.++++#.++++#.++++#.+++++.     ",
"    .+++++.++++#.++++#.++++#.+++++.     ",
"    ...............................     ",
"      .#.+++++++++++++++++++++.@.       ",
"      .#.......................@.       ",
"      .#.##########+++++++++++.@.       ",
"      .#.##...####...++++...++.@.       ",
"      .#.##.*.####.*.++++.*.++.@.       ",
"      .#.##.*......*......*.++.@.       ",
"      .#.##.*.####.*.++++.*.++.@.       ",
"      .#.##...####...++++...++.@.       ",
"      .#.###.######.++++++.+++.@.       ",
"      .#.###.######.++++++.+++.@.       ",
"      .#.##...####...++++...++.@.       ",
"      .#.##.*.####.*.++++.*.++.@.       ",
"      .#.##.*......*......*.++.@.       ",
"      .#.##.*.####.*.++++.*.++.@.       ",
"      .#.##...####...++++...++.@.       ",
"      .#.###########++++++++++.@.       ",
"      .#.......................@.       ",
"      .##.+++++.++++++#.+++++.@@.       ",
"      .##.+++++.+++++##.+++++.@@.       ",
"      .##.+++++.++++###.+++++.@@.       ",
"      .##.+++++.++++++#.+++++.@@.       ",
"      .##.....................@@.       ",
"      ...........................       ",
"       .+.+.+.+.+.+.+.+.+.+.+.+.        ",
"       .........................        ",
"       ..&&&&+++.$$$$$.&&+++++..        ",
"       ..&&&&&&+.$+$$$.&&&&+++..        ",
"       ..&&&&&&+.$$$$$.&&&&+++..        ",
"       ..&&&&&&+.$$$$$.&&&&&++..        ",
"       ..+&&&&&&.$$$+$.&&&&&&+..        ",
"       ..+&&&&&&.$$$$$.&&&&&&+..        ",
"       ..++&&&&&.......&&&&&&+..        ",
"       .#.....................@.        ",
"       .@@@@@@@@.+.#.+.@@@@@@@@.        ",
"       ..$$$$$$$.+.$.+.$$$$$$$..        ",
"        .======%.+.=.+.======%.         ",
"        .=====%%.+.=.+.======%.         ",
"        .=====%%.+.=.+.======%.         ",
"        .======%.+.=.+.======%.         ",
"        .........+...+.........         ",
"         ........+...+........          ",
"           ......+. .+......            ",
"                .+. .+.                 ",
"                ... ...                 ",
"                                        ",
"                                        "};
