static char * Battleship_dead_xpm[] = {
"34 176 167 2",
"  	c None",
". 	c #303030",
"+ 	c #313131",
"@ 	c #333333",
"# 	c #373737",
"$ 	c #2C2C2C",
"% 	c #515151",
"& 	c #555555",
"* 	c #323232",
"= 	c #545454",
"- 	c #585858",
"; 	c #353535",
"> 	c #272727",
", 	c #525252",
"' 	c #2B2B2B",
") 	c #404040",
"! 	c #383838",
"~ 	c #494949",
"{ 	c #4C4C4C",
"] 	c #3E3E3E",
"^ 	c #444444",
"/ 	c #2A2A2A",
"( 	c #4E4E4E",
"_ 	c #2F2F2F",
": 	c #575757",
"< 	c #4B4B4B",
"[ 	c #292929",
"} 	c #454545",
"| 	c #474747",
"1 	c #505050",
"2 	c #282828",
"3 	c #2E2E2E",
"4 	c #2D2D2D",
"5 	c #393939",
"6 	c #5F5F5F",
"7 	c #787878",
"8 	c #696969",
"9 	c #343434",
"0 	c #737373",
"a 	c #DDDDDD",
"b 	c #E1E1E1",
"c 	c #999999",
"d 	c #949494",
"e 	c #CECECE",
"f 	c #A3A3A3",
"g 	c #3B3B3B",
"h 	c #5C5C5C",
"i 	c #606060",
"j 	c #6B6B6B",
"k 	c #363636",
"l 	c #4A4A4A",
"m 	c #3A3A3A",
"n 	c #979797",
"o 	c #3C3C3C",
"p 	c #919191",
"q 	c #8A8A8A",
"r 	c #5B5B5B",
"s 	c #939393",
"t 	c #5A5A5A",
"u 	c #424242",
"v 	c #A7A7A7",
"w 	c #7E7E7E",
"x 	c #ABABAB",
"y 	c #B4B4B4",
"z 	c #414141",
"A 	c #727272",
"B 	c #C2C2C2",
"C 	c #CFCFCF",
"D 	c #A0A0A0",
"E 	c #3D3D3D",
"F 	c #717171",
"G 	c #D1D1D1",
"H 	c #D8D8D8",
"I 	c #4D4D4D",
"J 	c #626262",
"K 	c #E0E0E0",
"L 	c #797979",
"M 	c #595959",
"N 	c #777777",
"O 	c #7C7C7C",
"P 	c #5D5D5D",
"Q 	c #9B9B9B",
"R 	c #868686",
"S 	c #6A6A6A",
"T 	c #6D6D6D",
"U 	c #7D7D7D",
"V 	c #848484",
"W 	c #8F8F8F",
"X 	c #656565",
"Y 	c #909090",
"Z 	c #898989",
"` 	c #7A7A7A",
" .	c #818181",
"..	c #A6A6A6",
"+.	c #969696",
"@.	c #9C9C9C",
"#.	c #959595",
"$.	c #828282",
"%.	c #757575",
"&.	c #8C8C8C",
"*.	c #6E6E6E",
"=.	c #7F7F7F",
"-.	c #434343",
";.	c #686868",
">.	c #808080",
",.	c #666666",
"'.	c #6C6C6C",
").	c #6F6F6F",
"!.	c #878787",
"~.	c #A5A5A5",
"{.	c #4F4F4F",
"].	c #636363",
"^.	c #484848",
"/.	c #747474",
"(.	c #8E8E8E",
"_.	c #A1A1A1",
":.	c #676767",
"<.	c #8B8B8B",
"[.	c #464646",
"}.	c #A4A4A4",
"|.	c #232323",
"1.	c #212121",
"2.	c #202020",
"3.	c #DFDFDF",
"4.	c #252525",
"5.	c #9E9E9E",
"6.	c #D6D6D6",
"7.	c #DBDBDB",
"8.	c #989898",
"9.	c #888888",
"0.	c #BEBEBE",
"a.	c #BFBFBF",
"b.	c #C5C5C5",
"c.	c #D9D9D9",
"d.	c #262626",
"e.	c #222222",
"f.	c #535353",
"g.	c #5E5E5E",
"h.	c #858585",
"i.	c #A2A2A2",
"j.	c #ACACAC",
"k.	c #9F9F9F",
"l.	c #9D9D9D",
"m.	c #ADADAD",
"n.	c #AFAFAF",
"o.	c #707070",
"p.	c #838383",
"q.	c #9A9A9A",
"r.	c #767676",
"s.	c #616161",
"t.	c #565656",
"u.	c #3F3F3F",
"v.	c #929292",
"w.	c #A9A9A9",
"x.	c #B6B6B6",
"y.	c #B9B9B9",
"z.	c #8D8D8D",
"A.	c #B2B2B2",
"B.	c #CDCDCD",
"C.	c #D4D4D4",
"D.	c #B8B8B8",
"E.	c #D3D3D3",
"F.	c #D7D7D7",
"G.	c #DCDCDC",
"H.	c #C1C1C1",
"I.	c #C9C9C9",
"J.	c #C8C8C8",
"                                                                    ",
"                                                                    ",
"                                . +                                 ",
"                                @ #                                 ",
"                              $ % & *                               ",
"                              . = - ;                               ",
"                            > , - - - '                             ",
"                            > , - - - '                             ",
"                            > ) ! ! ~ '                             ",
"                          > { ] + * ^ , /                           ",
"                          $ ( ] + * ^ - _                           ",
"                        > ^ : ] + * ^ - < [                         ",
"                        > ^ : { } | 1 - < [                         ",
"                        2 $ 3 @ = - # 3 4 [                         ",
"                        5 6 7 + = - * , 8 &                         ",
"                        9 ^ | 3 ~ ~ _ ) | ! 2                       ",
"                      2 0 a b 5 c d ! e b f '                       ",
"                      2 g h i ; c d ! , i } [                       ",
"                      2 ! & j k c d ! l h { [                       ",
"                      [ m 6 7 k n d ! , 8 & '                       ",
"                    $ = o 6 7 k p q ! , 8 & r #                     ",
"                    $ = o 6 7 k c d ! , 8 & r #                     ",
"                    $ = o 6 7 k c d ! , 8 & r #                     ",
"                    $ = o 6 7 k c d ! , 8 & r #                     ",
"                    $ = o 6 7 k n s ! , 8 & r #                     ",
"                    $ = o 6 7 k p q ! , 8 & r #                     ",
"                    @ ) g 6 7 + r t * , 8 & u ! 2                   ",
"                  > v w 3 + 9 k x y z . * . A B 4                   ",
"                  > C D E r F o G H < I J 1 d K _                   ",
"                  > ) 5 * g o 4 z u _ ! o 9 # } /                   ",
"                  > L M 7 a b # N O # e b f P Q $                   ",
"                  > R t z S T @ U V ! 6 T I t x 4                   ",
"                > r W t ! 1 X 9 U V ! | : ~ t x O /                 ",
"                > S Y t o 6 7 9 U V ! , 8 & r x n '                 ",
"                > S Z t o 6 7 9 `  .# , 8 & r ..+.'                 ",
"                > S  .M o 6 7 . l { . , 8 & r @.#.'                 ",
"                > S Y t o 6 7 . 1 , * , 8 & r x n '                 ",
"                > S $.3 m 6 7 9 %.O ! , 8 & 4 &.n '                 ",
"                > X 3 k g 6 7 @ *.0 k , 8 & 1 k =.'                 ",
"                > 2 ] -.o 6 7 $ $ $ / , 8 & 1 7 $ 2                 ",
"                > 2 ] -.o 6 7 3 ! 5 4 , 8 & 1 7 $ 2                 ",
"                > 2 ] -.o 6 7 3 ! 5 4 , 8 & 1 7 $ 2                 ",
"                2 2 ] -.o 6 7 3 ! 5 4 , 8 & 1 7 $ [ >               ",
"                2 [ ] -.o 6 7 3 ! 5 4 , 8 & 1 7 $ [ >               ",
"                2 [ ] -.o 6 7 3 ! 5 4 , 8 & 1 7 $ [ >               ",
"                } $ ] -.o 6 7 3 ! 5 4 , 8 & 1 7 $ I [               ",
"                ;._ ] -.o 6 7 3 ! 5 4 , 8 & 1 7 $ >./               ",
"                t 4 ] -.o 6 7 3 ! 5 4 , 8 & 1 7 $ j /               ",
"                3 + ' g g 6 7 4 ; k $ , 8 & | * . _ 2               ",
"                r ` 9 [ m 6 7 ' [ [ [ , 8 & / k %.J /               ",
"                r ` < / m 6 7 . l { . , 8 & / i O J /               ",
"                3 + 4 * m _ + ,.` O '.+ . ] ! . + _ 2               ",
"                M N 3 - ).` O O O O O O O O O 9 q A /               ",
"              4 *._ = 6 m ' ' ' ' ' ' ' ' ! ).` $ !.;               ",
"              ^ q _ = < * @ + ! 5 5 5 5 5 @ ( 7 $ ~.r               ",
"              ^ {.' = < * 4 [ ! 5 5 5 5 5 @ ( 7 $ & -               ",
"              ^ k [ = < * # k ! 5 5 5 5 5 @ ( 7 $ # &               ",
"              ^ k [ = < * ! 5 5 5 5 5 5 5 @ ( 7 $ # &               ",
"              ^ k [ = < * ! 5 5 5 5 5 5 5 @ ( 7 $ # &               ",
"              ^ M $ = < * ! 5 5 5 5 5 5 5 @ ( 7 $ ].-               ",
"              ^ q _ = < * ! 5 5 5 5 5 3 _ * ( 7 $ ~.r               ",
"              ^ q _ = < * ! 5 5 5 5 5 / ' * ( 7 $ ~.r               ",
"              2 $ 3 4 -.. k k k k k k k k + ^.* 3 4 [               ",
"              2 M ` @ 4 _ 3 [ 9 $ $ @ [ _ 3 3 9 0 J /               ",
"              2 M ` < ! u z ' J ; ; r $ -.o ] J O J /               ",
"              2 . 9 3 # u 3 [ J 4 ' M $ 3 m ] * 9 * [               ",
"              z >./.L ' / [ [ / [ [ / [ [ [ [ w (._.:               ",
"              ^ ` :./.I z X :.:.:.:.:.:.:.~ ( <.` n r               ",
"              ^ q _ m o o o o o o o o o o o o o / ~.r               ",
"              ^ q _ 8 *.& u z z z z z z z , 7 O $ ~.r               ",
"              ^ q _ i % ^.,.:.:.:.:.:.:.:.1 - ` $ ~.r               ",
"              ^ q _ i { l 7 O O O O O O O & 1 7 $ ~.r               ",
"              ^ ` 3 i { l 7 O O O O O O O & 1 7 $ p r               ",
"              ^ q _ i { l 7 O O O O O O O & 1 7 $ ~.r               ",
"              ^ q _ i { l 7 O O O O O O O & 1 7 $ ~.r               ",
"              ^ q _ i { l 7 O O O O O O O & 1 7 $ ~.r               ",
"              [.Z _ i { l 8 i 4 ' ' ' '.` & 1 7 $ }.6               ",
"            m  .,.$ { ) 5 ( ' r i i i ' r } u 6 ' A D (             ",
"            m ,.[.| | | u 3 z | | | | | 3 ^ | | | | 0 {             ",
"            # ~ r ` O %.l { %.O O O O O = { 7 O O J { |             ",
"            [ ' M ` 7 % ~ 0 ` O O O O O 7 , & ` O J 4 /             ",
"          ' J ^ & '., k S T T T T T T T T T o : T r ^.7 9           ",
"          ' J ,.] / 9 . 3 9 / 9 9 9 9 [ # * + ! [ u N O 9           ",
"          ' J ,.,.4 i { z X u ] I , ] } N & 1 7 $ 0 O O 9           ",
"          ' J ,.,.4 i { ^.A %.% ^ ^.6 7 O & 1 7 $ 0 O O 9           ",
"          ' J ,.,.4 i { l 7 O ` N N ` O O & 1 7 $ 0 O O 9           ",
"          2 3 3 4 [ i { ~ %.7 T T T T ` O & 1 7 $ 3 3 3 /           ",
"          / ( , l ' i { z X l _ 3 3 3 ( 7 & 1 7 $ ( , , .           ",
"          [ ) 9 ! ' i { z X 4 k . _ k / 0 & 1 7 $ ] 9 < _           ",
"          ' J ) I 4 i { z X 4 9 |.1.@ / 0 & 1 7 $ h u N 9           ",
"          ' J ) I 4 i { z X 4 9 1.2.@ / 0 & 1 7 $ h u N 9           ",
"          $ 0 ~ I 4 i { z X 4 9 1.2.@ / 0 & 1 7 $ h ~ W #           ",
"          + G N ( 4 i { z X 4 9 1.2.@ / 0 & 1 7 $ h '.3.}           ",
"          4 q , w . i { z X 4 9 > 4.@ / 0 & 1 7 $ p , v 5           ",
"          ' J ) 5.@ i { z X 4 # k k ! / 0 & 1 7 $ y } N 9           ",
"          ' J ) I 4 C D O 6.H @ 3 3 3 7.b f 8.K _ h u N 9           ",
"          ' J ) I 4 C D 9.K b b b b b b b f 8.K _ h u N 9           ",
"          ' J ) T _ D N '.0.B B B B B B B w %.a.4 =.-.N 9           ",
"          ' J ) 5.@ i { l 7 O O O O O O O & 1 7 $ y } N 9           ",
"          . b.).- 4 i { u ,.8 . 3 3 3 A O & 1 7 $ ,.:.c.-.          ",
"          . b.).( 4 i { z X 4 # k k ! / 0 & 1 7 $ h :.c.-.          ",
"          ' J ) I 4 i { z X 4 9 > d.@ / 0 & 1 7 $ h u N 9           ",
"          ' J ) I 4 i { z X 4 9 1.2.@ / 0 & 1 7 $ h u N 9           ",
"          ' J ) I 4 i { z X 4 9 1.2.@ / 0 & 1 7 $ h u N 9           ",
"          > / / / [ i { z X 4 9 1.2.@ / 0 & 1 7 $ / / ' [           ",
"          ' 8 T i $ i { z X 4 9 e.1.@ / 0 & 1 7 $ 8 T T @           ",
"          2 k # # / i { z X 4 k 3 3 k / 0 & 1 7 $ m o o 4           ",
"          ' J ,.,.4 i { z X } . _ _ _ ~ N & 1 7 $ 0 O O 9           ",
"            g ].,.4 i { ^.A %.J i i i 7 O & 1 7 $ 0 O {             ",
"            2 o X 4 i { l 7 O O O O O O O & 1 7 $ 0 1 /             ",
"            o r ~ $ i % ^.,.:.:.:.:.:.:.:.1 - ` $ f.g.{             ",
"            g V - ' 8 *.& u z z z z z z z , 7 O $ h 5.(             ",
"            g h.d _ A O O O O O O O O O O O O O $ ~.}.(             ",
"            o !.W _ A O O O O O O O O O O O O O $ ~.}.(             ",
"            o !.` + T 0 0 0 0 0 0 0 0 0 0 0 0 0 _ W i.(             ",
"            E W c U g . _ 9 9 9 9 9 9 9 9 . + m (.j.}.(             ",
"            ) D j.>.q t < 7 O O O O O O O & r k.+.j.l.<             ",
"            ) D j.>.(.r < 7 O O O O O O O & r }.+.j.5.{             ",
"            ) D j.#.8.w ( _ 3 3 3 3 3 3 3 ^.#.m.n j.}.(             ",
"            ) D +.#.n.+.#.x 8.+.k.}.+.#.m.+.#.m.n +.i.(             ",
"            ) D j.8._.o.).+.*.%.U p./.:.q.o.).i.n j.}.(             ",
"            g *.M % ~ + @ z $ E 9 k g / ^ * * l 1 : ).~             ",
"            5 ( < 6 ] ! u 5 ' J * * r $ m g ] I i I ( ~             ",
"            m {.h ` < ! u z ' J ; ; r $ -.o ] J O J , {             ",
"            5 l , '.' ' [ / / / / / / / / / ' / ,.- l ^.            ",
"              _ z / # l * 9 * ! 5 5 5 5 5 @ ( ^./ [.k               ",
"              ^ q _ = < * 4 [ ! 5 5 5 5 5 @ ( 7 $ ~.r               ",
"              ^ q _ = < * k 9 ! 5 5 5 5 5 @ ( 7 $ ~.r               ",
"              ^ k [ = < * ! 5 5 5 5 5 5 5 @ ( 7 $ # &               ",
"              ^ k [ = < * ! 5 5 5 5 5 5 5 @ ( 7 $ # &               ",
"              ^ k [ = < * ! 5 5 5 5 5 5 5 @ ( 7 $ # &               ",
"              ^ k [ = < * ! 5 5 5 5 5 _ . * ( 7 $ # &               ",
"              ^ r.3 = < * ! 5 5 5 5 5 / ' * ( 7 $ &.t               ",
"              ^ 9._ = I * # ! ! ! ! ! ! ! @ % 7 $ }.r               ",
"              ^ ` ] ^.J ^.; 9 9 9 9 9 9 9 ^.7 :.m d r               ",
"              ; , : $ ^ : { { N O O O 1 { h 6 _ , s.)               ",
"              2 ^ M o 4 m ^.: u N O ~ u { < _ ! : ~ /               ",
"              2 M ` < / m 6 7 $ 3 3 / , 8 & / u 7 J /               ",
"              2 & A ' / m 6 7 ' [ [ [ , 8 & ' [ '.h /               ",
"              4 g / + u o 6 7 3 ! 5 4 , 8 & 1 ^ [ ) 9               ",
"              ^ q _ ] -.o 6 7 3 ! 5 4 , 8 & 1 7 $ ~.r               ",
"              ^ q _ ] -.o 6 7 3 ! 5 4 , 8 & 1 7 $ ~.r               ",
"              ^ m [ ] -.o 6 7 3 ! 5 4 , 8 & 1 7 $ m t.              ",
"              ^ k [ ] -.o 6 7 3 ! 5 4 , 8 & 1 7 $ # &               ",
"              ^ k [ ] -.o 6 7 3 ! 5 4 , 8 & 1 7 $ # &               ",
"              ^ k [ ] -.o 6 7 3 ! 5 4 , 8 & 1 7 $ # &               ",
"              ^ o.4 ] -.o 6 7 3 ! 5 4 , 8 & 1 7 $ $.t               ",
"              ^ q _ ] -.o 6 7 3 ! 5 4 , 8 & 1 7 $ ~.r               ",
"              u.=.! m ) o 6 7 4 + + ' , 8 & 1 S k c f.              ",
"                X ` ^ + g 6 7 9 %.O ! , 8 & E l Y L /               ",
"                U W &.^ g 6 7 9 %.O ! , 8 & ^ l.n 9./               ",
"                U n v.t o 6 7 4 + + ' , 8 & r n #.9./               ",
"                U n j.r o 6 7 9 U V ! , 8 & r x n 9./               ",
"                N n j.r o 6 7 9 U V ! , 8 & r x n  ./               ",
"                { X F ^.g 6 7 * t g.@ , 8 & | o.,.% [               ",
"                $.w.v %._ 9 ! ; D v ] * ; * '.x.y.z.'               ",
"                A.H H D T B.C.] G H < D.E.z.8.K b a.4               ",
"                9 5 5 9 ).F.G.. ! 5 4 B 7.q.9 m m k 2               ",
"                m -.^ 5 3 9 ! 4 u ^ _ * ; * ] : - E                 ",
"                > ] ^ 5 * o } 4 u ^ _ ! ] ! ] : - /                 ",
"                > l ( 5 ; ^.: _ I l _ ) { u ] : - /                 ",
"                > ( z / m 6 7 + = { _ , 8 & ' ^.- /                 ",
"                > ^.u ' m 6 7 + = { _ , 8 & $ ~ ( /                 ",
"                  > ] 9 g 6 7 + = { _ , 8 & # u /                   ",
"                  > 5 * g 6 7 + = { _ , 8 & 9 o /                   ",
"                    . ! g 6 7 4 . _ / , 8 & ] k                     ",
"                    [ ! g 6 7 9 %.O ! , 8 & ] .                     ",
"                    [ 9 g 6 7 $ ' / / , 8 & m _                     ",
"                      2 m 6 7 . ] o _ , 8 & /                       ",
"                      > 3 k g _ = { _ 9 ! 9 2                       ",
"                        ].H.I.* = { _ x J.V                         ",
"                        %.a b 9 = { _ e b f                         ",
"                        ' + 9 [ 2 2 2 . * .                         ",
"                        + ) < /     > m -.g                         ",
"                                                                    ",
"                                                                    "};
