static char * Cruiser_xpm[] = {
"41 130 179 2",
"  	c None",
". 	c #242424",
"+ 	c #1D1D1D",
"@ 	c #565656",
"# 	c #505050",
"$ 	c #1E1E1E",
"% 	c #535353",
"& 	c #6A6A6A",
"* 	c #4C4C4C",
"= 	c #696969",
"- 	c #656565",
"; 	c #676767",
"> 	c #626262",
", 	c #494949",
"' 	c #515151",
") 	c #666666",
"! 	c #5D5D5D",
"~ 	c #474747",
"{ 	c #616161",
"] 	c #454545",
"^ 	c #4A4A4A",
"/ 	c #5B5B5B",
"( 	c #4E4E4E",
"_ 	c #636363",
": 	c #525252",
"< 	c #3F3F3F",
"[ 	c #545454",
"} 	c #848484",
"| 	c #575757",
"1 	c #4B4B4B",
"2 	c #5E5E5E",
"3 	c #7A7A7A",
"4 	c #232323",
"5 	c #3C3C3C",
"6 	c #3B3B3B",
"7 	c #4D4D4D",
"8 	c #606060",
"9 	c #484848",
"0 	c #8F8F8F",
"a 	c #D4D4D4",
"b 	c #858585",
"c 	c #C3C3C3",
"d 	c #727272",
"e 	c #4A4845",
"f 	c #5C5753",
"g 	c #5B5752",
"h 	c #454341",
"i 	c #76624B",
"j 	c #B0916B",
"k 	c #AE8E68",
"l 	c #675746",
"m 	c #AF8F69",
"n 	c #AE8D66",
"o 	c #75614A",
"p 	c #A58764",
"q 	c #997A57",
"r 	c #A08564",
"s 	c #9F8261",
"t 	c #AA8D69",
"u 	c #6B5944",
"v 	c #A2815A",
"w 	c #695A48",
"x 	c #393939",
"y 	c #353535",
"z 	c #7F6F5A",
"A 	c #383838",
"B 	c #373737",
"C 	c #A07F58",
"D 	c #675947",
"E 	c #5C5C5C",
"F 	c #7E6D58",
"G 	c #977650",
"H 	c #605241",
"I 	c #77634D",
"J 	c #A9855E",
"K 	c #292826",
"L 	c #735E47",
"M 	c #705F4B",
"N 	c #21211F",
"O 	c #A3845F",
"P 	c #6D6050",
"Q 	c #9E7C56",
"R 	c #A9865E",
"S 	c #685947",
"T 	c #A48560",
"U 	c #6D6152",
"V 	c #A58661",
"W 	c #A4835C",
"X 	c #72614D",
"Y 	c #45413C",
"Z 	c #45403C",
"` 	c #7E684F",
" .	c #A7845D",
"..	c #282623",
"+.	c #83715A",
"@.	c #997B56",
"#.	c #625546",
"$.	c #756756",
"%.	c #A78864",
"&.	c #766754",
"*.	c #211F1D",
"=.	c #9E7D56",
"-.	c #5F5040",
";.	c #95744F",
">.	c #7D7D7D",
",.	c #808080",
"'.	c #A8845C",
").	c #8F714E",
"!.	c #594D3F",
"~.	c #6E5C48",
"{.	c #A3815C",
"].	c #685B4C",
"^.	c #7A6C5A",
"/.	c #828282",
"(.	c #595959",
"_.	c #747474",
":.	c #6F6F6F",
"<.	c #646464",
"[.	c #555555",
"}.	c #585858",
"|.	c #7E7E7E",
"1.	c #645442",
"2.	c #5F5F5F",
"3.	c #605344",
"4.	c #262626",
"5.	c #767676",
"6.	c #1F1F1F",
"7.	c #3C3A37",
"8.	c #3A3836",
"9.	c #3A3A3A",
"0.	c #3D3B38",
"a.	c #3B3937",
"b.	c #313131",
"c.	c #323232",
"d.	c #171717",
"e.	c #1B1B1B",
"f.	c #212121",
"g.	c #3D3D3D",
"h.	c #3E3E3E",
"i.	c #6C6C6C",
"j.	c #7B7B7B",
"k.	c #707070",
"l.	c #5A5A5A",
"m.	c #757575",
"n.	c #7C7C7C",
"o.	c #675744",
"p.	c #63615E",
"q.	c #5C5A58",
"r.	c #7D674F",
"s.	c #6D5A45",
"t.	c #70604C",
"u.	c #433F3A",
"v.	c #433E39",
"w.	c #85735D",
"x.	c #9F7E57",
"y.	c #A18059",
"z.	c #695946",
"A.	c #AD8D67",
"B.	c #A7845C",
"C.	c #A07F59",
"D.	c #A28766",
"E.	c #A28664",
"F.	c #9D7D5A",
"G.	c #A48868",
"H.	c #A08463",
"I.	c #444444",
"J.	c #404040",
"K.	c #787878",
"L.	c #A6A6A6",
"M.	c #989898",
"N.	c #303030",
"O.	c #A0A0A0",
"P.	c #ACACAC",
"Q.	c #CCCCCC",
"R.	c #C6C6C6",
"S.	c #CECECE",
"T.	c #9E9E9E",
"U.	c #929292",
"V.	c #2D2D2D",
"                                                                                  ",
"                                        . +                                       ",
"                                      . @ # +                                     ",
"                                    $ % & & *                                     ",
"                                    . @ & & # +                                   ",
"                                  $ % & & & & *                                   ",
"                                  . @ & & & & # +                                 ",
"                                $ % & & & & & & *                                 ",
"                                $ % & & & & & & *                                 ",
"                                . @ & & & & & & # +                               ",
"                              $ % = - ; & = - ; & *                               ",
"                              $ % > , ' ) ! ~ @ & *                               ",
"                              $ % & { ] ^ ] % & & *                               ",
"                              $ % & { ] ^ ] % & & *                               ",
"                              . @ & { ] ^ ] % & & # +                             ",
"                            $ % & & { ] ^ ] % & & & *                             ",
"                            $ % & & { ] ^ ] % & & & *                             ",
"                            $ % = - / ~ ( , ' _ ; & *                             ",
"                            $ : ! , < [ ) ! , < [ ; *                             ",
"                            $ ^ ] > } | ^ ] > } | % *                             ",
"                            $ 1 , 2 3 | ( , 2 3 | @ *                             ",
"                            4 ' / ~ 5 @ & > ^ 6 ' _ 7 +                           ",
"                          $ 1 ^ 5 @ & & & & & > ^ 5 @ *                           ",
"                          $ ' ) ) ) ) ) ) ) ) ) ) ) ) ^                           ",
"                          $ 7 8 8 8 8 8 8 8 8 8 8 8 8 9                           ",
"                          $ 0 a a a a a a a a a a a a 3                           ",
"                          $ 0 a a a a a a a a a a a a 3                           ",
"                          $ 0 a a a a a a a a a a a a 3                           ",
"                          $ 0 a a a a a a a a a a a a 3                           ",
"                          $ 0 a a a a a a a a a a a a 3                           ",
"                          $ b c c c c c c c c c c c c d                           ",
"                          $ e f g f g f g f g f g f g h                           ",
"                          $ i j k j k j k j k j k j k l                           ",
"                          $ i j k m n j k j k m n j k l                           ",
"                          $ o m p q q r s r s q q t k l                           ",
"                          $ u v w 6 < x y y 6 < x z k l                           ",
"                          $ u v w > } | A B > } | z k l                           ",
"                          $ u C D E 3 % A B E 3 % F n l                           ",
"                          $ u G H 6 < x A B 6 < x I J l                           ",
"                          K L v w > } | A B > } | z k M N                         ",
"                        $ F O v w E 3 % A B E 3 % z k m P                         ",
"                        $ I Q v w 6 < x A B 6 < x z k R S                         ",
"                        $ z T v w > } | A B > } | z k j U                         ",
"                        $ z T v w E 3 % B B E 3 % F n j U                         ",
"                        $ z V W X Y Z Y Z Y Z Y Z ` J j U                         ",
"                        $ z k m n j k m n m n j k m n j U                         ",
"                        $ z k R J j k R J R J j k R J j U                         ",
"                        $ z k j k j k j k j k j k j k j U                         ",
"                        $ F n j k m n j k j k m n j k m P                         ",
"                        $ I  .m p q q r s r s q q t k R S                         ",
"                        $ z T v w 6 < < < < < < x z k j U                         ",
"                        $ z T C D > } } } } } } | F n j U                         ",
"                        $ z T G H > } } } } } } | I J j U                         ",
"                        ..+.O @.#.E 3 3 3 3 3 3 % $.%.j &.*.                      ",
"                      $ u C =.-.6 < < < < < < < < x i m n l                       ",
"                      $ u ;.;.-.{ >.3 3 3 3 3 3 ,.| i '.'.l                       ",
"                      $ u G ).!.[ % < < < < < < 8 % ~.{.J l                       ",
"                      $ u @.].x 6 ) } } } } } } ! x 6 ^.%.l                       ",
"                      $ u -.> | > } } } } } } } } | > | i l                       ",
"                      $ u -.> | E 3 3 3 3 3 3 3 3 % > | i l                       ",
"                      $ u -.> | 6 < < < < < < < < x > | i l                       ",
"                      $ u -.> | { /./.>.3 3 ,.} } | > | i l                       ",
"                      $ u -.> | (._.:.% < < 8 ,.} | > | i l                       ",
"                      $ u -.> | (.:.' <.>.,.! 8 ,.| > | i l                       ",
"                      $ u -.> | (.# (._.# > } | > | > | i l                       ",
"                      $ u -.> | (.[.}.d | ) |.(.) | > | i l                       ",
"                      $ 1.!.E % (._.[.2.3 3 (.) } | E % ~.3.                      ",
"                      4.< < < < 2 5.5.| < < ) } } ! < < < < 6.                    ",
"                    $ > } } } } } } } } } } } } } } } } } } |                     ",
"                      }.3 3 3 3 |./.>.3 3 3 3 ,.} |.3 3 3 3 (                     ",
"                      $ 7.8.9.A (.:.% < < < < 8 ,.| 6 x 0.a.                      ",
"                      $ u -.(.# (.# > |.3 3 ,.| > | > | i l                       ",
"                      $ u -.(.# (.# > | b.c.> | > | > | i l                       ",
"                      $ u -.(.# (.# > | d.$ > | > | > | i l                       ",
"                      $ u -.(.# (.# > | d.$ > | > | > | i l                       ",
"                      $ u -.(.# (.# > | d.$ > | > | > | i l                       ",
"                      $ u -.(.# (.# > | d.$ > | > | > | i l                       ",
"                      $ u -.(.# (.# > | d.$ > | > | > | i l                       ",
"                      $ u -.(.# (.# > | d.$ > | > | > | i l                       ",
"                      $ u -.(.# (.# > | d.$ > | > | > | i l                       ",
"                      $ u -.(.# (.# > | d.$ > | > | > | i l                       ",
"                      $ u -.(.# (.# > | e.f.> | > | > | i l                       ",
"                      $ 1.!.[ 7 (.# > E g.g.- | > | E % ~.3.                      ",
"                      4.h.g.g.g.E # > 5.i.i.3 | > ! < < < < 6.                    ",
"                    $ > j._._._._.# > | b.c.> | > } } } } } |                     ",
"                      }.d i.i.i.k.# > | d.$ > | > |.3 3 3 3 (                     ",
"                      $ 7.8.9.A (.# > | d.$ > | > | 6 x 0.a.                      ",
"                      $ u -.(.# (.# > | e.f.> | > | > | i l                       ",
"                      $ u -.(.[.}.' 2.| g.g.2.(.8 (.) | i l                       ",
"                      $ u -.(._.[.}.' }.i.i.% 8 (.) } | i l                       ",
"                      $ u -.l.m._.[.}.% < < 8 (.) } } | i l                       ",
"                      $ u -.> n.m._.[.2.3 3 (.) } } } | i l                       ",
"                      $ u -.> } n.5.5.| < < ) } } } } | i l                       ",
"                      $ u o.p.3 3 3 3 3 3 3 3 3 3 3 3 q.r.l                       ",
"                      $ s.W t.u.v.8.9.g.g.g.g.A 0.Y Z w.k l                       ",
"                      $ i m O v x.-.(._._._._.# i j k m n l                       ",
"                      $ i R Q v x.-.[ i.i.i.i.7 i j k R J l                       ",
"                      $ i j V W y.z.Z Y Z Y Z Y r.j k j k l                       ",
"                      $ i j k m n j k m n m n j k m n j k l                       ",
"                      $ i j A.B.C.r s q q q q r s {.J j k l                       ",
"                      $ i j T v w 6 < x y y 6 < x z k j k l                       ",
"                      $ i m O v w > } | A B > } | z k m n l                       ",
"                      $ i R Q v w E 3 % A B E 3 % z k R J l                       ",
"                      $ i j T v w 6 < x A B 6 < x z k j k l                       ",
"                      $ i j T C D > } | A B > } | F n j k l                       ",
"                      $ i j T G H E 3 % A B E 3 % I J j k l                       ",
"                      $ i j T v w 6 < x A B 6 < x z k j k l                       ",
"                      $ i m O v w > } | A B > } | z k m n l                       ",
"                      $ i R Q v w E 3 % B B E 3 % z k R J l                       ",
"                      $ i j V W X Y Z Y Z Y Z Y Z w.k j k l                       ",
"                      $ i j k m n j k m n m n j k m n j k l                       ",
"                      $ ~.D.E.F.F.G.E.F.F.F.F.G.E.F.F.G.H.3.                      ",
"                      $ y I.' : : : : : : : : : : : : # J.y                       ",
"                      $ y I.2 & & & & & & & & & & & & / J.y                       ",
"                      $ y I.2 & & d K.k.& & d K.k.& & / J.y                       ",
"                        b.I.2 & & L.a M.& & L.a M.& & / J.N.                      ",
"                        $ I.2 & & L.a M.& & L.a M.& & / J.                        ",
"                        $ I.2 & & L.a O.K.K.P.a M.& & / J.                        ",
"                        $ I.2 & & L.a a a a a a M.& & / J.                        ",
"                        $ I.2 & & L.a Q.R.R.S.a M.& & / J.                        ",
"                        $ I.2 & & L.a M.& & L.a M.& & / J.                        ",
"                        $ I.2 & & L.a M.& & L.a M.& & / J.                        ",
"                        $ I.2 & & T.R.U.& & T.R.U.& & / J.                        ",
"                        $ I.2 & & & & & & & & & & & & / J.                        ",
"                        $ I.E ) ) ) ) ) ) ) ) ) ) ) ) (.J.                        ",
"                          < * * * * * * * * * * * * * * 6                         ",
"                            V.V.V.V.V.V.V.V.V.V.V.V.V.V.                          ",
"                                                                                  ",
"                                                                                  ",
"                                                                                  "};
