static char * Explosion_4_xpm[] = {
"40 40 716 2",
"  	c None",
". 	c #B43142",
"+ 	c #D2202B",
"@ 	c #CD6769",
"# 	c #D25056",
"$ 	c #D92230",
"% 	c #C6696D",
"& 	c #D25865",
"* 	c #D0606E",
"= 	c #B0434D",
"- 	c #BB4351",
"; 	c #C53D3A",
"> 	c #CA6668",
", 	c #C34648",
"' 	c #CE2328",
") 	c #CB2528",
"! 	c #C52927",
"~ 	c #D61F2E",
"{ 	c #D41F29",
"] 	c #C97770",
"^ 	c #CC323D",
"/ 	c #C14854",
"( 	c #CA4454",
"_ 	c #C9445B",
": 	c #BB4C53",
"< 	c #D54356",
"[ 	c #D52230",
"} 	c #C62F35",
"| 	c #C54752",
"1 	c #F6503D",
"2 	c #F15630",
"3 	c #F6542D",
"4 	c #F75230",
"5 	c #F4562C",
"6 	c #F05736",
"7 	c #D32F1F",
"8 	c #C92E37",
"9 	c #C24A5F",
"0 	c #C8464E",
"a 	c #CD454E",
"b 	c #BD4E5E",
"c 	c #D04053",
"d 	c #D92531",
"e 	c #B64B4C",
"f 	c #D22323",
"g 	c #E1272C",
"h 	c #CD3124",
"i 	c #D92D19",
"j 	c #D52028",
"k 	c #D8231E",
"l 	c #D22E18",
"m 	c #F15A2D",
"n 	c #F76324",
"o 	c #F36522",
"p 	c #F76228",
"q 	c #F5612A",
"r 	c #F36429",
"s 	c #D53717",
"t 	c #DA2921",
"u 	c #DA291A",
"v 	c #D92121",
"w 	c #D52823",
"x 	c #C13423",
"y 	c #D1222B",
"z 	c #C14445",
"A 	c #C9515A",
"B 	c #D32127",
"C 	c #D02821",
"D 	c #F85A36",
"E 	c #F76026",
"F 	c #F46134",
"G 	c #D22C1E",
"H 	c #DF3522",
"I 	c #F3642E",
"J 	c #EE6423",
"K 	c #F2651B",
"L 	c #EF6623",
"M 	c #ED6920",
"N 	c #EE6623",
"O 	c #F26522",
"P 	c #F36229",
"Q 	c #F5612B",
"R 	c #F35E28",
"S 	c #CD2A18",
"T 	c #E2432F",
"U 	c #F75E32",
"V 	c #C92B22",
"W 	c #CB252B",
"X 	c #C12428",
"Y 	c #CA6165",
"Z 	c #D33037",
"` 	c #DB2C25",
" .	c #E85426",
"..	c #F36224",
"+.	c #F26524",
"@.	c #F66325",
"#.	c #EC5520",
"$.	c #EE5726",
"%.	c #FB5F29",
"&.	c #F06227",
"*.	c #F38417",
"=.	c #FBA120",
"-.	c #F6A41D",
";.	c #F5A615",
">.	c #FB9F22",
",.	c #EC701A",
"'.	c #F46423",
").	c #F76021",
"!.	c #EA5227",
"~.	c #F4582C",
"{.	c #F96222",
"].	c #E85726",
"^.	c #EF3834",
"/.	c #C7202F",
"(.	c #CB2226",
"_.	c #D9301C",
":.	c #DE421F",
"<.	c #F16426",
"[.	c #F86225",
"}.	c #ED7122",
"|.	c #F07B19",
"1.	c #EA8116",
"2.	c #EA7B22",
"3.	c #ED6823",
"4.	c #F1781F",
"5.	c #EA9C0A",
"6.	c #F9BC15",
"7.	c #F6BE13",
"8.	c #F3BF0C",
"9.	c #FDB81C",
"0.	c #E88B17",
"a.	c #E97E22",
"b.	c #EA7F20",
"c.	c #E7821B",
"d.	c #ED711D",
"e.	c #F3661F",
"f.	c #F46227",
"g.	c #E44C2A",
"h.	c #CB222E",
"i.	c #D62023",
"j.	c #F05528",
"k.	c #F16427",
"l.	c #F36426",
"m.	c #F46719",
"n.	c #E68E13",
"o.	c #F3BA1F",
"p.	c #F3BC1C",
"q.	c #F99C1E",
"r.	c #E16F0B",
"s.	c #FBAC21",
"t.	c #F2BF17",
"u.	c #F4BD14",
"v.	c #F9C00F",
"w.	c #F3C014",
"x.	c #F7C00C",
"y.	c #FABE08",
"z.	c #F6BE03",
"A.	c #F2BF05",
"B.	c #FDB91F",
"C.	c #EB8F16",
"D.	c #EA6D1B",
"E.	c #F3631B",
"F.	c #E84A20",
"G.	c #D22022",
"H.	c #CB2827",
"I.	c #D34B5A",
"J.	c #BE565C",
"K.	c #CD2525",
"L.	c #EF5522",
"M.	c #F1661E",
"N.	c #FC9C2E",
"O.	c #F5B311",
"P.	c #F7BF14",
"Q.	c #F5C012",
"R.	c #FBB71B",
"S.	c #F7A524",
"T.	c #FBB911",
"U.	c #F4D23A",
"V.	c #F6EA7D",
"W.	c #F5EC6E",
"X.	c #FDD354",
"Y.	c #FABC16",
"Z.	c #F9BC18",
"`.	c #EFBF1C",
" +	c #F5B91F",
".+	c #E4830E",
"++	c #F69222",
"@+	c #FBA527",
"#+	c #EF6E19",
"$+	c #F65B33",
"%+	c #EE562D",
"&+	c #D42624",
"*+	c #DF5063",
"=+	c #CF5B5D",
"-+	c #DC3223",
";+	c #F15726",
">+	c #F26326",
",+	c #EF681E",
"'+	c #FDB124",
")+	c #FBBE0D",
"!+	c #F5C00F",
"~+	c #F4CB3D",
"{+	c #F1CE3D",
"]+	c #F4CD40",
"^+	c #F5BE1D",
"/+	c #F7D54E",
"(+	c #FAF0A3",
"_+	c #F7F3A5",
":+	c #F9E57C",
"<+	c #F2CE42",
"[+	c #F3CE3A",
"}+	c #F4CB27",
"|+	c #FCB712",
"1+	c #E98811",
"2+	c #F5A012",
"3+	c #F7BC17",
"4+	c #E48B1B",
"5+	c #F47220",
"6+	c #F46526",
"7+	c #D62A1D",
"8+	c #AE3F42",
"9+	c #D32D25",
"0+	c #F16721",
"a+	c #F8611F",
"b+	c #F3661D",
"c+	c #EA721A",
"d+	c #FDB418",
"e+	c #F2BD29",
"f+	c #E5C623",
"g+	c #FFEC7C",
"h+	c #FDF098",
"i+	c #FDF5A4",
"j+	c #EBCB34",
"k+	c #F1D651",
"l+	c #FBF29C",
"m+	c #F3F5AD",
"n+	c #F9F2AD",
"o+	c #FCF1A5",
"p+	c #FBF398",
"q+	c #F5DF6C",
"r+	c #EFBC27",
"s+	c #F9BE14",
"t+	c #F6BD10",
"u+	c #F6C110",
"v+	c #FAB919",
"w+	c #F6922E",
"x+	c #F16434",
"y+	c #D7261C",
"z+	c #B42C41",
"A+	c #C03A3E",
"B+	c #CC2728",
"C+	c #D82A1D",
"D+	c #F66130",
"E+	c #F26327",
"F+	c #F27C25",
"G+	c #FCAF1F",
"H+	c #F9BD0E",
"I+	c #F1D140",
"J+	c #FFEA7B",
"K+	c #E3CF3F",
"L+	c #E8D64C",
"M+	c #F8EEAC",
"N+	c #FBF08F",
"O+	c #FEED8E",
"P+	c #FAF2A7",
"Q+	c #F6F4AC",
"R+	c #F9F49C",
"S+	c #F9F2AB",
"T+	c #F7F5A2",
"U+	c #F7F39A",
"V+	c #F7EC71",
"W+	c #EBC31B",
"X+	c #F9C005",
"Y+	c #FCB718",
"Z+	c #E6810C",
"`+	c #E85521",
" @	c #D72C1C",
".@	c #D22126",
"+@	c #DA1D2C",
"@@	c #D33221",
"#@	c #DE3A15",
"$@	c #F06925",
"%@	c #F07615",
"&@	c #E99116",
"*@	c #E8C60A",
"=@	c #F5C933",
"-@	c #EFD853",
";@	c #FCE57C",
">@	c #EECF39",
",@	c #F6D16D",
"'@	c #FAF1A8",
")@	c #F2F5A7",
"!@	c #F9F1A2",
"~@	c #F8F3AB",
"{@	c #FAF2A4",
"]@	c #F7F59D",
"^@	c #FCF0AE",
"/@	c #FDF1A2",
"(@	c #F7F2B0",
"_@	c #F2F699",
":@	c #EEC12B",
"<@	c #FEAC14",
"[@	c #F8A031",
"}@	c #F16B22",
"|@	c #E74E23",
"1@	c #DA311A",
"2@	c #D42027",
"3@	c #D32229",
"4@	c #F65733",
"5@	c #F76127",
"6@	c #EF651C",
"7@	c #F7A81C",
"8@	c #F9B81B",
"9@	c #F4C310",
"0@	c #FEE984",
"a@	c #F5E267",
"b@	c #E3C32C",
"c@	c #FBEC82",
"d@	c #FDF1A3",
"e@	c #F0FA98",
"f@	c #F9F4A2",
"g@	c #F9F3A8",
"h@	c #FBF1A7",
"i@	c #F2F5A6",
"j@	c #F8F2A1",
"k@	c #FDF19C",
"l@	c #F7F195",
"m@	c #F1BD27",
"n@	c #EA9114",
"o@	c #EB6E16",
"p@	c #F56328",
"q@	c #F6641B",
"r@	c #F26337",
"s@	c #DC2619",
"t@	c #CC2729",
"u@	c #C93841",
"v@	c #D72026",
"w@	c #F3592C",
"x@	c #F56424",
"y@	c #F36520",
"z@	c #F5AA16",
"A@	c #F5C00E",
"B@	c #F3C110",
"C@	c #F3C935",
"D@	c #EFD454",
"E@	c #FAE77F",
"F@	c #F8F1A2",
"G@	c #FBF5A4",
"H@	c #F5F4A6",
"I@	c #F9F3A6",
"J@	c #F7F4A2",
"K@	c #F9F2A8",
"L@	c #F4F5A2",
"M@	c #F5E674",
"N@	c #F4C639",
"O@	c #F2C011",
"P@	c #F1B71A",
"Q@	c #F6AC1A",
"R@	c #F7A91A",
"S@	c #F88F13",
"T@	c #F36129",
"U@	c #F55523",
"V@	c #DA3E23",
"W@	c #D03340",
"X@	c #D52126",
"Y@	c #EE592C",
"Z@	c #EF6624",
"`@	c #EE6921",
" #	c #F7A91C",
".#	c #F6BF0E",
"+#	c #F6C00C",
"@#	c #F2D14C",
"##	c #FAF29F",
"$#	c #F7F3AA",
"%#	c #F6F4A1",
"&#	c #F8F3A4",
"*#	c #F9F3A4",
"=#	c #F9F3A5",
"-#	c #FAF1A7",
";#	c #F4E264",
">#	c #F7BE1D",
",#	c #F1CE46",
"'#	c #EDC533",
")#	c #F8B917",
"!#	c #FBBE13",
"~#	c #F49E14",
"{#	c #FA6227",
"]#	c #F36321",
"^#	c #DE4420",
"/#	c #D33240",
"(#	c #D42125",
"_#	c #F25434",
":#	c #F06027",
"<#	c #EA691C",
"[#	c #F8A021",
"}#	c #FAB81C",
"|#	c #FABD07",
"1#	c #F1CE56",
"2#	c #F8F6A0",
"3#	c #FCF3A1",
"4#	c #F8F2AA",
"5#	c #F8F49C",
"6#	c #F7F3A7",
"7#	c #FAF4A3",
"8#	c #F9F3A2",
"9#	c #F3E170",
"0#	c #E5C62C",
"a#	c #FAEF7E",
"b#	c #EED744",
"c#	c #F8BB12",
"d#	c #F5BA18",
"e#	c #F7971E",
"f#	c #FB6224",
"g#	c #E24224",
"h#	c #CF353C",
"i#	c #CF2420",
"j#	c #D82718",
"k#	c #C53319",
"l#	c #F5671A",
"m#	c #EC6B14",
"n#	c #DF8F07",
"o#	c #F8C013",
"p#	c #F4BF08",
"q#	c #EED446",
"r#	c #F9F2A6",
"s#	c #F7F4A0",
"t#	c #EFF7A8",
"u#	c #FBF39E",
"v#	c #FAF2A5",
"w#	c #F7F4A5",
"x#	c #F3F4AB",
"y#	c #F3F6A8",
"z#	c #F5F3AB",
"A#	c #F7F59F",
"B#	c #F8F597",
"C#	c #FEEF82",
"D#	c #EBBF3D",
"E#	c #F1C01C",
"F#	c #F3C210",
"G#	c #E4770D",
"H#	c #F26918",
"I#	c #F7622C",
"J#	c #F56421",
"K#	c #E44220",
"L#	c #CC3445",
"M#	c #C82B2F",
"N#	c #CC2B26",
"O#	c #F74733",
"P#	c #F06228",
"Q#	c #EF7923",
"R#	c #FD9F24",
"S#	c #FDB91B",
"T#	c #F3C941",
"U#	c #FBE078",
"V#	c #FCF0A1",
"W#	c #FDF09F",
"X#	c #F6F3A9",
"Y#	c #F9F2A7",
"Z#	c #FBF0A1",
"`#	c #FAEC94",
" $	c #F3E582",
".$	c #F6F09E",
"+$	c #F4F3AE",
"@$	c #FAEF94",
"#$	c #EAC229",
"$$	c #F9AF16",
"%$	c #FAA322",
"&$	c #EB6D1E",
"*$	c #F26523",
"=$	c #F2661F",
"-$	c #E8552B",
";$	c #DD372D",
">$	c #CD3637",
",$	c #BC3E46",
"'$	c #D3251D",
")$	c #DC1D17",
"!$	c #E95825",
"~$	c #EF6521",
"{$	c #E3750A",
"]$	c #FAB61C",
"^$	c #F5BC13",
"/$	c #EDC01A",
"($	c #FAED8B",
"_$	c #F1F7A8",
":$	c #FCF19B",
"<$	c #F3F5A4",
"[$	c #F6F2AA",
"}$	c #FADD64",
"|$	c #E3C225",
"1$	c #FBE975",
"2$	c #F5F5A0",
"3$	c #F8EE99",
"4$	c #EDC426",
"5$	c #F28E0F",
"6$	c #E96B1C",
"7$	c #F1612A",
"8$	c #F56127",
"9$	c #FC5E32",
"0$	c #D6281C",
"a$	c #CD232B",
"b$	c #CE3648",
"c$	c #B73F47",
"d$	c #D02A1C",
"e$	c #F95532",
"f$	c #F26124",
"g$	c #F37B1C",
"h$	c #FBAC1D",
"i$	c #F8BD14",
"j$	c #FCBB14",
"k$	c #EBC125",
"l$	c #FBEF88",
"m$	c #F6F3AD",
"n$	c #F9F2A3",
"o$	c #EECC4F",
"p$	c #F3DA64",
"q$	c #F5F698",
"r$	c #FCDC64",
"s$	c #F8BE15",
"t$	c #F2C233",
"u$	c #EADB67",
"v$	c #FDE99A",
"w$	c #ECC322",
"x$	c #F09018",
"y$	c #EB6A1A",
"z$	c #F46228",
"A$	c #E94E1F",
"B$	c #CD302A",
"C$	c #DE1C25",
"D$	c #D65B57",
"E$	c #EA512D",
"F$	c #F45E23",
"G$	c #ED8512",
"H$	c #F4BF17",
"I$	c #F7BE14",
"J$	c #F7BF26",
"K$	c #E7D04B",
"L$	c #F5E664",
"M$	c #FBE275",
"N$	c #F4E866",
"O$	c #F1C326",
"P$	c #F7CC3C",
"Q$	c #F6E66F",
"R$	c #F7E180",
"S$	c #F8D551",
"T$	c #FCBB07",
"U$	c #FCBD0C",
"V$	c #F1D530",
"W$	c #FADD72",
"X$	c #EDC415",
"Y$	c #ED9F16",
"Z$	c #EF8219",
"`$	c #E8492E",
" %	c #CE242B",
".%	c #D85155",
"+%	c #CE251B",
"@%	c #EC581F",
"#%	c #EF7E21",
"$%	c #FDB821",
"%%	c #F6CD4A",
"&%	c #FEF28D",
"*%	c #EBC32C",
"=%	c #F9BF1E",
"-%	c #FABB19",
";%	c #F9BE0F",
">%	c #FBBC17",
",%	c #F0BE16",
"'%	c #F6C21A",
")%	c #F2C006",
"!%	c #FEBA1F",
"~%	c #FBB91F",
"{%	c #EFC019",
"]%	c #F4C40E",
"^%	c #F5B913",
"/%	c #FFAE29",
"(%	c #EE6F14",
"_%	c #EB482F",
":%	c #C5212A",
"<%	c #DA1D38",
"[%	c #CB2239",
"}%	c #CA2221",
"|%	c #EE5421",
"1%	c #E57516",
"2%	c #F9B21F",
"3%	c #FABD16",
"4%	c #F2C627",
"5%	c #F3A424",
"6%	c #EA7416",
"7%	c #F9AE18",
"8%	c #F3C10F",
"9%	c #F9BE0C",
"0%	c #FABE11",
"a%	c #F4BF18",
"b%	c #E58318",
"c%	c #EE8F18",
"d%	c #FABD0B",
"e%	c #F5BE18",
"f%	c #EA9910",
"g%	c #E87716",
"h%	c #F36423",
"i%	c #EB4831",
"j%	c #CA1E29",
"k%	c #CA242C",
"l%	c #E23B24",
"m%	c #EA4D1E",
"n%	c #F5661C",
"o%	c #F38B22",
"p%	c #F0A514",
"q%	c #F5BF19",
"r%	c #EF9C0E",
"s%	c #F28429",
"t%	c #F4641D",
"u%	c #FAAD18",
"v%	c #EDC60D",
"w%	c #F8BB14",
"x%	c #EC9D0F",
"y%	c #F3921B",
"z%	c #F58D21",
"A%	c #F06E23",
"B%	c #EF781A",
"C%	c #EF9322",
"D%	c #F1941C",
"E%	c #EF7D17",
"F%	c #F16629",
"G%	c #E74520",
"H%	c #E9322A",
"I%	c #C11E26",
"J%	c #CC212E",
"K%	c #D42121",
"L%	c #D73529",
"M%	c #F95B29",
"N%	c #F36722",
"O%	c #EF861C",
"P%	c #FAB226",
"Q%	c #EF701C",
"R%	c #F75D33",
"S%	c #F36221",
"T%	c #FCA422",
"U%	c #F3B817",
"V%	c #FBAE2A",
"W%	c #E97313",
"X%	c #F65B30",
"Y%	c #F5611D",
"Z%	c #EB6726",
"`%	c #F26228",
" &	c #F36120",
".&	c #F55A39",
"+&	c #D8271E",
"@&	c #C92A2C",
"#&	c #B4333A",
"$&	c #C92328",
"%&	c #D61D27",
"&&	c #D22722",
"*&	c #F45C32",
"=&	c #EE671D",
"-&	c #F76721",
";&	c #D72E0E",
">&	c #DF3722",
",&	c #F46627",
"'&	c #EA6F17",
")&	c #E96D15",
"!&	c #EF6C1B",
"~&	c #EE631C",
"{&	c #F8631A",
"]&	c #F66327",
"^&	c #D52D1D",
"/&	c #DF3B25",
"(&	c #F66222",
"_&	c #CD281C",
":&	c #CD2617",
"<&	c #D32725",
"[&	c #D21F20",
"}&	c #D04B38",
"|&	c #E74924",
"1&	c #E84627",
"2&	c #D32927",
"3&	c #D2302C",
"4&	c #DD4E20",
"5&	c #F46720",
"6&	c #F46328",
"7&	c #EE592D",
"8&	c #E94822",
"9&	c #D62821",
"0&	c #E03027",
"a&	c #EB4D29",
"b&	c #CA2A2B",
"c&	c #AD4553",
"d&	c #B24755",
"e&	c #B1353F",
"f&	c #C52937",
"g&	c #C6292F",
"h&	c #C3282B",
"i&	c #CC252F",
"j&	c #D81C21",
"k&	c #F35533",
"l&	c #F5602B",
"m&	c #F3602E",
"n&	c #E94831",
"o&	c #D52218",
"p&	c #BF282B",
"q&	c #C12A39",
"r&	c #BC383A",
"s&	c #B13844",
"t&	c #C82431",
"u&	c #BC253B",
"v&	c #C2414D",
"w&	c #CF2526",
"x&	c #D62525",
"y&	c #D62A23",
"z&	c #D42B1F",
"A&	c #D62B22",
"B&	c #D02927",
"C&	c #C4242D",
"D&	c #CB3C43",
"E&	c #C8445B",
"F&	c #C82E34",
"G&	c #CC3A4E",
"                                                                                ",
"                                                                                ",
"                                                                                ",
"                            .                                                   ",
"                            + @                                                 ",
"                            # $ %                   &                 *         ",
"            = -               ; >   , ' ) ) ! ~ { ]               ^             ",
"                /     ( _ : < [ } | 1 2 3 4 5 6 7 8 9 0 a b     c d             ",
"                e     f g h i j k l m n o p q r s t u v w x     y z             ",
"                  A B C D E F G H I J K L M N O P Q R S T U V W X               ",
"                Y Z `  ...+.@.#.$.%.&.*.=.-.;.>.,.'.).!.~.{.].^./.              ",
"                (._.:.<.[.}.|.1.2.3.4.5.6.7.8.9.0.a.b.c.d.e.f.g.h.              ",
"                i.j.k.l.m.n.o.p.q.r.s.t.u.v.w.x.y.z.A.B.C.D.E.F.G.H.            ",
"        I.J.    K.L.+.M.N.O.P.Q.R.S.T.U.V.W.X.Y.Z.`. +.+++@+#+$+%+&+            ",
"        *+=+    -+;+>+,+'+)+!+~+{+]+^+/+(+_+:+<+[+}+|+1+2+3+4+5+6+7+            ",
"            8+9+0+a+b+c+d+e+f+g+h+i+j+k+l+m+n+o+p+q+r+s+t+u+v+w+x+y+    z+      ",
"          A+B+C+D+E+F+G+H+I+J+K+L+M+N+O+P+Q+R+S+T+U+V+W+X+Y+Z+`+ @.@            ",
"          +@@@#@$@%@&@*@=@-@;@>@,@'@)@!@~@{@]@^@/@(@_@:@<@[@}@|@1@2@            ",
"          3@4@5@6@7@8@9@0@a@b@c@d@e@f@g@g@f@h@i@j@k@l@m@n@o@p@q@r@s@t@u@        ",
"          v@w@x@y@z@A@B@C@D@E@F@G@H@f@I@I@f@J@K@L@M@N@O@P@Q@R@S@T@U@V@W@        ",
"          X@Y@Z@`@ #A@.#+#@###$#%#&#*#=#=#*#J@-#L@;#>#,#'#)#!#~#{#]#^#/#        ",
"          (#_#:#<#[#}#|#A@1#2#3#4#5#=#=#=#=#6#7#8#9#0#a#b#c#d#e#f#+.g#h#        ",
"          i#j#k#l#m#n#o#p#q#r#s#{@t#u#v#w#x#y#z#A#B#C#D#E#F#G#H#I#J#K#L#        ",
"            M#N#O#P#Q#R#S#T#U#V#v#W#X#Y#8#Z#`# $.$+$@$#$$$%$&$*$=$-$;$>$        ",
"            ,$'$)$!$~${$]$^$/$($_$W#:$:$<$[$}$|$1$2$3$4$5$6$7$8$9$0$a$b$        ",
"            c$d$e$f$g$h$i$j$k$l$m$n$o$p$q$z#r$s$t$u$v$w$x$y$z$A$B$C$            ",
"              D$E$F$G$H$I$J$K$L$M$N$O$P$Q$R$S$T$U$V$W$X$Y$Z$~$`$ %.%            ",
"                +%@%#%$%s$%%&%*%=%-%;%>%,%'%^+)%!%~%{%]%^%/%(%_%:%    <%[%      ",
"                }%|%*$1%2%3%4%s$5%6%7%8%9%0%a%)+b%c%d%e%f%g%h%i%j%              ",
"                k%l%m%n%o%p%q%r%s%t%u%v%w%x%y%z%A%B%C%D%E%F%G%H%I%              ",
"                J%K%L%M%N%O%P%Q%R%S%T%U%V%W%O k.X%Y%Z%`% &.&+&@&#&              ",
"                $&%&i#&&*&=&-&;&>&,&'&)&!&~&{&]&^&/&(&_&:&<&[&                  ",
"                        }&|&1&2&3&4&`%y@5&6&7&8&9&0&a&      b&                  ",
"            c&d&        e&f&g&h&i&j&k&l&6&m&n&o&p&q&r&      s&t&u&              ",
"                      v&          w&x&y&z&A&B&C&      D&          E&            ",
"                                                      F&                        ",
"                                                      G&                        ",
"                                                                                ",
"                                                                                ",
"                                                                                "};
