static char * Explosion_5_xpm[] = {
"40 40 662 2",
"  	c None",
". 	c #C05460",
"+ 	c #B94A56",
"@ 	c #BD3B46",
"# 	c #C46F78",
"$ 	c #BB3035",
"% 	c #C75065",
"& 	c #C4545F",
"* 	c #BC282F",
"= 	c #CA2125",
"- 	c #C82228",
"; 	c #BC262D",
"> 	c #BB2E41",
", 	c #AD353D",
"' 	c #BD4556",
") 	c #C63F55",
"! 	c #C1434B",
"~ 	c #CC4F3D",
"{ 	c #F15930",
"] 	c #F15F23",
"^ 	c #F15E23",
"/ 	c #EB5D37",
"( 	c #D54143",
"_ 	c #C73430",
": 	c #CE1E2F",
"< 	c #D0394B",
"[ 	c #BE4453",
"} 	c #B84946",
"| 	c #CA4B58",
"1 	c #BB3922",
"2 	c #C72529",
"3 	c #D22E29",
"4 	c #DF431E",
"5 	c #F7662A",
"6 	c #F46727",
"7 	c #F5662B",
"8 	c #F06825",
"9 	c #CB4019",
"0 	c #D2291C",
"a 	c #D61B2A",
"b 	c #D42C24",
"c 	c #CF3220",
"d 	c #D82F20",
"e 	c #D62C1C",
"f 	c #CE6969",
"g 	c #BF515E",
"h 	c #C6212D",
"i 	c #C82028",
"j 	c #C62226",
"k 	c #CA3220",
"l 	c #F6662D",
"m 	c #CB3325",
"n 	c #C91F26",
"o 	c #CF2220",
"p 	c #F45E33",
"q 	c #F6681E",
"r 	c #EF6B25",
"s 	c #EF6B1C",
"t 	c #F06A20",
"u 	c #F76424",
"v 	c #EE6B22",
"w 	c #E54D27",
"x 	c #CD231E",
"y 	c #F26226",
"z 	c #F7652C",
"A 	c #F36723",
"B 	c #F2672B",
"C 	c #E14E2B",
"D 	c #B63536",
"E 	c #D22022",
"F 	c #D91C21",
"G 	c #E24B2A",
"H 	c #EB5629",
"I 	c #F8661B",
"J 	c #E85727",
"K 	c #E85128",
"L 	c #EA5426",
"M 	c #F0661E",
"N 	c #F06B1E",
"O 	c #F06B1B",
"P 	c #F1971C",
"Q 	c #F78C2B",
"R 	c #F16825",
"S 	c #F06921",
"T 	c #EF621C",
"U 	c #DF5D20",
"V 	c #F9992C",
"W 	c #F78C22",
"X 	c #F16B1A",
"Y 	c #ED6924",
"Z 	c #F0641F",
"` 	c #F74A32",
" .	c #C75E56",
"..	c #D5231F",
"+.	c #C9351D",
"@.	c #F25D1F",
"#.	c #EF7023",
"$.	c #E97C1E",
"%.	c #EA6D28",
"&.	c #F06B22",
"*.	c #F26729",
"=.	c #F46623",
"-.	c #F16D1D",
";.	c #EF7B12",
">.	c #F7AF11",
",.	c #F9A520",
"'.	c #EE7F10",
").	c #F36A24",
"!.	c #F06E1D",
"~.	c #E38512",
"{.	c #FBB718",
"].	c #F3A21F",
"^.	c #EB7C17",
"/.	c #F86825",
"(.	c #EB6E1D",
"_.	c #F65E26",
":.	c #D0281E",
"<.	c #B42941",
"[.	c #C45759",
"}.	c #D93628",
"|.	c #FC632D",
"1.	c #EA6D13",
"2.	c #E28114",
"3.	c #FFB225",
"4.	c #EB7D1C",
"5.	c #F16E1E",
"6.	c #ED6B23",
"7.	c #ED6C14",
"8.	c #F08A0E",
"9.	c #FDBB1C",
"0.	c #F4BC17",
"a.	c #F1BD29",
"b.	c #FDB815",
"c.	c #E97917",
"d.	c #EF8914",
"e.	c #FDB91D",
"f.	c #FCBD11",
"g.	c #F9BC24",
"h.	c #F7B91F",
"i.	c #E87C15",
"j.	c #F16B1D",
"k.	c #EC6331",
"l.	c #CE291A",
"m.	c #B6324B",
"n.	c #C74A55",
"o.	c #C32B35",
"p.	c #D9371E",
"q.	c #F26723",
"r.	c #F49E1F",
"s.	c #F6AD1D",
"t.	c #FCB71C",
"u.	c #F6AF17",
"v.	c #F8A817",
"w.	c #F9A71E",
"x.	c #F1AD28",
"y.	c #F8B120",
"z.	c #F6BC12",
"A.	c #F8E264",
"B.	c #F7E262",
"C.	c #FBBF10",
"D.	c #FAA820",
"E.	c #FBB210",
"F.	c #F9BE12",
"G.	c #F7BC16",
"H.	c #FCBB1A",
"I.	c #F9BB11",
"J.	c #F0B314",
"K.	c #F2901D",
"L.	c #F0671E",
"M.	c #F05D1C",
"N.	c #D55638",
"O.	c #C74D50",
"P.	c #D5626B",
"Q.	c #D62D33",
"R.	c #D63723",
"S.	c #EC6927",
"T.	c #F5AC21",
"U.	c #FCBD15",
"V.	c #F2C011",
"W.	c #F7CC3A",
"X.	c #F5CB37",
"Y.	c #F5C113",
"Z.	c #FBBC17",
"`.	c #F2C62E",
" +	c #F1D14B",
".+	c #F9EE90",
"++	c #FBE675",
"@+	c #EDC215",
"#+	c #F8BB1B",
"$+	c #F1C62D",
"%+	c #F4CE45",
"&+	c #F8BE21",
"*+	c #F7BC15",
"=+	c #F9BC1A",
"-+	c #F3A620",
";+	c #F38823",
">+	c #EF681D",
",+	c #E8571E",
"'+	c #D55C47",
")+	c #CE686C",
"!+	c #C05753",
"~+	c #D63A1D",
"{+	c #EF6A1D",
"]+	c #FDA520",
"^+	c #FFB418",
"/+	c #F5BB20",
"(+	c #FCE785",
"_+	c #F7E977",
":+	c #F1C023",
"<+	c #F4C014",
"[+	c #F5CF4A",
"}+	c #FEF3A6",
"|+	c #F7F7A9",
"1+	c #F9E578",
"2+	c #F7BE1B",
"3+	c #FCBB15",
"4+	c #F1D45A",
"5+	c #FCF199",
"6+	c #EFC12F",
"7+	c #F6BD0E",
"8+	c #FDB820",
"9+	c #E8771E",
"0+	c #EC6C1D",
"a+	c #F15D36",
"b+	c #D0251E",
"c+	c #BC4A46",
"d+	c #E35437",
"e+	c #F45F29",
"f+	c #F46732",
"g+	c #E7722C",
"h+	c #ED8713",
"i+	c #F3BA1B",
"j+	c #F5C627",
"k+	c #EAD751",
"l+	c #FDE895",
"m+	c #F4C228",
"n+	c #F3D24A",
"o+	c #FCF4A9",
"p+	c #F9F6AE",
"q+	c #FEF2AA",
"r+	c #FAED9B",
"s+	c #FEEA94",
"t+	c #F6F3A0",
"u+	c #F9F399",
"v+	c #EDC127",
"w+	c #F1A41A",
"x+	c #E97C22",
"y+	c #EE6D18",
"z+	c #E45129",
"A+	c #D12C1D",
"B+	c #D02022",
"C+	c #C53D1C",
"D+	c #F25629",
"E+	c #EC6F1E",
"F+	c #F27E11",
"G+	c #E98209",
"H+	c #EC8F0C",
"I+	c #FBB71C",
"J+	c #FCB918",
"K+	c #EFD33E",
"L+	c #FDF3AB",
"M+	c #E8D150",
"N+	c #EDD975",
"O+	c #F8F7A9",
"P+	c #FEF4A2",
"Q+	c #FAF6AD",
"R+	c #FDF79F",
"S+	c #FDF4AE",
"T+	c #F8F39A",
"U+	c #FCEA79",
"V+	c #EDC430",
"W+	c #F99B18",
"X+	c #FD7A17",
"Y+	c #EF6B1D",
"Z+	c #E8541F",
"`+	c #CF3117",
" @	c #D13319",
".@	c #D87561",
"+@	c #CC3028",
"@@	c #EF662B",
"#@	c #ED6C26",
"$@	c #EC8320",
"%@	c #FCBA24",
"&@	c #FBBA1A",
"*@	c #FEB81C",
"=@	c #FABB1A",
"-@	c #FBBC1C",
";@	c #F2CF46",
">@	c #F9F6AD",
",@	c #F9F8A1",
"'@	c #FAF7A2",
")@	c #FAF5AD",
"!@	c #FAF7AA",
"~@	c #F9F7AD",
"{@	c #FBF4B0",
"]@	c #FCF4AB",
"^@	c #F6DD7B",
"/@	c #F0BD23",
"(@	c #FEBC16",
"_@	c #F8BC0E",
":@	c #FDBD13",
"<@	c #E77D15",
"[@	c #F46B21",
"}@	c #FC622D",
"|@	c #F46823",
"1@	c #E74226",
"2@	c #BF2D34",
"3@	c #D22E23",
"4@	c #EC6827",
"5@	c #F16926",
"6@	c #EB8516",
"7@	c #FBBA23",
"8@	c #F8BE12",
"9@	c #FDBB10",
"0@	c #F8B91A",
"a@	c #FBDC6C",
"b@	c #F4EC97",
"c@	c #FAF7AC",
"d@	c #F3F7B9",
"e@	c #F8F6AE",
"f@	c #F9F5B1",
"g@	c #FBF6A9",
"h@	c #F7F6B4",
"i@	c #F6F2A0",
"j@	c #FBE487",
"k@	c #EAC424",
"l@	c #F9B81E",
"m@	c #FEBA14",
"n@	c #F2AD16",
"o@	c #F68B20",
"p@	c #F06A22",
"q@	c #EF6A20",
"r@	c #E04623",
"s@	c #BE2E32",
"t@	c #D32B21",
"u@	c #F56627",
"v@	c #F76622",
"w@	c #F27622",
"x@	c #F59C28",
"y@	c #F8B61A",
"z@	c #FABF11",
"A@	c #F8BC18",
"B@	c #F6DF63",
"C@	c #F7E580",
"D@	c #F9E176",
"E@	c #FDF2AB",
"F@	c #F9F6B0",
"G@	c #FAF5AE",
"H@	c #FBF6AA",
"I@	c #FEF5A6",
"J@	c #FDF4AD",
"K@	c #F9F7A6",
"L@	c #FEEDA6",
"M@	c #EBC425",
"N@	c #FCB71D",
"O@	c #FCBA10",
"P@	c #F4BF16",
"Q@	c #F69820",
"R@	c #F16A1A",
"S@	c #F66522",
"T@	c #E64527",
"U@	c #CA272F",
"V@	c #CB3634",
"W@	c #F56230",
"X@	c #E86B25",
"Y@	c #EE6A21",
"Z@	c #E86F1B",
"`@	c #FFA128",
" #	c #FEB425",
".#	c #FEB623",
"+#	c #F5BF15",
"@#	c #F8BD20",
"##	c #EDC333",
"$#	c #FAF48E",
"%#	c #F9F6A5",
"&#	c #F9F7A3",
"*#	c #F9F5AE",
"=#	c #F9F6AC",
"-#	c #F7F5B4",
";#	c #F8F5B3",
">#	c #F2F7A8",
",#	c #FCEFA1",
"'#	c #EEBE34",
")#	c #FDB426",
"!#	c #FBB918",
"~#	c #F9B320",
"{#	c #F6961F",
"]#	c #ED6E1B",
"^#	c #F26328",
"/#	c #DE4627",
"(#	c #C8282C",
"_#	c #B23714",
":#	c #F0522D",
"<#	c #F76523",
"[#	c #F16923",
"}#	c #E4731B",
"|#	c #F06D18",
"1#	c #DE7714",
"2#	c #F9AB04",
"3#	c #F3CD3E",
"4#	c #FFEDA1",
"5#	c #FFF1AF",
"6#	c #F7F4B6",
"7#	c #FFEFB7",
"8#	c #F8F8A7",
"9#	c #F6F5B2",
"0#	c #FBF4AE",
"a#	c #FCF7A3",
"b#	c #F5E467",
"c#	c #F4B630",
"d#	c #E37C0F",
"e#	c #F26D18",
"f#	c #E27120",
"g#	c #E67217",
"h#	c #E4740F",
"i#	c #EE6520",
"j#	c #D22618",
"k#	c #D2201E",
"l#	c #BE2C30",
"m#	c #C22830",
"n#	c #DF4630",
"o#	c #EA552A",
"p#	c #F56527",
"q#	c #EC6B28",
"r#	c #F66D20",
"s#	c #EA871E",
"t#	c #F3C143",
"u#	c #EFDC74",
"v#	c #F1FAA1",
"w#	c #F5EA75",
"x#	c #F6EB8B",
"y#	c #F7F7A4",
"z#	c #F5E680",
"A#	c #F4EC8D",
"B#	c #FBF5AE",
"C#	c #F6F7B3",
"D#	c #F5E26D",
"E#	c #F7B824",
"F#	c #EB9012",
"G#	c #F87B11",
"H#	c #EF6A25",
"I#	c #EC5226",
"J#	c #E5502A",
"K#	c #E84836",
"L#	c #D42021",
"M#	c #D24146",
"N#	c #B72D33",
"O#	c #CE1F2E",
"P#	c #D63622",
"Q#	c #F76625",
"R#	c #E8711E",
"S#	c #E67F0A",
"T#	c #F9B827",
"U#	c #FBE980",
"V#	c #FEF1AA",
"W#	c #FBF69A",
"X#	c #F7BE31",
"Y#	c #F3CF4B",
"Z#	c #FCF594",
"`#	c #F0C836",
" $	c #EECE50",
".$	c #FEF294",
"+$	c #FCF3AA",
"@$	c #F3E36A",
"#$	c #ECC31B",
"$$	c #F7BD24",
"%$	c #FB9C1A",
"&$	c #EE7021",
"*$	c #D22F15",
"=$	c #C7241E",
"-$	c #D71A28",
";$	c #CB201F",
">$	c #C4535D",
",$	c #C8504D",
"'$	c #DB3323",
")$	c #F06824",
"!$	c #FB9C29",
"~$	c #F8B216",
"{$	c #FBBB12",
"]$	c #F2C525",
"^$	c #F1C733",
"/$	c #EAC830",
"($	c #F9B91D",
"_$	c #F5C023",
":$	c #EFC731",
"<$	c #F6BE24",
"[$	c #F3BF23",
"}$	c #EDC732",
"|$	c #F2C632",
"1$	c #F0D35F",
"2$	c #FEE876",
"3$	c #E9C12F",
"4$	c #F8B617",
"5$	c #FBAA27",
"6$	c #E96A25",
"7$	c #DD4B2A",
"8$	c #D91926",
"9$	c #CA2327",
"0$	c #D07C80",
"a$	c #D37485",
"b$	c #C9545D",
"c$	c #DB351F",
"d$	c #EC6A2B",
"e$	c #F89526",
"f$	c #F5AC1C",
"g$	c #F3BF17",
"h$	c #FABD19",
"i$	c #FAAF27",
"j$	c #F6A514",
"k$	c #FEB419",
"l$	c #F8BF13",
"m$	c #FBBD0E",
"n$	c #F3C00D",
"o$	c #F4BE0B",
"p$	c #F5BE13",
"q$	c #FBA323",
"r$	c #F0BA4C",
"s$	c #F7E260",
"t$	c #F1BB2F",
"u$	c #FDBD0F",
"v$	c #FABD18",
"w$	c #EB781A",
"x$	c #E04F25",
"y$	c #D2242F",
"z$	c #C46669",
"A$	c #AB2C3D",
"B$	c #C4585C",
"C$	c #DC3623",
"D$	c #F56927",
"E$	c #F56718",
"F$	c #EE7B13",
"G$	c #FFB125",
"H$	c #FBB922",
"I$	c #F89D20",
"J$	c #EB7213",
"K$	c #FDA82D",
"L$	c #FFB624",
"M$	c #FBBB1C",
"N$	c #F9BC15",
"O$	c #FCB91E",
"P$	c #FEB32E",
"Q$	c #EC741F",
"R$	c #EA8918",
"S$	c #F9BC1C",
"T$	c #FEB51E",
"U$	c #FEB91D",
"V$	c #FDB924",
"W$	c #F6721D",
"X$	c #E84E29",
"Y$	c #CD2E43",
"Z$	c #C5242D",
"`$	c #BA292F",
" %	c #C55663",
".%	c #EE6928",
"+%	c #F66624",
"@%	c #E96E1F",
"#%	c #F0751E",
"$%	c #E67D18",
"%%	c #EE7520",
"&%	c #F46728",
"*%	c #EA7721",
"=%	c #EE9118",
"-%	c #FABB1D",
";%	c #F8BE14",
">%	c #F8A51D",
",%	c #EB751E",
"'%	c #EF6D1A",
")%	c #EC7916",
"!%	c #EB791C",
"~%	c #EF741D",
"{%	c #EE781C",
"]%	c #E86D23",
"^%	c #DF502A",
"/%	c #CF2E3B",
"(%	c #D86A5F",
"_%	c #DC4B2B",
":%	c #E74724",
"<%	c #E74D1C",
"[%	c #F56823",
"}%	c #ED4E22",
"|%	c #E75321",
"1%	c #EA6C1E",
"2%	c #F07927",
"3%	c #F1971E",
"4%	c #F19B12",
"5%	c #F68A20",
"6%	c #F46A1C",
"7%	c #E34F26",
"8%	c #E9552E",
"9%	c #F16726",
"0%	c #EE6A24",
"a%	c #E66120",
"b%	c #E34C1D",
"c%	c #E04D22",
"d%	c #E73528",
"e%	c #C5323D",
"f%	c #C33238",
"g%	c #C03335",
"h%	c #C73A26",
"i%	c #ED6237",
"j%	c #D2301B",
"k%	c #D93523",
"l%	c #F06027",
"m%	c #F46723",
"n%	c #F06C22",
"o%	c #ED6D1C",
"p%	c #EF6C19",
"q%	c #F16829",
"r%	c #F45F36",
"s%	c #D22823",
"t%	c #D63A27",
"u%	c #EE642F",
"v%	c #F5602D",
"w%	c #DE5135",
"x%	c #CA2E34",
"y%	c #C43032",
"z%	c #CD2C38",
"A%	c #B8404C",
"B%	c #BA5A68",
"C%	c #C06371",
"D%	c #D7212A",
"E%	c #CA2423",
"F%	c #C82321",
"G%	c #D12715",
"H%	c #ED6427",
"I%	c #F36625",
"J%	c #F2682A",
"K%	c #F26721",
"L%	c #E85325",
"M%	c #C6281C",
"N%	c #D01F1F",
"O%	c #DC1B20",
"P%	c #C8281C",
"Q%	c #D82018",
"R%	c #AE3538",
"S%	c #D97D85",
"T%	c #D7788A",
"U%	c #D55B6B",
"V%	c #C62322",
"W%	c #E93C35",
"X%	c #E0492A",
"Y%	c #E04A2C",
"Z%	c #E04925",
"`%	c #DD3D29",
" &	c #C52226",
".&	c #DC6A6F",
"+&	c #C4292C",
"@&	c #BE2A3D",
"#&	c #C44A4E",
"$&	c #B2454B",
"%&	c #B82C2B",
"&&	c #BD2A31",
"*&	c #C2282D",
"=&	c #C0292D",
"-&	c #C12929",
";&	c #C3282D",
">&	c #A82F35",
",&	c #B03742",
"'&	c #C6706F",
")&	c #C94A51",
"!&	c #BB414C",
"~&	c #BA3547",
"                                                                                ",
"                                                                                ",
"                                                                                ",
"                      . +                           @                           ",
"                          #                         $                           ",
"                          %                         &                           ",
"                                      * = - ;     >                 ,           ",
"              '           )       ! ~ { ] ^ / ( _ : < [         }               ",
"              |           1     2 3 4 5 6 7 8 9 0 a b c d e f   g               ",
"                  h i j k l m n o p q r s t u v w x y z A B C D                 ",
"                  E F G H I J K L M N O P Q R S T U V W X Y Z `  .              ",
"                  ..+.@.#.$.%.&.*.=.-.;.>.,.'.).!.~.{.].^./.(._.:.              ",
"        <.      [.}.|.1.2.3.4.5.6.7.8.9.0.a.b.c.d.e.f.g.h.i.j.k.l.    m.        ",
"              n.o.p.q.r.s.t.u.v.w.x.y.z.A.B.C.D.E.F.G.H.I.J.K.L.M.N.O.          ",
"              P.Q.R.S.T.U.V.W.X.Y.Z.`. +.+++@+#+$+%+&+*+=+-+;+>+,+'+)+          ",
"                !+~+{+]+^+/+(+_+:+<+[+}+|+1+2+3+4+5+6+7+8+9+0+a+b+              ",
"              c+d+e+f+g+h+i+j+k+l+m+n+o+p+q+r+s+t+u+v+w+x+y+z+A+B+              ",
"              C+D+E+F+G+H+I+J+K+L+M+N+O+P+Q+R+S+T+U+V+W+X+Y+Z+`+ @.@            ",
"            +@@@#@$@%@&@*@=@-@;@>@,@'@)@!@~@{@]@^@/@(@_@:@<@[@}@|@1@2@          ",
"            3@4@5@6@7@8@9@0@a@b@c@d@e@f@Q+g@e@h@i@j@k@l@m@n@o@p@q@r@s@          ",
"            t@u@v@w@x@y@z@A@B@C@D@E@F@p+G@H@I@J@K@L@M@N@O@P@Q@R@S@T@U@          ",
"            V@W@X@Y@Z@`@ #.#+#@###$#%#&#*#=#-#;#>#,#'#)#!#~#{#]#^#/#(#          ",
"              _#:#<#[#}#|#1#2#3#4#5#6#7#8#9#0#a#b#c#d#e#f#g#h#i#j#k#l#          ",
"              m#n#o#p#q#r#s#t#u#v#w#x#y#z#A#B#C#D#E#F#G#H#I#J#K#L#M#            ",
"              N#O#P#Q#R#S#T#U#V#W#X#Y#Z#`# $.$+$@$#$$$%$&$*$=$-$;$              ",
"            >$  ,$'$)$!$~${$]$^$/$($_$:$<$[$}$|$1$2$3$4$5$6$7$8$9$              ",
"          0$a$  b$c$d$e$f$g$h$i$j$k$l$m$n$o$p$q$r$s$t$u$v$w$x$y$z$              ",
"        A$      B$C$D$E$F$G$H$I$J$K$L$M$N$O$P$Q$R$S$T$U$V$W$X$Y$    Z$`$        ",
"                 %C$.%+%@%#%$%%%&%*%=%-%;%>%,%p@'%)%!%~%{%]%^%/%                ",
"                  (%_%:%<%[%}%|%1%*.2%3%4%5%6%7%8%9%0%a%b%c%d%e%                ",
"                    f%g%h%i%j%k%l%m%n%o%p%q%r%s%t%u%v%w%x%y%z%A%                ",
"                B%C%      D%E%F%G%H%I%J%K%L%M%N%O%P%Q%          R%              ",
"                S%          T%U%V%W%X%Y%Z%`% &.&    +&                          ",
"              @&      #&$&      %&&&*&=&-&;&>&      ,&'&                        ",
"                      )&!&                              ~&                      ",
"                                                                                ",
"                                                                                ",
"                                                                                ",
"                                                                                ",
"                                                                                "};
