static char * Explosion_7_xpm[] = {
"40 40 352 2",
"  	c None",
". 	c #C7C6BD",
"+ 	c #D4D4CE",
"@ 	c #C3BDBA",
"# 	c #AFABA8",
"$ 	c #C2C1BE",
"% 	c #A49F9B",
"& 	c #999189",
"* 	c #999087",
"= 	c #BBB7B5",
"- 	c #B3ABA3",
"; 	c #7A685D",
"> 	c #7A685C",
", 	c #C5BEBA",
"' 	c #9B938F",
") 	c #9A9188",
"! 	c #9A9084",
"~ 	c #999184",
"{ 	c #A49D90",
"] 	c #B8B4A4",
"^ 	c #B8B7B1",
"/ 	c #B9B6B2",
"( 	c #A4978A",
"_ 	c #928072",
": 	c #786858",
"< 	c #C4C0B9",
"[ 	c #9C9087",
"} 	c #9C8D84",
"| 	c #978880",
"1 	c #969087",
"2 	c #9E8C80",
"3 	c #A68778",
"4 	c #9F8E80",
"5 	c #969182",
"6 	c #9B9385",
"7 	c #BDBAB3",
"8 	c #9A9991",
"9 	c #AFABA1",
"0 	c #A4988E",
"a 	c #9A8D80",
"b 	c #817068",
"c 	c #C8C2BD",
"d 	c #6E6A60",
"e 	c #998E88",
"f 	c #A08C83",
"g 	c #9C827B",
"h 	c #786862",
"i 	c #98897F",
"j 	c #9F826D",
"k 	c #957057",
"l 	c #A38B76",
"m 	c #979087",
"n 	c #9A9487",
"o 	c #9C9896",
"p 	c #988E88",
"q 	c #9D8E83",
"r 	c #9B8B84",
"s 	c #C4BDB8",
"t 	c #9B9085",
"u 	c #9E8D87",
"v 	c #998E86",
"w 	c #85766E",
"x 	c #847672",
"y 	c #8E8581",
"z 	c #9A8D87",
"A 	c #9F8B7F",
"B 	c #9F8D7E",
"C 	c #C8B2A1",
"D 	c #977669",
"E 	c #ADAAA5",
"F 	c #9C918A",
"G 	c #9D7E6F",
"H 	c #967362",
"I 	c #A38D80",
"J 	c #A59995",
"K 	c #AEACAA",
"L 	c #9D8F8C",
"M 	c #9A8A7D",
"N 	c #866B58",
"O 	c #8A6D5B",
"P 	c #A78A73",
"Q 	c #A5897D",
"R 	c #A1928B",
"S 	c #A0A099",
"T 	c #997C71",
"U 	c #9A8F8B",
"V 	c #A58978",
"W 	c #AE7356",
"X 	c #9A664C",
"Y 	c #9E8C7D",
"Z 	c #978D8A",
"` 	c #989492",
" .	c #A49C9A",
"..	c #7D665A",
"+.	c #8A624D",
"@.	c #93644C",
"#.	c #9B6E4B",
"$.	c #9F6B55",
"%.	c #BBA096",
"&.	c #9C8E88",
"*.	c #9C6651",
"=.	c #A25F3E",
"-.	c #93674E",
";.	c #A88B7D",
">.	c #9F9082",
",.	c #9C8E87",
"'.	c #7C6F63",
").	c #B7B8AC",
"!.	c #B0AFAA",
"~.	c #78675E",
"{.	c #7F6455",
"].	c #816751",
"^.	c #8E6651",
"/.	c #A06449",
"(.	c #AA6F4F",
"_.	c #AC917A",
":.	c #E2D8CD",
"<.	c #9E6C4E",
"[.	c #BC9473",
"}.	c #D6C5AE",
"|.	c #95715A",
"1.	c #9E6D4E",
"2.	c #9C6E51",
"3.	c #7C685F",
"4.	c #8A7C74",
"5.	c #9F9992",
"6.	c #ACABA6",
"7.	c #908683",
"8.	c #7C6B66",
"9.	c #7A6A60",
"0.	c #886E64",
"a.	c #916E57",
"b.	c #A06443",
"c.	c #A16447",
"d.	c #E3C8AA",
"e.	c #B28D7A",
"f.	c #CEBCAF",
"g.	c #96705D",
"h.	c #9C6941",
"i.	c #996339",
"j.	c #896549",
"k.	c #7E6657",
"l.	c #837667",
"m.	c #877979",
"n.	c #82706E",
"o.	c #9A9184",
"p.	c #9D907C",
"q.	c #A57863",
"r.	c #A35E41",
"s.	c #A06037",
"t.	c #B89A84",
"u.	c #9C9382",
"v.	c #A57760",
"w.	c #A15E3D",
"x.	c #A35D3D",
"y.	c #8D6458",
"z.	c #80766C",
"A.	c #B5B5B3",
"B.	c #BFBBB9",
"C.	c #949582",
"D.	c #917458",
"E.	c #A36541",
"F.	c #A45F35",
"G.	c #A35E34",
"H.	c #996D52",
"I.	c #8F857C",
"J.	c #D5BAAC",
"K.	c #A98872",
"L.	c #E8E2D2",
"M.	c #BEAB8F",
"N.	c #9E6036",
"O.	c #8E6450",
"P.	c #B6AAA1",
"Q.	c #B9B1AB",
"R.	c #948F89",
"S.	c #A09C96",
"T.	c #ABA69F",
"U.	c #BBB4A1",
"V.	c #A06C56",
"W.	c #A85B36",
"X.	c #9E6639",
"Y.	c #B8896C",
"Z.	c #AD9383",
"`.	c #A19693",
" +	c #CBC4BC",
".+	c #D2C5BB",
"++	c #B39D8D",
"@+	c #D4C6BB",
"#+	c #B19177",
"$+	c #A29387",
"%+	c #C3BEBA",
"&+	c #A6A09B",
"*+	c #746961",
"=+	c #95887C",
"-+	c #99928B",
";+	c #A67566",
">+	c #A35C3B",
",+	c #926B4C",
"'+	c #CBC4B8",
")+	c #796658",
"!+	c #796C62",
"~+	c #816F62",
"{+	c #897A71",
"]+	c #9B9187",
"^+	c #ADA69F",
"/+	c #C3C3C3",
"(+	c #9A9491",
"_+	c #C7BFB4",
":+	c #9F968F",
"<+	c #998D87",
"[+	c #806D66",
"}+	c #836F68",
"|+	c #95867D",
"1+	c #B1A6A0",
"2+	c #DFCEC7",
"3+	c #B99689",
"4+	c #906D58",
"5+	c #E3C8B3",
"6+	c #C8C1BD",
"7+	c #A09993",
"8+	c #8E817E",
"9+	c #776962",
"0+	c #786C65",
"a+	c #77736C",
"b+	c #A17055",
"c+	c #A0603A",
"d+	c #9E613D",
"e+	c #A15C3C",
"f+	c #966547",
"g+	c #856A58",
"h+	c #8F877F",
"i+	c #8D847C",
"j+	c #ACA3A0",
"k+	c #948C7C",
"l+	c #B2B1AB",
"m+	c #A36E51",
"n+	c #AC5B37",
"o+	c #A2603A",
"p+	c #9C613A",
"q+	c #9E613E",
"r+	c #8E6A55",
"s+	c #C9B7A8",
"t+	c #7F6755",
"u+	c #857266",
"v+	c #A39797",
"w+	c #9E998E",
"x+	c #BEB9B5",
"y+	c #B19884",
"z+	c #B07453",
"A+	c #A55F36",
"B+	c #A35F35",
"C+	c #9E5F39",
"D+	c #8C6852",
"E+	c #7F776F",
"F+	c #876450",
"G+	c #956148",
"H+	c #AB846C",
"I+	c #A08C81",
"J+	c #9A9492",
"K+	c #867770",
"L+	c #CBA68B",
"M+	c #A15F39",
"N+	c #9D603A",
"O+	c #906449",
"P+	c #7C6559",
"Q+	c #786D67",
"R+	c #978B88",
"S+	c #83756E",
"T+	c #8F644E",
"U+	c #A15E3E",
"V+	c #9E653F",
"W+	c #98765A",
"X+	c #A09388",
"Y+	c #85776E",
"Z+	c #A59D93",
"`+	c #858179",
" @	c #936753",
".@	c #9A6141",
"+@	c #886646",
"@@	c #816757",
"#@	c #786C69",
"$@	c #A5A09C",
"%@	c #B0ACA8",
"&@	c #83766F",
"*@	c #846556",
"=@	c #8C6752",
"-@	c #8D634A",
";@	c #9B6D56",
">@	c #A88677",
",@	c #E5CBB8",
"'@	c #9E9186",
")@	c #ADA7A1",
"!@	c #9D928D",
"~@	c #937563",
"{@	c #8D6852",
"]@	c #846654",
"^@	c #877568",
"/@	c #968D88",
"(@	c #847674",
"_@	c #78655A",
":@	c #7B665A",
"<@	c #7B675F",
"[@	c #8C624F",
"}@	c #996850",
"|@	c #D1BFA8",
"1@	c #946350",
"2@	c #C6C2BB",
"3@	c #716A65",
"4@	c #B8AEA9",
"5@	c #76685D",
"6@	c #73685E",
"7@	c #B0A9A2",
"8@	c #C4A996",
"9@	c #99735D",
"0@	c #CDC4BE",
"a@	c #796A5C",
"b@	c #7A6760",
"c@	c #846459",
"d@	c #876552",
"e@	c #907F79",
"f@	c #8C786F",
"g@	c #836558",
"h@	c #937C78",
"i@	c #ACA39E",
"j@	c #C9BBB3",
"k@	c #A4917B",
"l@	c #9F9F97",
"m@	c #A59B97",
"n@	c #A49B9C",
"o@	c #9F9C95",
"p@	c #7E6C5D",
"q@	c #7F655E",
"r@	c #786A5B",
"s@	c #9C9291",
"t@	c #CDC9C0",
"u@	c #CDC8C4",
"v@	c #ABA199",
"w@	c #968D85",
"x@	c #827876",
"y@	c #807165",
"z@	c #7C736C",
"A@	c #B7B4AF",
"B@	c #868178",
"C@	c #847A76",
"D@	c #7E7068",
"E@	c #827D77",
"F@	c #746F6B",
"G@	c #C7C1BC",
"H@	c #6F6A66",
"I@	c #AFAAA6",
"J@	c #E0DCD7",
"K@	c #ADA7A4",
"                                                                                ",
"                                                                                ",
"                                                                                ",
"                                                                                ",
"                                                                                ",
"                                        . +         @                           ",
"                                        # $         %                           ",
"                              & * * =                       - ; > ,             ",
"                            ' ) ! ~ { ]           ^       / ( _ : <             ",
"                      [ } | 1 2 3 4 5 6         7 8       9 0 a b c             ",
"              d     e f g h i j k l m n       o p q r s       t u               ",
"                    v w x y z A B   C D     E F G H I J K       L               ",
"                    M N O P Q R S     T     U V W X Y Z `        .              ",
"                    ..+.@.#.$.%.            &.*.=.-.;.>.,.'.).                  ",
"              !.    ~.{.].^./.(._.          :.<.[.}.|.1.2.3.4.5.                ",
"              6.    7.8.9.0.a.b.c.d.          e.f.  g.h.i.j.k.l.                ",
"                      m.n.o.p.q.r.s.t.              u.v.w.x.y.z.                ",
"                A.B.      C.D.E.F.G.H.I.        J.K.L.M.N.O.P.    Q.R.          ",
"                S.T.      U.V.W.X.Y.Z.`.     +  .+++  @+#+$+      %+&+          ",
"              *+=+* -+      ;+>+,+        '+)+                                  ",
"              !+~+{+]+^+                        /+(+        _+:+                ",
"              <+[+}+|+1+                      2+3+4+5+      6+7+                ",
"                8+9+0+          a+            b+c+d+e+f+g+                      ",
"                          h+i+j+  k+l+        m+n+o+p+q+r+                      ",
"                        s+t+u+v+  w+x+        y+z+A+B+C+D+                      ",
"                      E+F+G+H+I+J+      K+      L+M+N+O+P+Q+                    ",
"                R+S.  S+T+U+V+W+X+      Y+Z+  `+ @.@+@@@#@                      ",
"                $@%@  &@*@=@-@;@>@    ,@'@)@  !@~@{@]@^@/@                      ",
"                      (@_@:@<@[@}@  |@1@  2@3@  4@5@6@7@    8@9@                ",
"                        0@a@b@c@d@e@f@g@h@i@                j@k@                ",
"                          l@m@n@o@p@q@r@s@        t@      u@v@w@                ",
"                                  x@y@z@        A@B@      C@D@E@                ",
"                    F@                    G@H@                                  ",
"                    I@                    J@K@                                  ",
"                                                                                ",
"                                                                                ",
"                                                                                ",
"                                                                                ",
"                                                                                ",
"                                                                                "};
