static char * Explosion_8_xpm[] = {
"40 40 180 2",
"  	c None",
". 	c #B7B2AF",
"+ 	c #C2BFBD",
"@ 	c #A5A29C",
"# 	c #A6A199",
"$ 	c #B7B4B1",
"% 	c #C0C0BB",
"& 	c #958F83",
"* 	c #998F84",
"= 	c #B5B2AD",
"- 	c #989891",
"; 	c #969286",
"> 	c #979083",
", 	c #998F85",
"' 	c #B7B2AC",
") 	c #A1A09C",
"! 	c #A4A19A",
"~ 	c #A4A59E",
"{ 	c #9D9A8F",
"] 	c #969385",
"^ 	c #959184",
"/ 	c #968E85",
"( 	c #9A948D",
"_ 	c #9F9D99",
": 	c #CFC1B6",
"< 	c #998677",
"[ 	c #998D83",
"} 	c #ABA9A5",
"| 	c #B1B2AB",
"1 	c #B9B9AE",
"2 	c #A8A293",
"3 	c #969085",
"4 	c #998E83",
"5 	c #978B7D",
"6 	c #998673",
"7 	c #D3C5B9",
"8 	c #B19E90",
"9 	c #8F7662",
"0 	c #8F7560",
"a 	c #9C8877",
"b 	c #AFA8A1",
"c 	c #D0CDC2",
"d 	c #969388",
"e 	c #989083",
"f 	c #988575",
"g 	c #96765B",
"h 	c #92755B",
"i 	c #B7AA9D",
"j 	c #9B9994",
"k 	c #9D9186",
"l 	c #9C8674",
"m 	c #93765F",
"n 	c #957760",
"o 	c #927862",
"p 	c #917D6D",
"q 	c #DCD3CC",
"r 	c #A09A8F",
"s 	c #9B8472",
"t 	c #987254",
"u 	c #937357",
"v 	c #B8AA9C",
"w 	c #98968F",
"x 	c #989088",
"y 	c #988A7F",
"z 	c #8F7D6F",
"A 	c #A79589",
"B 	c #AB998B",
"C 	c #A7988E",
"D 	c #E0DBD6",
"E 	c #E0E1DB",
"F 	c #A09B94",
"G 	c #998573",
"H 	c #91755F",
"I 	c #A79584",
"J 	c #9A9589",
"K 	c #998E89",
"L 	c #988F88",
"M 	c #98908A",
"N 	c #A7A4A1",
"O 	c #B2B2AF",
"P 	c #A3988A",
"Q 	c #9B8674",
"R 	c #867665",
"S 	c #98948B",
"T 	c #979087",
"U 	c #A39E95",
"V 	c #A38E7D",
"W 	c #ABA296",
"X 	c #927F6B",
"Y 	c #A7998C",
"Z 	c #D3D4D0",
"` 	c #BBB8B4",
" .	c #A49D91",
"..	c #A19C91",
"+.	c #B3A69A",
"@.	c #CEC7BE",
"#.	c #C5C0B7",
"$.	c #BDB4AC",
"%.	c #B3A79D",
"&.	c #C6C1BD",
"*.	c #959691",
"=.	c #BBB3AC",
"-.	c #999188",
";.	c #989189",
">.	c #AEA8A3",
",.	c #B5B3B0",
"'.	c #958577",
").	c #929084",
"!.	c #928E82",
"~.	c #ACA7A7",
"{.	c #99908D",
"].	c #B4B3AE",
"^.	c #9D968E",
"/.	c #ABAAA3",
"(.	c #BAB2B2",
"_.	c #A9A4A0",
":.	c #AEADA8",
"<.	c #A1A29B",
"[.	c #BFC0BA",
"}.	c #B2B3AD",
"|.	c #A4A69F",
"1.	c #CBCBC7",
"2.	c #BFC2BB",
"3.	c #B1A5A1",
"4.	c #989993",
"5.	c #CCC9C2",
"6.	c #CDCAC2",
"7.	c #C9C8BD",
"8.	c #C0BFB8",
"9.	c #E7E2DB",
"0.	c #999187",
"a.	c #969287",
"b.	c #ADAAA2",
"c.	c #B9B2AC",
"d.	c #998F83",
"e.	c #948F84",
"f.	c #ABA8A5",
"g.	c #989994",
"h.	c #BDBDBA",
"i.	c #BAB2AB",
"j.	c #998C81",
"k.	c #908376",
"l.	c #C6BFB5",
"m.	c #CCCBC7",
"n.	c #D1D0CF",
"o.	c #D1D2CD",
"p.	c #BAB1AE",
"q.	c #9B8979",
"r.	c #8D7964",
"s.	c #A8A7A3",
"t.	c #B1B0AF",
"u.	c #BAB2AC",
"v.	c #9B8B79",
"w.	c #8E765E",
"x.	c #967E69",
"y.	c #988878",
"z.	c #A2968C",
"A.	c #E2DBD7",
"B.	c #9F9B93",
"C.	c #DCDBD7",
"D.	c #B9B6AB",
"E.	c #908273",
"F.	c #937562",
"G.	c #957661",
"H.	c #9B826D",
"I.	c #BAAB9A",
"J.	c #C5BCB2",
"K.	c #C4BEB9",
"L.	c #D4D5CE",
"M.	c #CFD0CB",
"N.	c #9D9A8E",
"O.	c #95867A",
"P.	c #968172",
"Q.	c #978271",
"R.	c #938373",
"S.	c #A29990",
"T.	c #ADAFA4",
"U.	c #B8B9B2",
"V.	c #A2A39E",
"W.	c #B7B8B2",
"                                                                                ",
"                                                                                ",
"                                                                                ",
"                                                                                ",
"                                                                                ",
"                                                . +       @ #                   ",
"                                                $ %       & * =                 ",
"                                                      - ; > , '                 ",
"                      ) !               ~             { ] ^ / ( _               ",
"                    : < [ }             |             1 2 3 4 5 6 7             ",
"                  8 9 0 a b                             c d e f g h i           ",
"                j k l m n o p q                             r s t u v           ",
"                w x y z A B C D                 E           F G H I             ",
"                J K L M                         N O         P Q R               ",
"                S T U             V                       W X Y                 ",
"          Z     `  ...            +.@.                  #.$.%.&.                ",
"          *.      =.-.;.            >.,.              '.                        ",
"                      ).!.~.                        {.                          ",
"                      ].^./.                        (.                          ",
"                        _.:.                                      <.[.          ",
"                  }.|.                                                          ",
"                  1.2.                              3.                          ",
"                                                                                ",
"                            4.                                                  ",
"                      5.6.7.8.                                                  ",
"                    9.0.a.b.                                                    ",
"                  c., d.e.f.                          g.h.                      ",
"                  i.j.k.l.          m.n.              o.                        ",
"                  p.q.r.            s.t.                                        ",
"                  u.v.w.x.y.z.A.  B.C.                                          ",
"                    D.E.F.G.H.I.J.K.            L.          M.                  ",
"                      N.O.P.Q.R.S.              T.U.        V.W.                ",
"                                                                                ",
"                                                                                ",
"                                                                                ",
"                                                                                ",
"                                                                                ",
"                                                                                ",
"                                                                                ",
"                                                                                "};
